(----- header -----)
(.../pcb-gcode-3.6.2.4/pcb-gcode.ulp)
(Copyright 2005 - 2012 by John Johnson)
(See readme.txt for licensing terms.)
(This file generated from the board:)
(.../025_電子示波器/single_單個/SoundCard-OSC.brd)
(Current profile is .../pcb-gcode-3.6.2.4/profiles/mach.pp  )
(This file generated 2015/8/4 3:35)
(Settings from pcb-machine.h)
(spindle on time = 3.0000)
(  Tool Size)
(0.1000  )
(spindle speed = 30000.0000)
(tool change at 0.0000  0.0000  25.4000 )
(feed rate xy = F508   )
(feed rate z  = F254   )
(Z Axis Settings)
(  High     Up        Down     Drill)
(5.0000  	3.0000  	-0.2000 	-2.0000 )
(Settings from pcb-defaults.h)
(isolate min = 0.5000)
(isolate max = 0.5080)
(isolate step = 0.1270)
(Generated top outlines, top drill, )
(Unit of measure: mm)
(Metric Mode)
G21
(Absolute Coordinates)
G90
S30000
G00 Z5.0000
G00 X0.0000  Y0.0000
M03
G04 P3.000000
(----- etch -----)
G00 Z3.0000
G00 X3.0554 Y6.1965
G01 Z-0.2000 F254
G01 X2.9347 Y6.3626 F609
G01 X2.8415 Y6.5454
G01 X2.7781 Y6.7406
G01 X2.7460 Y6.9434
G01 X2.7460 Y8.6566
G01 X2.7781 Y8.8594
G01 X2.8415 Y9.0546
G01 X2.9347 Y9.2374
G01 X3.0554 Y9.4035
G01 X3.2005 Y9.5486
G01 X3.3110 Y9.6289
G01 X3.3110 Y12.1544
G01 X3.3076 Y12.1805
G01 X3.3110 Y12.2284
G01 X3.3110 Y12.2764
G01 X3.3161 Y12.3022
G01 X3.3179 Y12.3285
G01 X3.3305 Y12.3748
G01 X3.3399 Y12.4220
G01 X3.3500 Y12.4463
G01 X3.3569 Y12.4716
G01 X3.3783 Y12.5146
G01 X3.3967 Y12.5590
G01 X3.4113 Y12.5809
G01 X3.4230 Y12.6044
G01 X3.4524 Y12.6424
G01 X3.4791 Y12.6824
G01 X3.4977 Y12.7010
G01 X3.5138 Y12.7218
G01 X3.5500 Y12.7533
G01 X3.5840 Y12.7873
G01 X3.6059 Y12.8019
G01 X10.0916 Y18.4450
G01 X10.1257 Y18.4791
G01 X10.1474 Y18.4936
G01 X10.1672 Y18.5107
G01 X10.2090 Y18.5347
G01 X10.2491 Y18.5614
G01 X10.2732 Y18.5714
G01 X10.2959 Y18.5844
G01 X10.3417 Y18.5997
G01 X10.3862 Y18.6182
G01 X10.4118 Y18.6232
G01 X10.4366 Y18.6316
G01 X10.4845 Y18.6377
G01 X10.5317 Y18.6470
G01 X10.5578 Y18.6470
G01 X10.5838 Y18.6503
G01 X10.6319 Y18.6470
G01 X14.1402 Y18.6456
G01 X14.1654 Y18.6803
G01 X14.3001 Y18.8150
G01 X14.4543 Y18.9270
G01 X14.6240 Y19.0135
G01 X14.8052 Y19.0724
G01 X14.9934 Y19.1022
G01 X16.5047 Y19.1022
G01 X16.6929 Y19.0724
G01 X16.8741 Y19.0135
G01 X17.0438 Y18.9270
G01 X17.1980 Y18.8150
G01 X17.3327 Y18.6803
G01 X17.3584 Y18.6450
G01 X27.8057 Y18.6450
G01 X27.8057 Y18.7527
G01 X27.8355 Y18.9409
G01 X27.8944 Y19.1221
G01 X27.9809 Y19.2919
G01 X28.0929 Y19.4460
G01 X28.2276 Y19.5807
G01 X28.3817 Y19.6927
G01 X28.5515 Y19.7792
G01 X28.7327 Y19.8381
G01 X28.9208 Y19.8679
G01 X29.1114 Y19.8679
G01 X29.2995 Y19.8381
G01 X29.4807 Y19.7792
G01 X29.6505 Y19.6927
G01 X29.8046 Y19.5807
G01 X29.9393 Y19.4460
G01 X30.0513 Y19.2919
G01 X30.1378 Y19.1221
G01 X30.1967 Y18.9409
G01 X30.2265 Y18.7527
G01 X31.9290 Y18.7503
G01 X31.9290 Y18.7739
G01 X31.9588 Y18.9621
G01 X32.0177 Y19.1433
G01 X32.1042 Y19.3130
G01 X32.2162 Y19.4672
G01 X32.3509 Y19.6019
G01 X32.5050 Y19.7139
G01 X32.6748 Y19.8004
G01 X32.8560 Y19.8592
G01 X33.0442 Y19.8890
G01 X33.2347 Y19.8890
G01 X33.4228 Y19.8592
G01 X33.6040 Y19.8004
G01 X33.7738 Y19.7139
G01 X33.9279 Y19.6019
G01 X34.0626 Y19.4672
G01 X34.1746 Y19.3130
G01 X34.2611 Y19.1433
G01 X34.3200 Y18.9621
G01 X34.3498 Y18.7739
G01 X40.1314 Y18.7714
G01 X40.1948 Y18.8958
G01 X40.3103 Y19.0548
G01 X40.4493 Y19.1938
G01 X40.6083 Y19.3093
G01 X40.7834 Y19.3985
G01 X40.9703 Y19.4592
G01 X41.1644 Y19.4900
G01 X42.7579 Y19.4900
G01 X42.9520 Y19.4592
G01 X43.1389 Y19.3985
G01 X43.3140 Y19.3093
G01 X43.4730 Y19.1938
G01 X43.6119 Y19.0548
G01 X43.7274 Y18.8958
G01 X43.8167 Y18.7207
G01 X43.8774 Y18.5338
G01 X43.9081 Y18.3397
G01 X43.9081 Y18.1432
G01 X43.8774 Y17.9491
G01 X43.8167 Y17.7622
G01 X43.7274 Y17.5871
G01 X43.6119 Y17.4281
G01 X43.4730 Y17.2892
G01 X43.3140 Y17.1736
G01 X43.1389 Y17.0844
G01 X42.9520 Y17.0237
G01 X42.7579 Y16.9930
G01 X41.1644 Y16.9930
G01 X40.9703 Y17.0237
G01 X40.7834 Y17.0844
G01 X40.6083 Y17.1736
G01 X40.4825 Y17.2650
G01 X34.3498 Y17.2650
G01 X34.3200 Y17.0744
G01 X34.2611 Y16.8932
G01 X34.1746 Y16.7234
G01 X34.0626 Y16.5693
G01 X33.9279 Y16.4346
G01 X33.7738 Y16.3226
G01 X33.6040 Y16.2361
G01 X33.4228 Y16.1772
G01 X33.2347 Y16.1474
G01 X33.0442 Y16.1474
G01 X32.8560 Y16.1772
G01 X32.6748 Y16.2361
G01 X32.5050 Y16.3226
G01 X32.3509 Y16.4346
G01 X32.2162 Y16.5693
G01 X32.1042 Y16.7234
G01 X32.0177 Y16.8932
G01 X31.9588 Y17.0744
G01 X31.9320 Y17.2439
G01 X30.2265 Y17.2439
G01 X30.1967 Y17.0532
G01 X30.1378 Y16.8720
G01 X30.0513 Y16.7023
G01 X29.9393 Y16.5481
G01 X29.8046 Y16.4134
G01 X29.6505 Y16.3014
G01 X29.4807 Y16.2150
G01 X29.2995 Y16.1561
G01 X29.1114 Y16.1263
G01 X28.9208 Y16.1263
G01 X28.7327 Y16.1561
G01 X28.5515 Y16.2150
G01 X28.3817 Y16.3014
G01 X28.2276 Y16.4134
G01 X28.0929 Y16.5481
G01 X27.9809 Y16.7023
G01 X27.8944 Y16.8720
G01 X27.8355 Y17.0532
G01 X27.8220 Y17.1386
G01 X17.3584 Y17.1386
G01 X17.3327 Y17.1033
G01 X17.1980 Y16.9686
G01 X17.0438 Y16.8566
G01 X16.8741 Y16.7701
G01 X16.6929 Y16.7112
G01 X16.5047 Y16.6814
G01 X14.9934 Y16.6814
G01 X14.8052 Y16.7112
G01 X14.6240 Y16.7701
G01 X14.4543 Y16.8566
G01 X14.3001 Y16.9686
G01 X14.1654 Y17.1033
G01 X14.1393 Y17.1392
G01 X10.8873 Y17.1405
G01 X4.8174 Y11.8592
G01 X4.8174 Y9.6083
G01 X4.8995 Y9.5486
G01 X5.0446 Y9.4035
G01 X5.1653 Y9.2374
G01 X5.2585 Y9.0546
G01 X5.3219 Y8.8594
G01 X5.3540 Y8.6566
G01 X5.3540 Y6.9434
G01 X5.3219 Y6.7406
G01 X5.2585 Y6.5454
G01 X5.1653 Y6.3626
G01 X5.0446 Y6.1965
G01 X4.8995 Y6.0514
G01 X4.7334 Y5.9307
G01 X4.5506 Y5.8375
G01 X4.3554 Y5.7741
G01 X4.1526 Y5.7420
G01 X3.9474 Y5.7420
G01 X3.7446 Y5.7741
G01 X3.5494 Y5.8375
G01 X3.3666 Y5.9307
G01 X3.2005 Y6.0514
G01 X3.0554 Y6.1965
G00 Z3.0000
G00 X6.5554 Y6.1965
G01 Z-0.2000 F254
G01 X6.4347 Y6.3626 F609
G01 X6.3415 Y6.5454
G01 X6.2781 Y6.7406
G01 X6.2460 Y6.9434
G01 X6.2460 Y8.6566
G01 X6.2781 Y8.8594
G01 X6.3415 Y9.0546
G01 X6.4347 Y9.2374
G01 X6.5554 Y9.4035
G01 X6.7005 Y9.5486
G01 X6.8444 Y9.6532
G01 X6.8444 Y11.4800
G01 X6.8408 Y11.5126
G01 X6.8444 Y11.5540
G01 X6.8444 Y11.5956
G01 X6.8508 Y11.6277
G01 X6.8536 Y11.6604
G01 X6.8652 Y11.7003
G01 X6.8733 Y11.7411
G01 X6.8859 Y11.7714
G01 X6.8950 Y11.8029
G01 X6.9142 Y11.8398
G01 X6.9301 Y11.8782
G01 X6.9483 Y11.9054
G01 X6.9634 Y11.9345
G01 X6.9894 Y11.9670
G01 X7.0125 Y12.0015
G01 X7.0357 Y12.0247
G01 X7.0562 Y12.0503
G01 X7.0880 Y12.0771
G01 X7.1174 Y12.1065
G01 X7.1447 Y12.1247
G01 X10.6284 Y15.0523
G01 X10.6284 Y15.8413
G01 X10.6582 Y16.0294
G01 X10.7171 Y16.2106
G01 X10.8036 Y16.3804
G01 X10.9155 Y16.5345
G01 X11.0503 Y16.6692
G01 X11.2044 Y16.7812
G01 X11.3742 Y16.8677
G01 X11.5554 Y16.9266
G01 X11.7435 Y16.9564
G01 X11.9340 Y16.9564
G01 X12.1222 Y16.9266
G01 X12.3034 Y16.8677
G01 X12.4732 Y16.7812
G01 X12.6273 Y16.6692
G01 X12.7620 Y16.5345
G01 X12.8740 Y16.3804
G01 X12.9605 Y16.2106
G01 X13.0194 Y16.0294
G01 X13.0492 Y15.8413
G01 X13.0492 Y14.3299
G01 X13.0194 Y14.1418
G01 X12.9605 Y13.9606
G01 X12.8740 Y13.7908
G01 X12.7620 Y13.6367
G01 X12.6273 Y13.5020
G01 X12.4732 Y13.3900
G01 X12.3034 Y13.3035
G01 X12.1222 Y13.2446
G01 X11.9340 Y13.2148
G01 X11.7435 Y13.2148
G01 X11.5554 Y13.2446
G01 X11.3742 Y13.3035
G01 X11.2044 Y13.3900
G01 X11.0904 Y13.4728
G01 X8.3508 Y11.1705
G01 X8.3508 Y9.5840
G01 X8.3995 Y9.5486
G01 X8.5446 Y9.4035
G01 X8.6653 Y9.2374
G01 X8.7585 Y9.0546
G01 X8.8219 Y8.8594
G01 X8.8540 Y8.6566
G01 X8.8540 Y6.9434
G01 X8.8219 Y6.7406
G01 X8.7585 Y6.5454
G01 X8.6653 Y6.3626
G01 X8.5446 Y6.1965
G01 X8.3995 Y6.0514
G01 X8.2334 Y5.9307
G01 X8.0506 Y5.8375
G01 X7.8554 Y5.7741
G01 X7.6526 Y5.7420
G01 X7.4474 Y5.7420
G01 X7.2446 Y5.7741
G01 X7.0494 Y5.8375
G01 X6.8666 Y5.9307
G01 X6.7005 Y6.0514
G01 X6.5554 Y6.1965
G00 Z3.0000
G00 X10.8036 Y6.2204
G01 Z-0.2000 F254
G01 X10.9155 Y6.3745 F609
G01 X11.0503 Y6.5092
G01 X11.2044 Y6.6212
G01 X11.3742 Y6.7077
G01 X11.5554 Y6.7666
G01 X11.7435 Y6.7964
G01 X11.9340 Y6.7964
G01 X12.1222 Y6.7666
G01 X12.3034 Y6.7077
G01 X12.4732 Y6.6212
G01 X12.6273 Y6.5092
G01 X12.6801 Y6.4564
G01 X13.9372 Y7.3586
G01 X13.9081 Y7.4484
G01 X13.8783 Y7.6365
G01 X13.8783 Y7.8270
G01 X13.9081 Y8.0152
G01 X13.9669 Y8.1964
G01 X14.0534 Y8.3662
G01 X14.1654 Y8.5203
G01 X14.3001 Y8.6550
G01 X14.4543 Y8.7670
G01 X14.6240 Y8.8535
G01 X14.8052 Y8.9124
G01 X14.9934 Y8.9422
G01 X16.5047 Y8.9422
G01 X16.6929 Y8.9124
G01 X16.8741 Y8.8535
G01 X17.0438 Y8.7670
G01 X17.1980 Y8.6550
G01 X17.3327 Y8.5203
G01 X17.4447 Y8.3662
G01 X17.5312 Y8.1964
G01 X17.5901 Y8.0152
G01 X17.6199 Y7.8270
G01 X17.6199 Y7.6365
G01 X17.5901 Y7.4484
G01 X17.5312 Y7.2672
G01 X17.4447 Y7.0974
G01 X17.3327 Y6.9433
G01 X17.1980 Y6.8086
G01 X17.0438 Y6.6966
G01 X16.8741 Y6.6101
G01 X16.6929 Y6.5512
G01 X16.5047 Y6.5214
G01 X15.3543 Y6.5214
G01 X13.0492 Y4.8672
G01 X13.0492 Y4.1699
G01 X13.0194 Y3.9818
G01 X12.9605 Y3.8006
G01 X12.8740 Y3.6308
G01 X12.7620 Y3.4767
G01 X12.6273 Y3.3420
G01 X12.4732 Y3.2300
G01 X12.3034 Y3.1435
G01 X12.1222 Y3.0846
G01 X11.9340 Y3.0548
G01 X11.7435 Y3.0548
G01 X11.5554 Y3.0846
G01 X11.3742 Y3.1435
G01 X11.2044 Y3.2300
G01 X11.0503 Y3.3420
G01 X10.9155 Y3.4767
G01 X10.8036 Y3.6308
G01 X10.7171 Y3.8006
G01 X10.6582 Y3.9818
G01 X10.6284 Y4.1699
G01 X10.6284 Y5.6813
G01 X10.6582 Y5.8694
G01 X10.7171 Y6.0506
G01 X10.8036 Y6.2204
G00 Z3.0000
G00 X14.1654 Y9.4833
G01 Z-0.2000 F254
G01 X14.0534 Y9.6374 F609
G01 X13.9669 Y9.8072
G01 X13.9081 Y9.9884
G01 X13.8783 Y10.1765
G01 X13.8783 Y10.3671
G01 X13.9081 Y10.5552
G01 X13.9669 Y10.7364
G01 X14.0534 Y10.9062
G01 X14.1654 Y11.0603
G01 X14.3001 Y11.1950
G01 X14.4543 Y11.3070
G01 X14.6240 Y11.3935
G01 X14.8052 Y11.4524
G01 X14.9934 Y11.4822
G01 X16.5047 Y11.4822
G01 X16.6929 Y11.4524
G01 X16.8741 Y11.3935
G01 X17.0438 Y11.3070
G01 X17.1980 Y11.1950
G01 X17.3327 Y11.0603
G01 X17.4447 Y10.9062
G01 X17.5312 Y10.7364
G01 X17.5901 Y10.5552
G01 X17.6199 Y10.3671
G01 X17.6199 Y10.1765
G01 X17.5901 Y9.9884
G01 X17.5312 Y9.8072
G01 X17.4447 Y9.6374
G01 X17.3327 Y9.4833
G01 X17.1980 Y9.3485
G01 X17.0438 Y9.2366
G01 X16.8741 Y9.1501
G01 X16.6929 Y9.0912
G01 X16.5047 Y9.0614
G01 X14.9934 Y9.0614
G01 X14.8052 Y9.0912
G01 X14.6240 Y9.1501
G01 X14.4543 Y9.2366
G01 X14.3001 Y9.3485
G01 X14.1654 Y9.4833
G00 Z3.0000
G00 X14.1654 Y12.0233
G01 Z-0.2000 F254
G01 X14.0534 Y12.1774 F609
G01 X13.9669 Y12.3472
G01 X13.9081 Y12.5284
G01 X13.8783 Y12.7165
G01 X13.8783 Y12.9070
G01 X13.9081 Y13.0952
G01 X13.9669 Y13.2764
G01 X14.0534 Y13.4462
G01 X14.1654 Y13.6003
G01 X14.3001 Y13.7350
G01 X14.4543 Y13.8470
G01 X14.6240 Y13.9335
G01 X14.8052 Y13.9924
G01 X14.9934 Y14.0222
G01 X16.5047 Y14.0222
G01 X16.6929 Y13.9924
G01 X16.8741 Y13.9335
G01 X17.0438 Y13.8470
G01 X17.1980 Y13.7350
G01 X17.3327 Y13.6003
G01 X17.3468 Y13.5808
G01 X22.5282 Y13.6321
G01 X22.5603 Y13.6360
G01 X22.6022 Y13.6328
G01 X22.6443 Y13.6332
G01 X22.6760 Y13.6272
G01 X22.7082 Y13.6248
G01 X22.7487 Y13.6135
G01 X22.7901 Y13.6057
G01 X22.8201 Y13.5937
G01 X22.8512 Y13.5850
G01 X22.8887 Y13.5660
G01 X22.9277 Y13.5503
G01 X22.9547 Y13.5326
G01 X22.9836 Y13.5181
G01 X23.0167 Y13.4921
G01 X23.0519 Y13.4691
G01 X23.0749 Y13.4465
G01 X28.2223 Y9.4154
G01 X28.2276 Y9.4207
G01 X28.3817 Y9.5327
G01 X28.5515 Y9.6192
G01 X28.7327 Y9.6781
G01 X28.9208 Y9.7079
G01 X29.1114 Y9.7079
G01 X29.2995 Y9.6781
G01 X29.4807 Y9.6192
G01 X29.6505 Y9.5327
G01 X29.8046 Y9.4207
G01 X29.9393 Y9.2860
G01 X30.0513 Y9.1319
G01 X30.1378 Y8.9621
G01 X30.1967 Y8.7809
G01 X30.2265 Y8.5927
G01 X31.9290 Y8.5903
G01 X31.9290 Y8.6139
G01 X31.9588 Y8.8021
G01 X32.0177 Y8.9833
G01 X32.1042 Y9.1530
G01 X32.2162 Y9.3072
G01 X32.3509 Y9.4419
G01 X32.5050 Y9.5539
G01 X32.6748 Y9.6403
G01 X32.8560 Y9.6992
G01 X33.0442 Y9.7290
G01 X33.2347 Y9.7290
G01 X33.4228 Y9.6992
G01 X33.6040 Y9.6403
G01 X33.7692 Y9.5562
G01 X38.9083 Y14.7082
G01 X38.8873 Y14.7371
G01 X38.7981 Y14.9122
G01 X38.7374 Y15.0991
G01 X38.7066 Y15.2932
G01 X38.7066 Y15.4897
G01 X38.7374 Y15.6838
G01 X38.7981 Y15.8707
G01 X38.8873 Y16.0458
G01 X39.0028 Y16.2048
G01 X39.1418 Y16.3438
G01 X39.3008 Y16.4593
G01 X39.4759 Y16.5485
G01 X39.6628 Y16.6092
G01 X39.8569 Y16.6400
G01 X41.4504 Y16.6400
G01 X41.6445 Y16.6092
G01 X41.8314 Y16.5485
G01 X42.0065 Y16.4593
G01 X42.1655 Y16.3438
G01 X42.3044 Y16.2048
G01 X42.4199 Y16.0458
G01 X42.5092 Y15.8707
G01 X42.5699 Y15.6838
G01 X42.6006 Y15.4897
G01 X42.6006 Y15.2932
G01 X42.5699 Y15.0991
G01 X42.5092 Y14.9122
G01 X42.4199 Y14.7371
G01 X42.3044 Y14.5781
G01 X42.1655 Y14.4392
G01 X42.0065 Y14.3237
G01 X41.8314 Y14.2344
G01 X41.6445 Y14.1737
G01 X41.4504 Y14.1430
G01 X40.4721 Y14.1430
G01 X34.3498 Y8.0052
G01 X34.3498 Y7.1026
G01 X34.3200 Y6.9144
G01 X34.2611 Y6.7332
G01 X34.1746 Y6.5634
G01 X34.0626 Y6.4093
G01 X33.9279 Y6.2746
G01 X33.7738 Y6.1626
G01 X33.6040 Y6.0761
G01 X33.4228 Y6.0172
G01 X33.2347 Y5.9874
G01 X33.0442 Y5.9874
G01 X32.8560 Y6.0172
G01 X32.6748 Y6.0761
G01 X32.5050 Y6.1626
G01 X32.3509 Y6.2746
G01 X32.2162 Y6.4093
G01 X32.1042 Y6.5634
G01 X32.0177 Y6.7332
G01 X31.9588 Y6.9144
G01 X31.9320 Y7.0839
G01 X30.2265 Y7.0839
G01 X30.1967 Y6.8932
G01 X30.1378 Y6.7120
G01 X30.0513 Y6.5423
G01 X29.9393 Y6.3882
G01 X29.8046 Y6.2534
G01 X29.6505 Y6.1414
G01 X29.4807 Y6.0550
G01 X29.2995 Y5.9961
G01 X29.1114 Y5.9663
G01 X28.9208 Y5.9663
G01 X28.7327 Y5.9961
G01 X28.5515 Y6.0550
G01 X28.3817 Y6.1414
G01 X28.2276 Y6.2534
G01 X28.0929 Y6.3882
G01 X27.9809 Y6.5423
G01 X27.8944 Y6.7120
G01 X27.8355 Y6.8932
G01 X27.8057 Y7.0814
G01 X27.8057 Y7.8283
G01 X22.3210 Y12.1236
G01 X17.3700 Y12.0746
G01 X17.3327 Y12.0233
G01 X17.1980 Y11.8886
G01 X17.0438 Y11.7766
G01 X16.8741 Y11.6901
G01 X16.6929 Y11.6312
G01 X16.5047 Y11.6014
G01 X14.9934 Y11.6014
G01 X14.8052 Y11.6312
G01 X14.6240 Y11.6901
G01 X14.4543 Y11.7766
G01 X14.3001 Y11.8886
G01 X14.1654 Y12.0233
G00 Z3.0000
G00 X14.1654 Y14.5633
G01 Z-0.2000 F254
G01 X14.0534 Y14.7174 F609
G01 X13.9669 Y14.8872
G01 X13.9081 Y15.0684
G01 X13.8783 Y15.2565
G01 X13.8783 Y15.4471
G01 X13.9081 Y15.6352
G01 X13.9669 Y15.8164
G01 X14.0534 Y15.9862
G01 X14.1654 Y16.1403
G01 X14.3001 Y16.2750
G01 X14.4543 Y16.3870
G01 X14.6240 Y16.4735
G01 X14.8052 Y16.5324
G01 X14.9934 Y16.5622
G01 X16.5047 Y16.5622
G01 X16.6929 Y16.5324
G01 X16.8741 Y16.4735
G01 X17.0438 Y16.3870
G01 X17.1980 Y16.2750
G01 X17.3327 Y16.1403
G01 X17.4447 Y15.9862
G01 X17.5312 Y15.8164
G01 X17.5901 Y15.6352
G01 X17.6199 Y15.4471
G01 X17.6199 Y15.2565
G01 X17.5901 Y15.0684
G01 X17.5312 Y14.8872
G01 X17.4447 Y14.7174
G01 X17.3327 Y14.5633
G01 X17.1980 Y14.4285
G01 X17.0438 Y14.3166
G01 X16.8741 Y14.2301
G01 X16.6929 Y14.1712
G01 X16.5047 Y14.1414
G01 X14.9934 Y14.1414
G01 X14.8052 Y14.1712
G01 X14.6240 Y14.2301
G01 X14.4543 Y14.3166
G01 X14.3001 Y14.4285
G01 X14.1654 Y14.5633
G00 Z3.0000
G00 X39.1818 Y10.7313
G01 Z-0.2000 F254
G01 X39.3408 Y10.8468 F609
G01 X39.5159 Y10.9360
G01 X39.7028 Y10.9967
G01 X39.8969 Y11.0275
G01 X41.4904 Y11.0275
G01 X41.6845 Y10.9967
G01 X41.8714 Y10.9360
G01 X42.0465 Y10.8468
G01 X42.2055 Y10.7313
G01 X42.3444 Y10.5923
G01 X42.4599 Y10.4333
G01 X42.5492 Y10.2582
G01 X42.6099 Y10.0713
G01 X42.6406 Y9.8772
G01 X42.6406 Y9.6807
G01 X42.6099 Y9.4866
G01 X42.5492 Y9.2997
G01 X42.4599 Y9.1246
G01 X42.3444 Y8.9656
G01 X42.2055 Y8.8267
G01 X42.0465 Y8.7111
G01 X41.8714 Y8.6219
G01 X41.6845 Y8.5612
G01 X41.4904 Y8.5305
G01 X39.8969 Y8.5305
G01 X39.7028 Y8.5612
G01 X39.5159 Y8.6219
G01 X39.3408 Y8.7111
G01 X39.1818 Y8.8267
G01 X39.0428 Y8.9656
G01 X38.9273 Y9.1246
G01 X38.8381 Y9.2997
G01 X38.7774 Y9.4866
G01 X38.7466 Y9.6807
G01 X38.7466 Y9.8772
G01 X38.7774 Y10.0713
G01 X38.8381 Y10.2582
G01 X38.9273 Y10.4333
G01 X39.0428 Y10.5923
G01 X39.1818 Y10.7313
G00 Z3.0000
G00 X3.0554 Y27.7956
G01 Z-0.2000 F254
G01 X2.9347 Y27.9617 F609
G01 X2.8415 Y28.1445
G01 X2.7781 Y28.3397
G01 X2.7460 Y28.5425
G01 X2.7460 Y30.2557
G01 X2.7781 Y30.4585
G01 X2.8415 Y30.6537
G01 X2.9347 Y30.8365
G01 X3.0554 Y31.0026
G01 X3.2005 Y31.1477
G01 X3.3110 Y31.2280
G01 X3.3110 Y33.7535
G01 X3.3076 Y33.7796
G01 X3.3110 Y33.8276
G01 X3.3110 Y33.8755
G01 X3.3161 Y33.9013
G01 X3.3179 Y33.9276
G01 X3.3305 Y33.9740
G01 X3.3399 Y34.0211
G01 X3.3500 Y34.0455
G01 X3.3569 Y34.0707
G01 X3.3783 Y34.1137
G01 X3.3967 Y34.1581
G01 X3.4113 Y34.1800
G01 X3.4230 Y34.2035
G01 X3.4524 Y34.2415
G01 X3.4791 Y34.2815
G01 X3.4977 Y34.3002
G01 X3.5138 Y34.3209
G01 X3.5500 Y34.3524
G01 X3.5840 Y34.3864
G01 X3.6059 Y34.4010
G01 X10.0916 Y40.0442
G01 X10.1257 Y40.0782
G01 X10.1474 Y40.0927
G01 X10.1672 Y40.1098
G01 X10.2090 Y40.1338
G01 X10.2491 Y40.1606
G01 X10.2732 Y40.1705
G01 X10.2959 Y40.1835
G01 X10.3417 Y40.1988
G01 X10.3862 Y40.2173
G01 X10.4118 Y40.2223
G01 X10.4366 Y40.2308
G01 X10.4845 Y40.2368
G01 X10.5317 Y40.2462
G01 X10.5578 Y40.2462
G01 X10.5838 Y40.2494
G01 X10.6319 Y40.2462
G01 X14.1402 Y40.2447
G01 X14.1654 Y40.2794
G01 X14.3001 Y40.4141
G01 X14.4543 Y40.5262
G01 X14.6240 Y40.6127
G01 X14.8052 Y40.6715
G01 X14.9934 Y40.7013
G01 X16.5047 Y40.7013
G01 X16.6929 Y40.6715
G01 X16.8741 Y40.6127
G01 X17.0438 Y40.5262
G01 X17.1980 Y40.4141
G01 X17.3327 Y40.2794
G01 X17.3584 Y40.2441
G01 X27.8057 Y40.2441
G01 X27.8057 Y40.3518
G01 X27.8355 Y40.5400
G01 X27.8944 Y40.7212
G01 X27.9809 Y40.8910
G01 X28.0929 Y41.0451
G01 X28.2276 Y41.1799
G01 X28.3817 Y41.2918
G01 X28.5515 Y41.3783
G01 X28.7327 Y41.4372
G01 X28.9208 Y41.4671
G01 X29.1114 Y41.4671
G01 X29.2995 Y41.4372
G01 X29.4807 Y41.3783
G01 X29.6505 Y41.2918
G01 X29.8046 Y41.1799
G01 X29.9393 Y41.0451
G01 X30.0513 Y40.8910
G01 X30.1378 Y40.7212
G01 X30.1967 Y40.5400
G01 X30.2265 Y40.3518
G01 X31.9290 Y40.3494
G01 X31.9290 Y40.3730
G01 X31.9588 Y40.5613
G01 X32.0177 Y40.7424
G01 X32.1042 Y40.9121
G01 X32.2162 Y41.0663
G01 X32.3509 Y41.2010
G01 X32.5050 Y41.3130
G01 X32.6748 Y41.3995
G01 X32.8560 Y41.4583
G01 X33.0442 Y41.4881
G01 X33.2347 Y41.4881
G01 X33.4228 Y41.4583
G01 X33.6040 Y41.3995
G01 X33.7738 Y41.3130
G01 X33.9279 Y41.2010
G01 X34.0626 Y41.0663
G01 X34.1746 Y40.9121
G01 X34.2611 Y40.7424
G01 X34.3200 Y40.5613
G01 X34.3498 Y40.3730
G01 X40.1314 Y40.3705
G01 X40.1948 Y40.4950
G01 X40.3103 Y40.6539
G01 X40.4493 Y40.7929
G01 X40.6083 Y40.9085
G01 X40.7834 Y40.9976
G01 X40.9703 Y41.0583
G01 X41.1644 Y41.0891
G01 X42.7579 Y41.0891
G01 X42.9520 Y41.0583
G01 X43.1389 Y40.9976
G01 X43.3140 Y40.9085
G01 X43.4730 Y40.7929
G01 X43.6119 Y40.6539
G01 X43.7274 Y40.4950
G01 X43.8167 Y40.3199
G01 X43.8774 Y40.1329
G01 X43.9081 Y39.9389
G01 X43.9081 Y39.7424
G01 X43.8774 Y39.5482
G01 X43.8167 Y39.3614
G01 X43.7274 Y39.1863
G01 X43.6119 Y39.0272
G01 X43.4730 Y38.8884
G01 X43.3140 Y38.7728
G01 X43.1389 Y38.6835
G01 X42.9520 Y38.6228
G01 X42.7579 Y38.5921
G01 X41.1644 Y38.5921
G01 X40.9703 Y38.6228
G01 X40.7834 Y38.6835
G01 X40.6083 Y38.7728
G01 X40.4825 Y38.8641
G01 X34.3498 Y38.8641
G01 X34.3200 Y38.6735
G01 X34.2611 Y38.4924
G01 X34.1746 Y38.3225
G01 X34.0626 Y38.1684
G01 X33.9279 Y38.0337
G01 X33.7738 Y37.9218
G01 X33.6040 Y37.8353
G01 X33.4228 Y37.7763
G01 X33.2347 Y37.7465
G01 X33.0442 Y37.7465
G01 X32.8560 Y37.7763
G01 X32.6748 Y37.8353
G01 X32.5050 Y37.9218
G01 X32.3509 Y38.0337
G01 X32.2162 Y38.1684
G01 X32.1042 Y38.3225
G01 X32.0177 Y38.4924
G01 X31.9588 Y38.6735
G01 X31.9320 Y38.8430
G01 X30.2265 Y38.8430
G01 X30.1967 Y38.6523
G01 X30.1378 Y38.4711
G01 X30.0513 Y38.3015
G01 X29.9393 Y38.1472
G01 X29.8046 Y38.0125
G01 X29.6505 Y37.9005
G01 X29.4807 Y37.8141
G01 X29.2995 Y37.7552
G01 X29.1114 Y37.7254
G01 X28.9208 Y37.7254
G01 X28.7327 Y37.7552
G01 X28.5515 Y37.8141
G01 X28.3817 Y37.9005
G01 X28.2276 Y38.0125
G01 X28.0929 Y38.1472
G01 X27.9809 Y38.3015
G01 X27.8944 Y38.4711
G01 X27.8355 Y38.6523
G01 X27.8220 Y38.7377
G01 X17.3584 Y38.7377
G01 X17.3327 Y38.7024
G01 X17.1980 Y38.5677
G01 X17.0438 Y38.4557
G01 X16.8741 Y38.3692
G01 X16.6929 Y38.3103
G01 X16.5047 Y38.2805
G01 X14.9934 Y38.2805
G01 X14.8052 Y38.3103
G01 X14.6240 Y38.3692
G01 X14.4543 Y38.4557
G01 X14.3001 Y38.5677
G01 X14.1654 Y38.7024
G01 X14.1393 Y38.7383
G01 X10.8873 Y38.7396
G01 X4.8174 Y33.4583
G01 X4.8174 Y31.2074
G01 X4.8995 Y31.1477
G01 X5.0446 Y31.0026
G01 X5.1653 Y30.8365
G01 X5.2585 Y30.6537
G01 X5.3219 Y30.4585
G01 X5.3540 Y30.2557
G01 X5.3540 Y28.5425
G01 X5.3219 Y28.3397
G01 X5.2585 Y28.1445
G01 X5.1653 Y27.9617
G01 X5.0446 Y27.7956
G01 X4.8995 Y27.6505
G01 X4.7334 Y27.5298
G01 X4.5506 Y27.4367
G01 X4.3554 Y27.3732
G01 X4.1526 Y27.3411
G01 X3.9474 Y27.3411
G01 X3.7446 Y27.3732
G01 X3.5494 Y27.4367
G01 X3.3666 Y27.5298
G01 X3.2005 Y27.6505
G01 X3.0554 Y27.7956
G00 Z3.0000
G00 X6.5554 Y27.7956
G01 Z-0.2000 F254
G01 X6.4347 Y27.9617 F609
G01 X6.3415 Y28.1445
G01 X6.2781 Y28.3397
G01 X6.2460 Y28.5425
G01 X6.2460 Y30.2557
G01 X6.2781 Y30.4585
G01 X6.3415 Y30.6537
G01 X6.4347 Y30.8365
G01 X6.5554 Y31.0026
G01 X6.7005 Y31.1477
G01 X6.8444 Y31.2523
G01 X6.8444 Y33.0791
G01 X6.8408 Y33.1118
G01 X6.8444 Y33.1531
G01 X6.8444 Y33.1947
G01 X6.8508 Y33.2268
G01 X6.8536 Y33.2595
G01 X6.8652 Y33.2995
G01 X6.8733 Y33.3402
G01 X6.8859 Y33.3705
G01 X6.8950 Y33.4020
G01 X6.9142 Y33.4389
G01 X6.9301 Y33.4774
G01 X6.9483 Y33.5045
G01 X6.9634 Y33.5336
G01 X6.9894 Y33.5662
G01 X7.0125 Y33.6007
G01 X7.0357 Y33.6238
G01 X7.0562 Y33.6495
G01 X7.0880 Y33.6762
G01 X7.1174 Y33.7056
G01 X7.1447 Y33.7238
G01 X10.6284 Y36.6514
G01 X10.6284 Y37.4404
G01 X10.6582 Y37.6285
G01 X10.7171 Y37.8097
G01 X10.8036 Y37.9796
G01 X10.9155 Y38.1337
G01 X11.0503 Y38.2683
G01 X11.2044 Y38.3803
G01 X11.3742 Y38.4668
G01 X11.5554 Y38.5258
G01 X11.7435 Y38.5555
G01 X11.9340 Y38.5555
G01 X12.1222 Y38.5258
G01 X12.3034 Y38.4668
G01 X12.4732 Y38.3803
G01 X12.6273 Y38.2683
G01 X12.7620 Y38.1337
G01 X12.8740 Y37.9796
G01 X12.9605 Y37.8097
G01 X13.0194 Y37.6285
G01 X13.0492 Y37.4404
G01 X13.0492 Y35.9290
G01 X13.0194 Y35.7409
G01 X12.9605 Y35.5597
G01 X12.8740 Y35.3899
G01 X12.7620 Y35.2358
G01 X12.6273 Y35.1011
G01 X12.4732 Y34.9891
G01 X12.3034 Y34.9026
G01 X12.1222 Y34.8438
G01 X11.9340 Y34.8139
G01 X11.7435 Y34.8139
G01 X11.5554 Y34.8438
G01 X11.3742 Y34.9026
G01 X11.2044 Y34.9891
G01 X11.0904 Y35.0720
G01 X8.3508 Y32.7696
G01 X8.3508 Y31.1831
G01 X8.3995 Y31.1477
G01 X8.5446 Y31.0026
G01 X8.6653 Y30.8365
G01 X8.7585 Y30.6537
G01 X8.8219 Y30.4585
G01 X8.8540 Y30.2557
G01 X8.8540 Y28.5425
G01 X8.8219 Y28.3397
G01 X8.7585 Y28.1445
G01 X8.6653 Y27.9617
G01 X8.5446 Y27.7956
G01 X8.3995 Y27.6505
G01 X8.2334 Y27.5298
G01 X8.0506 Y27.4367
G01 X7.8554 Y27.3732
G01 X7.6526 Y27.3411
G01 X7.4474 Y27.3411
G01 X7.2446 Y27.3732
G01 X7.0494 Y27.4367
G01 X6.8666 Y27.5298
G01 X6.7005 Y27.6505
G01 X6.5554 Y27.7956
G00 Z3.0000
G00 X10.8036 Y27.8195
G01 Z-0.2000 F254
G01 X10.9155 Y27.9736 F609
G01 X11.0503 Y28.1083
G01 X11.2044 Y28.2203
G01 X11.3742 Y28.3068
G01 X11.5554 Y28.3657
G01 X11.7435 Y28.3956
G01 X11.9340 Y28.3956
G01 X12.1222 Y28.3657
G01 X12.3034 Y28.3068
G01 X12.4732 Y28.2203
G01 X12.6273 Y28.1083
G01 X12.6801 Y28.0555
G01 X13.9372 Y28.9577
G01 X13.9081 Y29.0475
G01 X13.8783 Y29.2356
G01 X13.8783 Y29.4261
G01 X13.9081 Y29.6143
G01 X13.9669 Y29.7955
G01 X14.0534 Y29.9653
G01 X14.1654 Y30.1195
G01 X14.3001 Y30.2541
G01 X14.4543 Y30.3661
G01 X14.6240 Y30.4526
G01 X14.8052 Y30.5115
G01 X14.9934 Y30.5413
G01 X16.5047 Y30.5413
G01 X16.6929 Y30.5115
G01 X16.8741 Y30.4526
G01 X17.0438 Y30.3661
G01 X17.1980 Y30.2541
G01 X17.3327 Y30.1195
G01 X17.4447 Y29.9653
G01 X17.5312 Y29.7955
G01 X17.5901 Y29.6143
G01 X17.6199 Y29.4261
G01 X17.6199 Y29.2356
G01 X17.5901 Y29.0475
G01 X17.5312 Y28.8663
G01 X17.4447 Y28.6965
G01 X17.3327 Y28.5424
G01 X17.1980 Y28.4078
G01 X17.0438 Y28.2957
G01 X16.8741 Y28.2092
G01 X16.6929 Y28.1503
G01 X16.5047 Y28.1205
G01 X15.3543 Y28.1205
G01 X13.0492 Y26.4663
G01 X13.0492 Y25.7691
G01 X13.0194 Y25.5809
G01 X12.9605 Y25.3997
G01 X12.8740 Y25.2299
G01 X12.7620 Y25.0758
G01 X12.6273 Y24.9411
G01 X12.4732 Y24.8291
G01 X12.3034 Y24.7426
G01 X12.1222 Y24.6837
G01 X11.9340 Y24.6539
G01 X11.7435 Y24.6539
G01 X11.5554 Y24.6837
G01 X11.3742 Y24.7426
G01 X11.2044 Y24.8291
G01 X11.0503 Y24.9411
G01 X10.9155 Y25.0758
G01 X10.8036 Y25.2299
G01 X10.7171 Y25.3997
G01 X10.6582 Y25.5809
G01 X10.6284 Y25.7691
G01 X10.6284 Y27.2804
G01 X10.6582 Y27.4685
G01 X10.7171 Y27.6497
G01 X10.8036 Y27.8195
G00 Z3.0000
G00 X14.1654 Y31.0824
G01 Z-0.2000 F254
G01 X14.0534 Y31.2365 F609
G01 X13.9669 Y31.4063
G01 X13.9081 Y31.5876
G01 X13.8783 Y31.7756
G01 X13.8783 Y31.9662
G01 X13.9081 Y32.1543
G01 X13.9669 Y32.3355
G01 X14.0534 Y32.5053
G01 X14.1654 Y32.6594
G01 X14.3001 Y32.7942
G01 X14.4543 Y32.9061
G01 X14.6240 Y32.9926
G01 X14.8052 Y33.0515
G01 X14.9934 Y33.0814
G01 X16.5047 Y33.0814
G01 X16.6929 Y33.0515
G01 X16.8741 Y32.9926
G01 X17.0438 Y32.9061
G01 X17.1980 Y32.7942
G01 X17.3327 Y32.6594
G01 X17.4447 Y32.5053
G01 X17.5312 Y32.3355
G01 X17.5901 Y32.1543
G01 X17.6199 Y31.9662
G01 X17.6199 Y31.7756
G01 X17.5901 Y31.5876
G01 X17.5312 Y31.4063
G01 X17.4447 Y31.2365
G01 X17.3327 Y31.0824
G01 X17.1980 Y30.9476
G01 X17.0438 Y30.8357
G01 X16.8741 Y30.7492
G01 X16.6929 Y30.6903
G01 X16.5047 Y30.6606
G01 X14.9934 Y30.6606
G01 X14.8052 Y30.6903
G01 X14.6240 Y30.7492
G01 X14.4543 Y30.8357
G01 X14.3001 Y30.9476
G01 X14.1654 Y31.0824
G00 Z3.0000
G00 X14.1654 Y33.6225
G01 Z-0.2000 F254
G01 X14.0534 Y33.7766 F609
G01 X13.9669 Y33.9463
G01 X13.9081 Y34.1275
G01 X13.8783 Y34.3156
G01 X13.8783 Y34.5061
G01 X13.9081 Y34.6944
G01 X13.9669 Y34.8755
G01 X14.0534 Y35.0453
G01 X14.1654 Y35.1994
G01 X14.3001 Y35.3341
G01 X14.4543 Y35.4461
G01 X14.6240 Y35.5326
G01 X14.8052 Y35.5915
G01 X14.9934 Y35.6213
G01 X16.5047 Y35.6213
G01 X16.6929 Y35.5915
G01 X16.8741 Y35.5326
G01 X17.0438 Y35.4461
G01 X17.1980 Y35.3341
G01 X17.3327 Y35.1994
G01 X17.3468 Y35.1799
G01 X22.5282 Y35.2312
G01 X22.5603 Y35.2351
G01 X22.6022 Y35.2319
G01 X22.6443 Y35.2323
G01 X22.6760 Y35.2263
G01 X22.7082 Y35.2240
G01 X22.7487 Y35.2126
G01 X22.7901 Y35.2049
G01 X22.8201 Y35.1928
G01 X22.8512 Y35.1842
G01 X22.8887 Y35.1651
G01 X22.9277 Y35.1495
G01 X22.9547 Y35.1317
G01 X22.9836 Y35.1172
G01 X23.0167 Y35.0913
G01 X23.0519 Y35.0682
G01 X23.0749 Y35.0456
G01 X28.2223 Y31.0145
G01 X28.2276 Y31.0198
G01 X28.3817 Y31.1319
G01 X28.5515 Y31.2183
G01 X28.7327 Y31.2772
G01 X28.9208 Y31.3070
G01 X29.1114 Y31.3070
G01 X29.2995 Y31.2772
G01 X29.4807 Y31.2183
G01 X29.6505 Y31.1319
G01 X29.8046 Y31.0198
G01 X29.9393 Y30.8851
G01 X30.0513 Y30.7310
G01 X30.1378 Y30.5612
G01 X30.1967 Y30.3800
G01 X30.2265 Y30.1918
G01 X31.9290 Y30.1894
G01 X31.9290 Y30.2130
G01 X31.9588 Y30.4012
G01 X32.0177 Y30.5824
G01 X32.1042 Y30.7522
G01 X32.2162 Y30.9063
G01 X32.3509 Y31.0410
G01 X32.5050 Y31.1531
G01 X32.6748 Y31.2394
G01 X32.8560 Y31.2983
G01 X33.0442 Y31.3281
G01 X33.2347 Y31.3281
G01 X33.4228 Y31.2983
G01 X33.6040 Y31.2394
G01 X33.7692 Y31.1553
G01 X38.9083 Y36.3073
G01 X38.8873 Y36.3362
G01 X38.7981 Y36.5114
G01 X38.7374 Y36.6983
G01 X38.7066 Y36.8924
G01 X38.7066 Y37.0888
G01 X38.7374 Y37.2829
G01 X38.7981 Y37.4698
G01 X38.8873 Y37.6449
G01 X39.0028 Y37.8040
G01 X39.1418 Y37.9429
G01 X39.3008 Y38.0584
G01 X39.4759 Y38.1476
G01 X39.6628 Y38.2083
G01 X39.8569 Y38.2391
G01 X41.4504 Y38.2391
G01 X41.6445 Y38.2083
G01 X41.8314 Y38.1476
G01 X42.0065 Y38.0584
G01 X42.1655 Y37.9429
G01 X42.3044 Y37.8040
G01 X42.4199 Y37.6449
G01 X42.5092 Y37.4698
G01 X42.5699 Y37.2829
G01 X42.6006 Y37.0888
G01 X42.6006 Y36.8924
G01 X42.5699 Y36.6983
G01 X42.5092 Y36.5114
G01 X42.4199 Y36.3362
G01 X42.3044 Y36.1773
G01 X42.1655 Y36.0383
G01 X42.0065 Y35.9228
G01 X41.8314 Y35.8336
G01 X41.6445 Y35.7728
G01 X41.4504 Y35.7421
G01 X40.4721 Y35.7421
G01 X34.3498 Y29.6043
G01 X34.3498 Y28.7017
G01 X34.3200 Y28.5135
G01 X34.2611 Y28.3323
G01 X34.1746 Y28.1625
G01 X34.0626 Y28.0084
G01 X33.9279 Y27.8737
G01 X33.7738 Y27.7617
G01 X33.6040 Y27.6752
G01 X33.4228 Y27.6163
G01 X33.2347 Y27.5865
G01 X33.0442 Y27.5865
G01 X32.8560 Y27.6163
G01 X32.6748 Y27.6752
G01 X32.5050 Y27.7617
G01 X32.3509 Y27.8737
G01 X32.2162 Y28.0084
G01 X32.1042 Y28.1625
G01 X32.0177 Y28.3323
G01 X31.9588 Y28.5135
G01 X31.9320 Y28.6830
G01 X30.2265 Y28.6830
G01 X30.1967 Y28.4923
G01 X30.1378 Y28.3111
G01 X30.0513 Y28.1414
G01 X29.9393 Y27.9873
G01 X29.8046 Y27.8525
G01 X29.6505 Y27.7405
G01 X29.4807 Y27.6541
G01 X29.2995 Y27.5953
G01 X29.1114 Y27.5654
G01 X28.9208 Y27.5654
G01 X28.7327 Y27.5953
G01 X28.5515 Y27.6541
G01 X28.3817 Y27.7405
G01 X28.2276 Y27.8525
G01 X28.0929 Y27.9873
G01 X27.9809 Y28.1414
G01 X27.8944 Y28.3111
G01 X27.8355 Y28.4923
G01 X27.8057 Y28.6805
G01 X27.8057 Y29.4274
G01 X22.3210 Y33.7227
G01 X17.3700 Y33.6737
G01 X17.3327 Y33.6225
G01 X17.1980 Y33.4877
G01 X17.0438 Y33.3757
G01 X16.8741 Y33.2892
G01 X16.6929 Y33.2304
G01 X16.5047 Y33.2005
G01 X14.9934 Y33.2005
G01 X14.8052 Y33.2304
G01 X14.6240 Y33.2892
G01 X14.4543 Y33.3757
G01 X14.3001 Y33.4877
G01 X14.1654 Y33.6225
G00 Z3.0000
G00 X14.1654 Y36.1624
G01 Z-0.2000 F254
G01 X14.0534 Y36.3165 F609
G01 X13.9669 Y36.4864
G01 X13.9081 Y36.6675
G01 X13.8783 Y36.8556
G01 X13.8783 Y37.0463
G01 X13.9081 Y37.2343
G01 X13.9669 Y37.4155
G01 X14.0534 Y37.5853
G01 X14.1654 Y37.7394
G01 X14.3001 Y37.8742
G01 X14.4543 Y37.9861
G01 X14.6240 Y38.0726
G01 X14.8052 Y38.1315
G01 X14.9934 Y38.1613
G01 X16.5047 Y38.1613
G01 X16.6929 Y38.1315
G01 X16.8741 Y38.0726
G01 X17.0438 Y37.9861
G01 X17.1980 Y37.8742
G01 X17.3327 Y37.7394
G01 X17.4447 Y37.5853
G01 X17.5312 Y37.4155
G01 X17.5901 Y37.2343
G01 X17.6199 Y37.0463
G01 X17.6199 Y36.8556
G01 X17.5901 Y36.6675
G01 X17.5312 Y36.4864
G01 X17.4447 Y36.3165
G01 X17.3327 Y36.1624
G01 X17.1980 Y36.0276
G01 X17.0438 Y35.9157
G01 X16.8741 Y35.8293
G01 X16.6929 Y35.7704
G01 X16.5047 Y35.7405
G01 X14.9934 Y35.7405
G01 X14.8052 Y35.7704
G01 X14.6240 Y35.8293
G01 X14.4543 Y35.9157
G01 X14.3001 Y36.0276
G01 X14.1654 Y36.1624
G00 Z3.0000
G00 X39.1818 Y32.3304
G01 Z-0.2000 F254
G01 X39.3408 Y32.4459 F609
G01 X39.5159 Y32.5352
G01 X39.7028 Y32.5958
G01 X39.8969 Y32.6266
G01 X41.4904 Y32.6266
G01 X41.6845 Y32.5958
G01 X41.8714 Y32.5352
G01 X42.0465 Y32.4459
G01 X42.2055 Y32.3304
G01 X42.3444 Y32.1914
G01 X42.4599 Y32.0324
G01 X42.5492 Y31.8573
G01 X42.6099 Y31.6704
G01 X42.6406 Y31.4763
G01 X42.6406 Y31.2798
G01 X42.6099 Y31.0857
G01 X42.5492 Y30.8988
G01 X42.4599 Y30.7237
G01 X42.3444 Y30.5647
G01 X42.2055 Y30.4258
G01 X42.0465 Y30.3102
G01 X41.8714 Y30.2210
G01 X41.6845 Y30.1603
G01 X41.4904 Y30.1296
G01 X39.8969 Y30.1296
G01 X39.7028 Y30.1603
G01 X39.5159 Y30.2210
G01 X39.3408 Y30.3102
G01 X39.1818 Y30.4258
G01 X39.0428 Y30.5647
G01 X38.9273 Y30.7237
G01 X38.8381 Y30.8988
G01 X38.7774 Y31.0857
G01 X38.7466 Y31.2798
G01 X38.7466 Y31.4763
G01 X38.7774 Y31.6704
G01 X38.8381 Y31.8573
G01 X38.9273 Y32.0324
G01 X39.0428 Y32.1914
G01 X39.1818 Y32.3304
(----- drill -----)
G00 Z2.0000
G82 X8.0225 Y7.8000 Z-1.6000 R2.0000 P0.100000 F609
G82 X7.5500 Y7.8000
G82 X4.5300 Y7.8000
G82 X4.0500 Y7.8000
G82 X11.8388 Y4.9256
G82 X15.7491 Y7.7318
G82 X29.0161 Y7.8371
G82 X33.1394 Y7.8582
G82 X41.3436 Y5.9140
G82 X41.9461 Y5.9140
G82 X41.9786 Y5.9140
G82 X42.6136 Y5.9140
G82 X40.0736 Y9.7240
G82 X40.6936 Y9.7790
G82 X40.7086 Y9.7240
G82 X41.3436 Y9.7240
G82 X42.6136 Y11.6290
G82 X41.9786 Y11.6290
G82 X41.3436 Y11.6290
G82 X40.6536 Y15.3915
G82 X40.7086 Y15.7565
G82 X41.3436 Y15.7565
G82 X42.6136 Y17.9790
G82 X41.9786 Y17.9790
G82 X41.9611 Y18.2415
G82 X41.3436 Y17.9790
G82 X40.0736 Y15.7565
G82 X33.1394 Y18.0182
G82 X29.0161 Y17.9971
G82 X29.0161 Y29.4362
G82 X33.1394 Y29.4573
G82 X41.3436 Y27.5131
G82 X41.9461 Y27.5131
G82 X41.9786 Y27.5131
G82 X42.6136 Y27.5131
G82 X40.0736 Y31.3231
G82 X40.6936 Y31.3781
G82 X40.7086 Y31.3231
G82 X41.3436 Y31.3231
G82 X42.6136 Y33.2281
G82 X41.9786 Y33.2281
G82 X41.3436 Y33.2281
G82 X40.6536 Y36.9907
G82 X40.0736 Y37.3556
G82 X40.7086 Y37.3556
G82 X41.3436 Y37.3556
G82 X42.6136 Y39.5781
G82 X41.9786 Y39.5781
G82 X41.9611 Y39.8406
G82 X41.3436 Y39.5781
G82 X33.1394 Y39.6174
G82 X29.0161 Y39.5962
G82 X15.7491 Y34.4109
G82 X15.7491 Y36.9509
G82 X15.7491 Y39.4909
G82 X11.8388 Y36.6847
G82 X15.7491 Y31.8710
G82 X15.7491 Y29.3309
G82 X11.8388 Y26.5247
G82 X8.0225 Y29.3991
G82 X7.5500 Y29.3991
G82 X4.5300 Y29.3991
G82 X4.0500 Y29.3991
G82 X15.7491 Y17.8918
G82 X15.7491 Y15.3518
G82 X11.8388 Y15.0856
G82 X15.7491 Y12.8118
G82 X15.7491 Y10.2718
(----- frame -----)
G00 Z3.0000
G00 X0.6011 Y0.5977
G01 Z-0.7000 F254
G01 X48.3989 Y0.5977 F261
G01 X48.3989 Y22.1968 F261
G01 X0.6011 Y22.1968 F261
G01 X0.6011 Y43.7959 F261
G01 X48.3989 Y43.7959 F261
G01 X48.3989 Y0.5977 F261
G01 X0.6011 Y0.5977 F261
G01 X0.6011 Y43.7959 F261
G01 Z-1.4000 F254
G01 X21.5000 Y43.7959 F261
G01 Z0.000 F609
G01 X27.5000 Y43.7959 F261
G01 Z-1.4000 F254
G01 X48.3989 Y43.7959 F261
G01 X48.3989 Y35.9964 F261
G01 Z0.000 F609
G01 X48.3989 Y29.9964 F261
G01 Z-1.4000 F254
G01 X48.3989 Y22.1968 F261
G01 X27.5000 Y22.1968 F261
G01 Z0.000 F609
G01 X21.5000 Y22.1968 F261
G01 Z-1.4000 F254
G01 X0.6011 Y22.1968 F261
G01 X0.6011 Y14.3972 F261
G01 Z0.000 F609
G01 X0.6011 Y8.3972 F261
G01 Z-1.4000 F254
G01 X0.6011 Y0.5977 F261
G01 X21.5000 Y0.5977 F261
G01 Z0.000 F609
G01 X27.5000 Y0.5977 F261
G01 Z-1.4000 F254
G01 X48.3989 Y0.5977 F261
G01 X48.3989 Y8.3972 F261
G01 Z0.000 F609
G01 X48.3989 Y14.3972 F261
G01 Z-1.4000 F254
G01 X48.3989 Y29.9964 F261
G01 Z0.000 F609
G01 X48.3989 Y35.9964 F261
G01 Z-1.4000 F254
G01 X48.3989 Y43.7959 F261
G01 X27.5000 Y43.7959 F261
G01 Z0.000 F609
G01 X21.5000 Y43.7959 F261
G01 Z-1.4000 F254
G01 X0.6011 Y43.7959 F261
G01 X0.6011 Y35.9964 F261
G01 Z0.000 F609
G01 X0.6011 Y29.9964 F261
G01 Z-1.4000 F254
G01 X0.6011 Y14.3972 F261
G01 Z0.000 F609
G01 X0.6011 Y8.3972 F261
G01 Z-1.4000 F254
G01 X0.6011 Y0.5977 F261
(----- footer -----)
G00 Z5.0000
M05
M02