(----- header -----)
(.../pcb-gcode-3.6.2.4/pcb-gcode.ulp)
(Copyright 2005 - 2012 by John Johnson)
(See readme.txt for licensing terms.)
(This file generated from the board:)
(.../025_電子示波器/single_單個/SoundCard-OSC.brd)
(Current profile is .../pcb-gcode-3.6.2.4/profiles/mach.pp  )
(This file generated 2015/8/4 3:35)
(Settings from pcb-machine.h)
(spindle on time = 3.0000)
(  Tool Size)
(0.1000  )
(spindle speed = 30000.0000)
(tool change at 0.0000  0.0000  25.4000 )
(feed rate xy = F508   )
(feed rate z  = F254   )
(Z Axis Settings)
(  High     Up        Down     Drill)
(5.0000  	3.0000  	-0.2000 	-2.0000 )
(Settings from pcb-defaults.h)
(isolate min = 0.5000)
(isolate max = 0.5080)
(isolate step = 0.1270)
(Generated top outlines, top drill, )
(Unit of measure: mm)
(Metric Mode)
G21
(Absolute Coordinates)
G90
S30000
G00 Z5.0000
G00 X0.0000  Y0.0000
M03
G04 P3.000000
(----- etch -----)
G00 Z3.0000
G00 X3.0554 Y6.1965
G01 Z-0.2000 F254
G01 X2.9347 Y6.3626 F609
G01 X2.8415 Y6.5454
G01 X2.7781 Y6.7406
G01 X2.7460 Y6.9434
G01 X2.7460 Y8.6566
G01 X2.7781 Y8.8594
G01 X2.8415 Y9.0546
G01 X2.9347 Y9.2374
G01 X3.0554 Y9.4035
G01 X3.2005 Y9.5486
G01 X3.3110 Y9.6289
G01 X3.3110 Y12.1544
G01 X3.3076 Y12.1805
G01 X3.3110 Y12.2284
G01 X3.3110 Y12.2764
G01 X3.3161 Y12.3022
G01 X3.3179 Y12.3285
G01 X3.3305 Y12.3748
G01 X3.3399 Y12.4220
G01 X3.3500 Y12.4463
G01 X3.3569 Y12.4716
G01 X3.3783 Y12.5146
G01 X3.3967 Y12.5590
G01 X3.4113 Y12.5809
G01 X3.4230 Y12.6044
G01 X3.4524 Y12.6424
G01 X3.4791 Y12.6824
G01 X3.4977 Y12.7010
G01 X3.5138 Y12.7218
G01 X3.5500 Y12.7533
G01 X3.5840 Y12.7873
G01 X3.6059 Y12.8019
G01 X10.0916 Y18.4450
G01 X10.1257 Y18.4791
G01 X10.1474 Y18.4936
G01 X10.1672 Y18.5107
G01 X10.2090 Y18.5347
G01 X10.2491 Y18.5614
G01 X10.2732 Y18.5714
G01 X10.2959 Y18.5844
G01 X10.3417 Y18.5997
G01 X10.3862 Y18.6182
G01 X10.4118 Y18.6232
G01 X10.4366 Y18.6316
G01 X10.4845 Y18.6377
G01 X10.5317 Y18.6470
G01 X10.5578 Y18.6470
G01 X10.5838 Y18.6503
G01 X10.6319 Y18.6470
G01 X14.1402 Y18.6456
G01 X14.1654 Y18.6803
G01 X14.3001 Y18.8150
G01 X14.4543 Y18.9270
G01 X14.6240 Y19.0135
G01 X14.8052 Y19.0724
G01 X14.9934 Y19.1022
G01 X16.5047 Y19.1022
G01 X16.6929 Y19.0724
G01 X16.8741 Y19.0135
G01 X17.0438 Y18.9270
G01 X17.1980 Y18.8150
G01 X17.3327 Y18.6803
G01 X17.3584 Y18.6450
G01 X27.8057 Y18.6450
G01 X27.8057 Y18.7527
G01 X27.8355 Y18.9409
G01 X27.8944 Y19.1221
G01 X27.9809 Y19.2919
G01 X28.0929 Y19.4460
G01 X28.2276 Y19.5807
G01 X28.3817 Y19.6927
G01 X28.5515 Y19.7792
G01 X28.7327 Y19.8381
G01 X28.9208 Y19.8679
G01 X29.1114 Y19.8679
G01 X29.2995 Y19.8381
G01 X29.4807 Y19.7792
G01 X29.6505 Y19.6927
G01 X29.8046 Y19.5807
G01 X29.9393 Y19.4460
G01 X30.0513 Y19.2919
G01 X30.1378 Y19.1221
G01 X30.1967 Y18.9409
G01 X30.2265 Y18.7527
G01 X31.9290 Y18.7503
G01 X31.9290 Y18.7739
G01 X31.9588 Y18.9621
G01 X32.0177 Y19.1433
G01 X32.1042 Y19.3130
G01 X32.2162 Y19.4672
G01 X32.3509 Y19.6019
G01 X32.5050 Y19.7139
G01 X32.6748 Y19.8004
G01 X32.8560 Y19.8592
G01 X33.0442 Y19.8890
G01 X33.2347 Y19.8890
G01 X33.4228 Y19.8592
G01 X33.6040 Y19.8004
G01 X33.7738 Y19.7139
G01 X33.9279 Y19.6019
G01 X34.0626 Y19.4672
G01 X34.1746 Y19.3130
G01 X34.2611 Y19.1433
G01 X34.3200 Y18.9621
G01 X34.3498 Y18.7739
G01 X40.1314 Y18.7714
G01 X40.1948 Y18.8958
G01 X40.3103 Y19.0548
G01 X40.4493 Y19.1938
G01 X40.6083 Y19.3093
G01 X40.7834 Y19.3985
G01 X40.9703 Y19.4592
G01 X41.1644 Y19.4900
G01 X42.7579 Y19.4900
G01 X42.9520 Y19.4592
G01 X43.1389 Y19.3985
G01 X43.3140 Y19.3093
G01 X43.4730 Y19.1938
G01 X43.6119 Y19.0548
G01 X43.7274 Y18.8958
G01 X43.8167 Y18.7207
G01 X43.8774 Y18.5338
G01 X43.9081 Y18.3397
G01 X43.9081 Y18.1432
G01 X43.8774 Y17.9491
G01 X43.8167 Y17.7622
G01 X43.7274 Y17.5871
G01 X43.6119 Y17.4281
G01 X43.4730 Y17.2892
G01 X43.3140 Y17.1736
G01 X43.1389 Y17.0844
G01 X42.9520 Y17.0237
G01 X42.7579 Y16.9930
G01 X41.1644 Y16.9930
G01 X40.9703 Y17.0237
G01 X40.7834 Y17.0844
G01 X40.6083 Y17.1736
G01 X40.4825 Y17.2650
G01 X34.3498 Y17.2650
G01 X34.3200 Y17.0744
G01 X34.2611 Y16.8932
G01 X34.1746 Y16.7234
G01 X34.0626 Y16.5693
G01 X33.9279 Y16.4346
G01 X33.7738 Y16.3226
G01 X33.6040 Y16.2361
G01 X33.4228 Y16.1772
G01 X33.2347 Y16.1474
G01 X33.0442 Y16.1474
G01 X32.8560 Y16.1772
G01 X32.6748 Y16.2361
G01 X32.5050 Y16.3226
G01 X32.3509 Y16.4346
G01 X32.2162 Y16.5693
G01 X32.1042 Y16.7234
G01 X32.0177 Y16.8932
G01 X31.9588 Y17.0744
G01 X31.9320 Y17.2439
G01 X30.2265 Y17.2439
G01 X30.1967 Y17.0532
G01 X30.1378 Y16.8720
G01 X30.0513 Y16.7023
G01 X29.9393 Y16.5481
G01 X29.8046 Y16.4134
G01 X29.6505 Y16.3014
G01 X29.4807 Y16.2150
G01 X29.2995 Y16.1561
G01 X29.1114 Y16.1263
G01 X28.9208 Y16.1263
G01 X28.7327 Y16.1561
G01 X28.5515 Y16.2150
G01 X28.3817 Y16.3014
G01 X28.2276 Y16.4134
G01 X28.0929 Y16.5481
G01 X27.9809 Y16.7023
G01 X27.8944 Y16.8720
G01 X27.8355 Y17.0532
G01 X27.8220 Y17.1386
G01 X17.3584 Y17.1386
G01 X17.3327 Y17.1033
G01 X17.1980 Y16.9686
G01 X17.0438 Y16.8566
G01 X16.8741 Y16.7701
G01 X16.6929 Y16.7112
G01 X16.5047 Y16.6814
G01 X14.9934 Y16.6814
G01 X14.8052 Y16.7112
G01 X14.6240 Y16.7701
G01 X14.4543 Y16.8566
G01 X14.3001 Y16.9686
G01 X14.1654 Y17.1033
G01 X14.1393 Y17.1392
G01 X10.8873 Y17.1405
G01 X4.8174 Y11.8592
G01 X4.8174 Y9.6083
G01 X4.8995 Y9.5486
G01 X5.0446 Y9.4035
G01 X5.1653 Y9.2374
G01 X5.2585 Y9.0546
G01 X5.3219 Y8.8594
G01 X5.3540 Y8.6566
G01 X5.3540 Y6.9434
G01 X5.3219 Y6.7406
G01 X5.2585 Y6.5454
G01 X5.1653 Y6.3626
G01 X5.0446 Y6.1965
G01 X4.8995 Y6.0514
G01 X4.7334 Y5.9307
G01 X4.5506 Y5.8375
G01 X4.3554 Y5.7741
G01 X4.1526 Y5.7420
G01 X3.9474 Y5.7420
G01 X3.7446 Y5.7741
G01 X3.5494 Y5.8375
G01 X3.3666 Y5.9307
G01 X3.2005 Y6.0514
G01 X3.0554 Y6.1965
G00 Z3.0000
G00 X6.5554 Y6.1965
G01 Z-0.2000 F254
G01 X6.4347 Y6.3626 F609
G01 X6.3415 Y6.5454
G01 X6.2781 Y6.7406
G01 X6.2460 Y6.9434
G01 X6.2460 Y8.6566
G01 X6.2781 Y8.8594
G01 X6.3415 Y9.0546
G01 X6.4347 Y9.2374
G01 X6.5554 Y9.4035
G01 X6.7005 Y9.5486
G01 X6.8444 Y9.6532
G01 X6.8444 Y11.4800
G01 X6.8408 Y11.5126
G01 X6.8444 Y11.5540
G01 X6.8444 Y11.5956
G01 X6.8508 Y11.6277
G01 X6.8536 Y11.6604
G01 X6.8652 Y11.7003
G01 X6.8733 Y11.7411
G01 X6.8859 Y11.7714
G01 X6.8950 Y11.8029
G01 X6.9142 Y11.8398
G01 X6.9301 Y11.8782
G01 X6.9483 Y11.9054
G01 X6.9634 Y11.9345
G01 X6.9894 Y11.9670
G01 X7.0125 Y12.0015
G01 X7.0357 Y12.0247
G01 X7.0562 Y12.0503
G01 X7.0880 Y12.0771
G01 X7.1174 Y12.1065
G01 X7.1447 Y12.1247
G01 X10.6284 Y15.0523
G01 X10.6284 Y15.8413
G01 X10.6582 Y16.0294
G01 X10.7171 Y16.2106
G01 X10.8036 Y16.3804
G01 X10.9155 Y16.5345
G01 X11.0503 Y16.6692
G01 X11.2044 Y16.7812
G01 X11.3742 Y16.8677
G01 X11.5554 Y16.9266
G01 X11.7435 Y16.9564
G01 X11.9340 Y16.9564
G01 X12.1222 Y16.9266
G01 X12.3034 Y16.8677
G01 X12.4732 Y16.7812
G01 X12.6273 Y16.6692
G01 X12.7620 Y16.5345
G01 X12.8740 Y16.3804
G01 X12.9605 Y16.2106
G01 X13.0194 Y16.0294
G01 X13.0492 Y15.8413
G01 X13.0492 Y14.3299
G01 X13.0194 Y14.1418
G01 X12.9605 Y13.9606
G01 X12.8740 Y13.7908
G01 X12.7620 Y13.6367
G01 X12.6273 Y13.5020
G01 X12.4732 Y13.3900
G01 X12.3034 Y13.3035
G01 X12.1222 Y13.2446
G01 X11.9340 Y13.2148
G01 X11.7435 Y13.2148
G01 X11.5554 Y13.2446
G01 X11.3742 Y13.3035
G01 X11.2044 Y13.3900
G01 X11.0904 Y13.4728
G01 X8.3508 Y11.1705
G01 X8.3508 Y9.5840
G01 X8.3995 Y9.5486
G01 X8.5446 Y9.4035
G01 X8.6653 Y9.2374
G01 X8.7585 Y9.0546
G01 X8.8219 Y8.8594
G01 X8.8540 Y8.6566
G01 X8.8540 Y6.9434
G01 X8.8219 Y6.7406
G01 X8.7585 Y6.5454
G01 X8.6653 Y6.3626
G01 X8.5446 Y6.1965
G01 X8.3995 Y6.0514
G01 X8.2334 Y5.9307
G01 X8.0506 Y5.8375
G01 X7.8554 Y5.7741
G01 X7.6526 Y5.7420
G01 X7.4474 Y5.7420
G01 X7.2446 Y5.7741
G01 X7.0494 Y5.8375
G01 X6.8666 Y5.9307
G01 X6.7005 Y6.0514
G01 X6.5554 Y6.1965
G00 Z3.0000
G00 X10.8036 Y6.2204
G01 Z-0.2000 F254
G01 X10.9155 Y6.3745 F609
G01 X11.0503 Y6.5092
G01 X11.2044 Y6.6212
G01 X11.3742 Y6.7077
G01 X11.5554 Y6.7666
G01 X11.7435 Y6.7964
G01 X11.9340 Y6.7964
G01 X12.1222 Y6.7666
G01 X12.3034 Y6.7077
G01 X12.4732 Y6.6212
G01 X12.6273 Y6.5092
G01 X12.6801 Y6.4564
G01 X13.9372 Y7.3586
G01 X13.9081 Y7.4484
G01 X13.8783 Y7.6365
G01 X13.8783 Y7.8270
G01 X13.9081 Y8.0152
G01 X13.9669 Y8.1964
G01 X14.0534 Y8.3662
G01 X14.1654 Y8.5203
G01 X14.3001 Y8.6550
G01 X14.4543 Y8.7670
G01 X14.6240 Y8.8535
G01 X14.8052 Y8.9124
G01 X14.9934 Y8.9422
G01 X16.5047 Y8.9422
G01 X16.6929 Y8.9124
G01 X16.8741 Y8.8535
G01 X17.0438 Y8.7670
G01 X17.1980 Y8.6550
G01 X17.3327 Y8.5203
G01 X17.4447 Y8.3662
G01 X17.5312 Y8.1964
G01 X17.5901 Y8.0152
G01 X17.6199 Y7.8270
G01 X17.6199 Y7.6365
G01 X17.5901 Y7.4484
G01 X17.5312 Y7.2672
G01 X17.4447 Y7.0974
G01 X17.3327 Y6.9433
G01 X17.1980 Y6.8086
G01 X17.0438 Y6.6966
G01 X16.8741 Y6.6101
G01 X16.6929 Y6.5512
G01 X16.5047 Y6.5214
G01 X15.3543 Y6.5214
G01 X13.0492 Y4.8672
G01 X13.0492 Y4.1699
G01 X13.0194 Y3.9818
G01 X12.9605 Y3.8006
G01 X12.8740 Y3.6308
G01 X12.7620 Y3.4767
G01 X12.6273 Y3.3420
G01 X12.4732 Y3.2300
G01 X12.3034 Y3.1435
G01 X12.1222 Y3.0846
G01 X11.9340 Y3.0548
G01 X11.7435 Y3.0548
G01 X11.5554 Y3.0846
G01 X11.3742 Y3.1435
G01 X11.2044 Y3.2300
G01 X11.0503 Y3.3420
G01 X10.9155 Y3.4767
G01 X10.8036 Y3.6308
G01 X10.7171 Y3.8006
G01 X10.6582 Y3.9818
G01 X10.6284 Y4.1699
G01 X10.6284 Y5.6813
G01 X10.6582 Y5.8694
G01 X10.7171 Y6.0506
G01 X10.8036 Y6.2204
G00 Z3.0000
G00 X14.1654 Y9.4833
G01 Z-0.2000 F254
G01 X14.0534 Y9.6374 F609
G01 X13.9669 Y9.8072
G01 X13.9081 Y9.9884
G01 X13.8783 Y10.1765
G01 X13.8783 Y10.3671
G01 X13.9081 Y10.5552
G01 X13.9669 Y10.7364
G01 X14.0534 Y10.9062
G01 X14.1654 Y11.0603
G01 X14.3001 Y11.1950
G01 X14.4543 Y11.3070
G01 X14.6240 Y11.3935
G01 X14.8052 Y11.4524
G01 X14.9934 Y11.4822
G01 X16.5047 Y11.4822
G01 X16.6929 Y11.4524
G01 X16.8741 Y11.3935
G01 X17.0438 Y11.3070
G01 X17.1980 Y11.1950
G01 X17.3327 Y11.0603
G01 X17.4447 Y10.9062
G01 X17.5312 Y10.7364
G01 X17.5901 Y10.5552
G01 X17.6199 Y10.3671
G01 X17.6199 Y10.1765
G01 X17.5901 Y9.9884
G01 X17.5312 Y9.8072
G01 X17.4447 Y9.6374
G01 X17.3327 Y9.4833
G01 X17.1980 Y9.3485
G01 X17.0438 Y9.2366
G01 X16.8741 Y9.1501
G01 X16.6929 Y9.0912
G01 X16.5047 Y9.0614
G01 X14.9934 Y9.0614
G01 X14.8052 Y9.0912
G01 X14.6240 Y9.1501
G01 X14.4543 Y9.2366
G01 X14.3001 Y9.3485
G01 X14.1654 Y9.4833
G00 Z3.0000
G00 X14.1654 Y12.0233
G01 Z-0.2000 F254
G01 X14.0534 Y12.1774 F609
G01 X13.9669 Y12.3472
G01 X13.9081 Y12.5284
G01 X13.8783 Y12.7165
G01 X13.8783 Y12.9070
G01 X13.9081 Y13.0952
G01 X13.9669 Y13.2764
G01 X14.0534 Y13.4462
G01 X14.1654 Y13.6003
G01 X14.3001 Y13.7350
G01 X14.4543 Y13.8470
G01 X14.6240 Y13.9335
G01 X14.8052 Y13.9924
G01 X14.9934 Y14.0222
G01 X16.5047 Y14.0222
G01 X16.6929 Y13.9924
G01 X16.8741 Y13.9335
G01 X17.0438 Y13.8470
G01 X17.1980 Y13.7350
G01 X17.3327 Y13.6003
G01 X17.3468 Y13.5808
G01 X22.5282 Y13.6321
G01 X22.5603 Y13.6360
G01 X22.6022 Y13.6328
G01 X22.6443 Y13.6332
G01 X22.6760 Y13.6272
G01 X22.7082 Y13.6248
G01 X22.7487 Y13.6135
G01 X22.7901 Y13.6057
G01 X22.8201 Y13.5937
G01 X22.8512 Y13.5850
G01 X22.8887 Y13.5660
G01 X22.9277 Y13.5503
G01 X22.9547 Y13.5326
G01 X22.9836 Y13.5181
G01 X23.0167 Y13.4921
G01 X23.0519 Y13.4691
G01 X23.0749 Y13.4465
G01 X28.2223 Y9.4154
G01 X28.2276 Y9.4207
G01 X28.3817 Y9.5327
G01 X28.5515 Y9.6192
G01 X28.7327 Y9.6781
G01 X28.9208 Y9.7079
G01 X29.1114 Y9.7079
G01 X29.2995 Y9.6781
G01 X29.4807 Y9.6192
G01 X29.6505 Y9.5327
G01 X29.8046 Y9.4207
G01 X29.9393 Y9.2860
G01 X30.0513 Y9.1319
G01 X30.1378 Y8.9621
G01 X30.1967 Y8.7809
G01 X30.2265 Y8.5927
G01 X31.9290 Y8.5903
G01 X31.9290 Y8.6139
G01 X31.9588 Y8.8021
G01 X32.0177 Y8.9833
G01 X32.1042 Y9.1530
G01 X32.2162 Y9.3072
G01 X32.3509 Y9.4419
G01 X32.5050 Y9.5539
G01 X32.6748 Y9.6403
G01 X32.8560 Y9.6992
G01 X33.0442 Y9.7290
G01 X33.2347 Y9.7290
G01 X33.4228 Y9.6992
G01 X33.6040 Y9.6403
G01 X33.7692 Y9.5562
G01 X38.9083 Y14.7082
G01 X38.8873 Y14.7371
G01 X38.7981 Y14.9122
G01 X38.7374 Y15.0991
G01 X38.7066 Y15.2932
G01 X38.7066 Y15.4897
G01 X38.7374 Y15.6838
G01 X38.7981 Y15.8707
G01 X38.8873 Y16.0458
G01 X39.0028 Y16.2048
G01 X39.1418 Y16.3438
G01 X39.3008 Y16.4593
G01 X39.4759 Y16.5485
G01 X39.6628 Y16.6092
G01 X39.8569 Y16.6400
G01 X41.4504 Y16.6400
G01 X41.6445 Y16.6092
G01 X41.8314 Y16.5485
G01 X42.0065 Y16.4593
G01 X42.1655 Y16.3438
G01 X42.3044 Y16.2048
G01 X42.4199 Y16.0458
G01 X42.5092 Y15.8707
G01 X42.5699 Y15.6838
G01 X42.6006 Y15.4897
G01 X42.6006 Y15.2932
G01 X42.5699 Y15.0991
G01 X42.5092 Y14.9122
G01 X42.4199 Y14.7371
G01 X42.3044 Y14.5781
G01 X42.1655 Y14.4392
G01 X42.0065 Y14.3237
G01 X41.8314 Y14.2344
G01 X41.6445 Y14.1737
G01 X41.4504 Y14.1430
G01 X40.4721 Y14.1430
G01 X34.3498 Y8.0052
G01 X34.3498 Y7.1026
G01 X34.3200 Y6.9144
G01 X34.2611 Y6.7332
G01 X34.1746 Y6.5634
G01 X34.0626 Y6.4093
G01 X33.9279 Y6.2746
G01 X33.7738 Y6.1626
G01 X33.6040 Y6.0761
G01 X33.4228 Y6.0172
G01 X33.2347 Y5.9874
G01 X33.0442 Y5.9874
G01 X32.8560 Y6.0172
G01 X32.6748 Y6.0761
G01 X32.5050 Y6.1626
G01 X32.3509 Y6.2746
G01 X32.2162 Y6.4093
G01 X32.1042 Y6.5634
G01 X32.0177 Y6.7332
G01 X31.9588 Y6.9144
G01 X31.9320 Y7.0839
G01 X30.2265 Y7.0839
G01 X30.1967 Y6.8932
G01 X30.1378 Y6.7120
G01 X30.0513 Y6.5423
G01 X29.9393 Y6.3882
G01 X29.8046 Y6.2534
G01 X29.6505 Y6.1414
G01 X29.4807 Y6.0550
G01 X29.2995 Y5.9961
G01 X29.1114 Y5.9663
G01 X28.9208 Y5.9663
G01 X28.7327 Y5.9961
G01 X28.5515 Y6.0550
G01 X28.3817 Y6.1414
G01 X28.2276 Y6.2534
G01 X28.0929 Y6.3882
G01 X27.9809 Y6.5423
G01 X27.8944 Y6.7120
G01 X27.8355 Y6.8932
G01 X27.8057 Y7.0814
G01 X27.8057 Y7.8283
G01 X22.3210 Y12.1236
G01 X17.3700 Y12.0746
G01 X17.3327 Y12.0233
G01 X17.1980 Y11.8886
G01 X17.0438 Y11.7766
G01 X16.8741 Y11.6901
G01 X16.6929 Y11.6312
G01 X16.5047 Y11.6014
G01 X14.9934 Y11.6014
G01 X14.8052 Y11.6312
G01 X14.6240 Y11.6901
G01 X14.4543 Y11.7766
G01 X14.3001 Y11.8886
G01 X14.1654 Y12.0233
G00 Z3.0000
G00 X14.1654 Y14.5633
G01 Z-0.2000 F254
G01 X14.0534 Y14.7174 F609
G01 X13.9669 Y14.8872
G01 X13.9081 Y15.0684
G01 X13.8783 Y15.2565
G01 X13.8783 Y15.4471
G01 X13.9081 Y15.6352
G01 X13.9669 Y15.8164
G01 X14.0534 Y15.9862
G01 X14.1654 Y16.1403
G01 X14.3001 Y16.2750
G01 X14.4543 Y16.3870
G01 X14.6240 Y16.4735
G01 X14.8052 Y16.5324
G01 X14.9934 Y16.5622
G01 X16.5047 Y16.5622
G01 X16.6929 Y16.5324
G01 X16.8741 Y16.4735
G01 X17.0438 Y16.3870
G01 X17.1980 Y16.2750
G01 X17.3327 Y16.1403
G01 X17.4447 Y15.9862
G01 X17.5312 Y15.8164
G01 X17.5901 Y15.6352
G01 X17.6199 Y15.4471
G01 X17.6199 Y15.2565
G01 X17.5901 Y15.0684
G01 X17.5312 Y14.8872
G01 X17.4447 Y14.7174
G01 X17.3327 Y14.5633
G01 X17.1980 Y14.4285
G01 X17.0438 Y14.3166
G01 X16.8741 Y14.2301
G01 X16.6929 Y14.1712
G01 X16.5047 Y14.1414
G01 X14.9934 Y14.1414
G01 X14.8052 Y14.1712
G01 X14.6240 Y14.2301
G01 X14.4543 Y14.3166
G01 X14.3001 Y14.4285
G01 X14.1654 Y14.5633
G00 Z3.0000
G00 X39.1818 Y10.7313
G01 Z-0.2000 F254
G01 X39.3408 Y10.8468 F609
G01 X39.5159 Y10.9360
G01 X39.7028 Y10.9967
G01 X39.8969 Y11.0275
G01 X41.4904 Y11.0275
G01 X41.6845 Y10.9967
G01 X41.8714 Y10.9360
G01 X42.0465 Y10.8468
G01 X42.2055 Y10.7313
G01 X42.3444 Y10.5923
G01 X42.4599 Y10.4333
G01 X42.5492 Y10.2582
G01 X42.6099 Y10.0713
G01 X42.6406 Y9.8772
G01 X42.6406 Y9.6807
G01 X42.6099 Y9.4866
G01 X42.5492 Y9.2997
G01 X42.4599 Y9.1246
G01 X42.3444 Y8.9656
G01 X42.2055 Y8.8267
G01 X42.0465 Y8.7111
G01 X41.8714 Y8.6219
G01 X41.6845 Y8.5612
G01 X41.4904 Y8.5305
G01 X39.8969 Y8.5305
G01 X39.7028 Y8.5612
G01 X39.5159 Y8.6219
G01 X39.3408 Y8.7111
G01 X39.1818 Y8.8267
G01 X39.0428 Y8.9656
G01 X38.9273 Y9.1246
G01 X38.8381 Y9.2997
G01 X38.7774 Y9.4866
G01 X38.7466 Y9.6807
G01 X38.7466 Y9.8772
G01 X38.7774 Y10.0713
G01 X38.8381 Y10.2582
G01 X38.9273 Y10.4333
G01 X39.0428 Y10.5923
G01 X39.1818 Y10.7313
G00 Z3.0000
G00 X50.8531 Y6.1965
G01 Z-0.2000 F254
G01 X50.7325 Y6.3626 F609
G01 X50.6393 Y6.5454
G01 X50.5759 Y6.7406
G01 X50.5438 Y6.9434
G01 X50.5438 Y8.6566
G01 X50.5759 Y8.8594
G01 X50.6393 Y9.0546
G01 X50.7325 Y9.2374
G01 X50.8531 Y9.4035
G01 X50.9982 Y9.5486
G01 X51.1088 Y9.6289
G01 X51.1088 Y12.1544
G01 X51.1054 Y12.1805
G01 X51.1088 Y12.2284
G01 X51.1088 Y12.2764
G01 X51.1138 Y12.3022
G01 X51.1157 Y12.3285
G01 X51.1283 Y12.3748
G01 X51.1377 Y12.4220
G01 X51.1478 Y12.4463
G01 X51.1547 Y12.4716
G01 X51.1761 Y12.5146
G01 X51.1945 Y12.5590
G01 X51.2090 Y12.5809
G01 X51.2208 Y12.6044
G01 X51.2501 Y12.6424
G01 X51.2769 Y12.6824
G01 X51.2955 Y12.7010
G01 X51.3115 Y12.7218
G01 X51.3477 Y12.7533
G01 X51.3818 Y12.7873
G01 X51.4036 Y12.8019
G01 X57.8894 Y18.4450
G01 X57.9235 Y18.4791
G01 X57.9451 Y18.4936
G01 X57.9650 Y18.5107
G01 X58.0067 Y18.5347
G01 X58.0468 Y18.5614
G01 X58.0709 Y18.5714
G01 X58.0936 Y18.5844
G01 X58.1394 Y18.5997
G01 X58.1840 Y18.6182
G01 X58.2096 Y18.6232
G01 X58.2343 Y18.6316
G01 X58.2823 Y18.6377
G01 X58.3295 Y18.6470
G01 X58.3556 Y18.6470
G01 X58.3816 Y18.6503
G01 X58.4297 Y18.6470
G01 X61.9380 Y18.6456
G01 X61.9631 Y18.6803
G01 X62.0979 Y18.8150
G01 X62.2520 Y18.9270
G01 X62.4218 Y19.0135
G01 X62.6029 Y19.0724
G01 X62.7912 Y19.1022
G01 X64.3024 Y19.1022
G01 X64.4907 Y19.0724
G01 X64.6719 Y19.0135
G01 X64.8415 Y18.9270
G01 X64.9958 Y18.8150
G01 X65.1304 Y18.6803
G01 X65.1561 Y18.6450
G01 X75.6035 Y18.6450
G01 X75.6035 Y18.7527
G01 X75.6333 Y18.9409
G01 X75.6921 Y19.1221
G01 X75.7786 Y19.2919
G01 X75.8906 Y19.4460
G01 X76.0254 Y19.5807
G01 X76.1795 Y19.6927
G01 X76.3492 Y19.7792
G01 X76.5305 Y19.8381
G01 X76.7185 Y19.8679
G01 X76.9091 Y19.8679
G01 X77.0973 Y19.8381
G01 X77.2784 Y19.7792
G01 X77.4483 Y19.6927
G01 X77.6024 Y19.5807
G01 X77.7370 Y19.4460
G01 X77.8491 Y19.2919
G01 X77.9356 Y19.1221
G01 X77.9945 Y18.9409
G01 X78.0242 Y18.7527
G01 X79.7267 Y18.7503
G01 X79.7267 Y18.7739
G01 X79.7566 Y18.9621
G01 X79.8154 Y19.1433
G01 X79.9019 Y19.3130
G01 X80.0139 Y19.4672
G01 X80.1487 Y19.6019
G01 X80.3028 Y19.7139
G01 X80.4725 Y19.8004
G01 X80.6538 Y19.8592
G01 X80.8419 Y19.8890
G01 X81.0324 Y19.8890
G01 X81.2206 Y19.8592
G01 X81.4017 Y19.8004
G01 X81.5716 Y19.7139
G01 X81.7257 Y19.6019
G01 X81.8604 Y19.4672
G01 X81.9724 Y19.3130
G01 X82.0589 Y19.1433
G01 X82.1178 Y18.9621
G01 X82.1475 Y18.7739
G01 X87.9291 Y18.7714
G01 X87.9925 Y18.8958
G01 X88.1080 Y19.0548
G01 X88.2471 Y19.1938
G01 X88.4060 Y19.3093
G01 X88.5812 Y19.3985
G01 X88.7681 Y19.4592
G01 X88.9622 Y19.4900
G01 X90.5556 Y19.4900
G01 X90.7498 Y19.4592
G01 X90.9367 Y19.3985
G01 X91.1118 Y19.3093
G01 X91.2707 Y19.1938
G01 X91.4096 Y19.0548
G01 X91.5251 Y18.8958
G01 X91.6145 Y18.7207
G01 X91.6752 Y18.5338
G01 X91.7058 Y18.3397
G01 X91.7058 Y18.1432
G01 X91.6752 Y17.9491
G01 X91.6145 Y17.7622
G01 X91.5251 Y17.5871
G01 X91.4096 Y17.4281
G01 X91.2707 Y17.2892
G01 X91.1118 Y17.1736
G01 X90.9367 Y17.0844
G01 X90.7498 Y17.0237
G01 X90.5556 Y16.9930
G01 X88.9622 Y16.9930
G01 X88.7681 Y17.0237
G01 X88.5812 Y17.0844
G01 X88.4060 Y17.1736
G01 X88.2802 Y17.2650
G01 X82.1475 Y17.2650
G01 X82.1178 Y17.0744
G01 X82.0589 Y16.8932
G01 X81.9724 Y16.7234
G01 X81.8604 Y16.5693
G01 X81.7257 Y16.4346
G01 X81.5716 Y16.3226
G01 X81.4017 Y16.2361
G01 X81.2206 Y16.1772
G01 X81.0324 Y16.1474
G01 X80.8419 Y16.1474
G01 X80.6538 Y16.1772
G01 X80.4725 Y16.2361
G01 X80.3028 Y16.3226
G01 X80.1487 Y16.4346
G01 X80.0139 Y16.5693
G01 X79.9019 Y16.7234
G01 X79.8154 Y16.8932
G01 X79.7566 Y17.0744
G01 X79.7297 Y17.2439
G01 X78.0242 Y17.2439
G01 X77.9945 Y17.0532
G01 X77.9356 Y16.8720
G01 X77.8491 Y16.7023
G01 X77.7370 Y16.5481
G01 X77.6024 Y16.4134
G01 X77.4483 Y16.3014
G01 X77.2784 Y16.2150
G01 X77.0973 Y16.1561
G01 X76.9091 Y16.1263
G01 X76.7185 Y16.1263
G01 X76.5305 Y16.1561
G01 X76.3492 Y16.2150
G01 X76.1795 Y16.3014
G01 X76.0254 Y16.4134
G01 X75.8906 Y16.5481
G01 X75.7786 Y16.7023
G01 X75.6921 Y16.8720
G01 X75.6333 Y17.0532
G01 X75.6197 Y17.1386
G01 X65.1561 Y17.1386
G01 X65.1304 Y17.1033
G01 X64.9958 Y16.9686
G01 X64.8415 Y16.8566
G01 X64.6719 Y16.7701
G01 X64.4907 Y16.7112
G01 X64.3024 Y16.6814
G01 X62.7912 Y16.6814
G01 X62.6029 Y16.7112
G01 X62.4218 Y16.7701
G01 X62.2520 Y16.8566
G01 X62.0979 Y16.9686
G01 X61.9631 Y17.1033
G01 X61.9370 Y17.1392
G01 X58.6851 Y17.1405
G01 X52.6151 Y11.8592
G01 X52.6151 Y9.6083
G01 X52.6972 Y9.5486
G01 X52.8424 Y9.4035
G01 X52.9631 Y9.2374
G01 X53.0562 Y9.0546
G01 X53.1197 Y8.8594
G01 X53.1517 Y8.6566
G01 X53.1517 Y6.9434
G01 X53.1197 Y6.7406
G01 X53.0562 Y6.5454
G01 X52.9631 Y6.3626
G01 X52.8424 Y6.1965
G01 X52.6972 Y6.0514
G01 X52.5311 Y5.9307
G01 X52.3484 Y5.8375
G01 X52.1532 Y5.7741
G01 X51.9504 Y5.7420
G01 X51.7452 Y5.7420
G01 X51.5423 Y5.7741
G01 X51.3471 Y5.8375
G01 X51.1643 Y5.9307
G01 X50.9982 Y6.0514
G01 X50.8531 Y6.1965
G00 Z3.0000
G00 X54.3531 Y6.1965
G01 Z-0.2000 F254
G01 X54.2325 Y6.3626 F609
G01 X54.1393 Y6.5454
G01 X54.0759 Y6.7406
G01 X54.0438 Y6.9434
G01 X54.0438 Y8.6566
G01 X54.0759 Y8.8594
G01 X54.1393 Y9.0546
G01 X54.2325 Y9.2374
G01 X54.3531 Y9.4035
G01 X54.4982 Y9.5486
G01 X54.6422 Y9.6532
G01 X54.6422 Y11.4800
G01 X54.6386 Y11.5126
G01 X54.6422 Y11.5540
G01 X54.6422 Y11.5956
G01 X54.6486 Y11.6277
G01 X54.6514 Y11.6604
G01 X54.6630 Y11.7003
G01 X54.6711 Y11.7411
G01 X54.6837 Y11.7714
G01 X54.6928 Y11.8029
G01 X54.7120 Y11.8398
G01 X54.7279 Y11.8782
G01 X54.7460 Y11.9054
G01 X54.7612 Y11.9345
G01 X54.7871 Y11.9670
G01 X54.8103 Y12.0015
G01 X54.8334 Y12.0247
G01 X54.8539 Y12.0503
G01 X54.8858 Y12.0771
G01 X54.9151 Y12.1065
G01 X54.9425 Y12.1247
G01 X58.4261 Y15.0523
G01 X58.4261 Y15.8413
G01 X58.4560 Y16.0294
G01 X58.5149 Y16.2106
G01 X58.6013 Y16.3804
G01 X58.7133 Y16.5345
G01 X58.8481 Y16.6692
G01 X59.0022 Y16.7812
G01 X59.1720 Y16.8677
G01 X59.3531 Y16.9266
G01 X59.5412 Y16.9564
G01 X59.7317 Y16.9564
G01 X59.9200 Y16.9266
G01 X60.1012 Y16.8677
G01 X60.2709 Y16.7812
G01 X60.4250 Y16.6692
G01 X60.5598 Y16.5345
G01 X60.6718 Y16.3804
G01 X60.7583 Y16.2106
G01 X60.8171 Y16.0294
G01 X60.8469 Y15.8413
G01 X60.8469 Y14.3299
G01 X60.8171 Y14.1418
G01 X60.7583 Y13.9606
G01 X60.6718 Y13.7908
G01 X60.5598 Y13.6367
G01 X60.4250 Y13.5020
G01 X60.2709 Y13.3900
G01 X60.1012 Y13.3035
G01 X59.9200 Y13.2446
G01 X59.7317 Y13.2148
G01 X59.5412 Y13.2148
G01 X59.3531 Y13.2446
G01 X59.1720 Y13.3035
G01 X59.0022 Y13.3900
G01 X58.8882 Y13.4728
G01 X56.1486 Y11.1705
G01 X56.1486 Y9.5840
G01 X56.1972 Y9.5486
G01 X56.3424 Y9.4035
G01 X56.4631 Y9.2374
G01 X56.5562 Y9.0546
G01 X56.6197 Y8.8594
G01 X56.6517 Y8.6566
G01 X56.6517 Y6.9434
G01 X56.6197 Y6.7406
G01 X56.5562 Y6.5454
G01 X56.4631 Y6.3626
G01 X56.3424 Y6.1965
G01 X56.1972 Y6.0514
G01 X56.0311 Y5.9307
G01 X55.8483 Y5.8375
G01 X55.6532 Y5.7741
G01 X55.4504 Y5.7420
G01 X55.2452 Y5.7420
G01 X55.0423 Y5.7741
G01 X54.8471 Y5.8375
G01 X54.6643 Y5.9307
G01 X54.4982 Y6.0514
G01 X54.3531 Y6.1965
G00 Z3.0000
G00 X58.6013 Y6.2204
G01 Z-0.2000 F254
G01 X58.7133 Y6.3745 F609
G01 X58.8481 Y6.5092
G01 X59.0022 Y6.6212
G01 X59.1720 Y6.7077
G01 X59.3531 Y6.7666
G01 X59.5412 Y6.7964
G01 X59.7317 Y6.7964
G01 X59.9200 Y6.7666
G01 X60.1012 Y6.7077
G01 X60.2709 Y6.6212
G01 X60.4250 Y6.5092
G01 X60.4779 Y6.4564
G01 X61.7349 Y7.3586
G01 X61.7058 Y7.4484
G01 X61.6761 Y7.6365
G01 X61.6761 Y7.8270
G01 X61.7058 Y8.0152
G01 X61.7647 Y8.1964
G01 X61.8512 Y8.3662
G01 X61.9631 Y8.5203
G01 X62.0979 Y8.6550
G01 X62.2520 Y8.7670
G01 X62.4218 Y8.8535
G01 X62.6029 Y8.9124
G01 X62.7912 Y8.9422
G01 X64.3024 Y8.9422
G01 X64.4907 Y8.9124
G01 X64.6719 Y8.8535
G01 X64.8415 Y8.7670
G01 X64.9958 Y8.6550
G01 X65.1304 Y8.5203
G01 X65.2425 Y8.3662
G01 X65.3289 Y8.1964
G01 X65.3879 Y8.0152
G01 X65.4177 Y7.8270
G01 X65.4177 Y7.6365
G01 X65.3879 Y7.4484
G01 X65.3289 Y7.2672
G01 X65.2425 Y7.0974
G01 X65.1304 Y6.9433
G01 X64.9958 Y6.8086
G01 X64.8415 Y6.6966
G01 X64.6719 Y6.6101
G01 X64.4907 Y6.5512
G01 X64.3024 Y6.5214
G01 X63.1521 Y6.5214
G01 X60.8469 Y4.8672
G01 X60.8469 Y4.1699
G01 X60.8171 Y3.9818
G01 X60.7583 Y3.8006
G01 X60.6718 Y3.6308
G01 X60.5598 Y3.4767
G01 X60.4250 Y3.3420
G01 X60.2709 Y3.2300
G01 X60.1012 Y3.1435
G01 X59.9200 Y3.0846
G01 X59.7317 Y3.0548
G01 X59.5412 Y3.0548
G01 X59.3531 Y3.0846
G01 X59.1720 Y3.1435
G01 X59.0022 Y3.2300
G01 X58.8481 Y3.3420
G01 X58.7133 Y3.4767
G01 X58.6013 Y3.6308
G01 X58.5149 Y3.8006
G01 X58.4560 Y3.9818
G01 X58.4261 Y4.1699
G01 X58.4261 Y5.6813
G01 X58.4560 Y5.8694
G01 X58.5149 Y6.0506
G01 X58.6013 Y6.2204
G00 Z3.0000
G00 X61.9631 Y9.4833
G01 Z-0.2000 F254
G01 X61.8512 Y9.6374 F609
G01 X61.7647 Y9.8072
G01 X61.7058 Y9.9884
G01 X61.6761 Y10.1765
G01 X61.6761 Y10.3671
G01 X61.7058 Y10.5552
G01 X61.7647 Y10.7364
G01 X61.8512 Y10.9062
G01 X61.9631 Y11.0603
G01 X62.0979 Y11.1950
G01 X62.2520 Y11.3070
G01 X62.4218 Y11.3935
G01 X62.6029 Y11.4524
G01 X62.7912 Y11.4822
G01 X64.3024 Y11.4822
G01 X64.4907 Y11.4524
G01 X64.6719 Y11.3935
G01 X64.8415 Y11.3070
G01 X64.9958 Y11.1950
G01 X65.1304 Y11.0603
G01 X65.2425 Y10.9062
G01 X65.3289 Y10.7364
G01 X65.3879 Y10.5552
G01 X65.4177 Y10.3671
G01 X65.4177 Y10.1765
G01 X65.3879 Y9.9884
G01 X65.3289 Y9.8072
G01 X65.2425 Y9.6374
G01 X65.1304 Y9.4833
G01 X64.9958 Y9.3485
G01 X64.8415 Y9.2366
G01 X64.6719 Y9.1501
G01 X64.4907 Y9.0912
G01 X64.3024 Y9.0614
G01 X62.7912 Y9.0614
G01 X62.6029 Y9.0912
G01 X62.4218 Y9.1501
G01 X62.2520 Y9.2366
G01 X62.0979 Y9.3485
G01 X61.9631 Y9.4833
G00 Z3.0000
G00 X61.9631 Y12.0233
G01 Z-0.2000 F254
G01 X61.8512 Y12.1774 F609
G01 X61.7647 Y12.3472
G01 X61.7058 Y12.5284
G01 X61.6761 Y12.7165
G01 X61.6761 Y12.9070
G01 X61.7058 Y13.0952
G01 X61.7647 Y13.2764
G01 X61.8512 Y13.4462
G01 X61.9631 Y13.6003
G01 X62.0979 Y13.7350
G01 X62.2520 Y13.8470
G01 X62.4218 Y13.9335
G01 X62.6029 Y13.9924
G01 X62.7912 Y14.0222
G01 X64.3024 Y14.0222
G01 X64.4907 Y13.9924
G01 X64.6719 Y13.9335
G01 X64.8415 Y13.8470
G01 X64.9958 Y13.7350
G01 X65.1304 Y13.6003
G01 X65.1446 Y13.5808
G01 X70.3260 Y13.6321
G01 X70.3581 Y13.6360
G01 X70.4000 Y13.6328
G01 X70.4420 Y13.6332
G01 X70.4737 Y13.6272
G01 X70.5059 Y13.6248
G01 X70.5464 Y13.6135
G01 X70.5879 Y13.6057
G01 X70.6179 Y13.5937
G01 X70.6489 Y13.5850
G01 X70.6865 Y13.5660
G01 X70.7254 Y13.5503
G01 X70.7524 Y13.5326
G01 X70.7814 Y13.5181
G01 X70.8144 Y13.4921
G01 X70.8496 Y13.4691
G01 X70.8726 Y13.4465
G01 X76.0200 Y9.4154
G01 X76.0254 Y9.4207
G01 X76.1795 Y9.5327
G01 X76.3492 Y9.6192
G01 X76.5305 Y9.6781
G01 X76.7185 Y9.7079
G01 X76.9091 Y9.7079
G01 X77.0973 Y9.6781
G01 X77.2784 Y9.6192
G01 X77.4483 Y9.5327
G01 X77.6024 Y9.4207
G01 X77.7370 Y9.2860
G01 X77.8491 Y9.1319
G01 X77.9356 Y8.9621
G01 X77.9945 Y8.7809
G01 X78.0242 Y8.5927
G01 X79.7267 Y8.5903
G01 X79.7267 Y8.6139
G01 X79.7566 Y8.8021
G01 X79.8154 Y8.9833
G01 X79.9019 Y9.1530
G01 X80.0139 Y9.3072
G01 X80.1487 Y9.4419
G01 X80.3028 Y9.5539
G01 X80.4725 Y9.6403
G01 X80.6538 Y9.6992
G01 X80.8419 Y9.7290
G01 X81.0324 Y9.7290
G01 X81.2206 Y9.6992
G01 X81.4017 Y9.6403
G01 X81.5669 Y9.5562
G01 X86.7061 Y14.7082
G01 X86.6851 Y14.7371
G01 X86.5958 Y14.9122
G01 X86.5352 Y15.0991
G01 X86.5044 Y15.2932
G01 X86.5044 Y15.4897
G01 X86.5352 Y15.6838
G01 X86.5958 Y15.8707
G01 X86.6851 Y16.0458
G01 X86.8006 Y16.2048
G01 X86.9395 Y16.3438
G01 X87.0986 Y16.4593
G01 X87.2737 Y16.5485
G01 X87.4605 Y16.6092
G01 X87.6547 Y16.6400
G01 X89.2482 Y16.6400
G01 X89.4423 Y16.6092
G01 X89.6292 Y16.5485
G01 X89.8042 Y16.4593
G01 X89.9633 Y16.3438
G01 X90.1021 Y16.2048
G01 X90.2176 Y16.0458
G01 X90.3070 Y15.8707
G01 X90.3676 Y15.6838
G01 X90.3983 Y15.4897
G01 X90.3983 Y15.2932
G01 X90.3676 Y15.0991
G01 X90.3070 Y14.9122
G01 X90.2176 Y14.7371
G01 X90.1021 Y14.5781
G01 X89.9633 Y14.4392
G01 X89.8042 Y14.3237
G01 X89.6292 Y14.2344
G01 X89.4423 Y14.1737
G01 X89.2482 Y14.1430
G01 X88.2698 Y14.1430
G01 X82.1475 Y8.0052
G01 X82.1475 Y7.1026
G01 X82.1178 Y6.9144
G01 X82.0589 Y6.7332
G01 X81.9724 Y6.5634
G01 X81.8604 Y6.4093
G01 X81.7257 Y6.2746
G01 X81.5716 Y6.1626
G01 X81.4017 Y6.0761
G01 X81.2206 Y6.0172
G01 X81.0324 Y5.9874
G01 X80.8419 Y5.9874
G01 X80.6538 Y6.0172
G01 X80.4725 Y6.0761
G01 X80.3028 Y6.1626
G01 X80.1487 Y6.2746
G01 X80.0139 Y6.4093
G01 X79.9019 Y6.5634
G01 X79.8154 Y6.7332
G01 X79.7566 Y6.9144
G01 X79.7297 Y7.0839
G01 X78.0242 Y7.0839
G01 X77.9945 Y6.8932
G01 X77.9356 Y6.7120
G01 X77.8491 Y6.5423
G01 X77.7370 Y6.3882
G01 X77.6024 Y6.2534
G01 X77.4483 Y6.1414
G01 X77.2784 Y6.0550
G01 X77.0973 Y5.9961
G01 X76.9091 Y5.9663
G01 X76.7185 Y5.9663
G01 X76.5305 Y5.9961
G01 X76.3492 Y6.0550
G01 X76.1795 Y6.1414
G01 X76.0254 Y6.2534
G01 X75.8906 Y6.3882
G01 X75.7786 Y6.5423
G01 X75.6921 Y6.7120
G01 X75.6333 Y6.8932
G01 X75.6035 Y7.0814
G01 X75.6035 Y7.8283
G01 X70.1188 Y12.1236
G01 X65.1677 Y12.0746
G01 X65.1304 Y12.0233
G01 X64.9958 Y11.8886
G01 X64.8415 Y11.7766
G01 X64.6719 Y11.6901
G01 X64.4907 Y11.6312
G01 X64.3024 Y11.6014
G01 X62.7912 Y11.6014
G01 X62.6029 Y11.6312
G01 X62.4218 Y11.6901
G01 X62.2520 Y11.7766
G01 X62.0979 Y11.8886
G01 X61.9631 Y12.0233
G00 Z3.0000
G00 X61.9631 Y14.5633
G01 Z-0.2000 F254
G01 X61.8512 Y14.7174 F609
G01 X61.7647 Y14.8872
G01 X61.7058 Y15.0684
G01 X61.6761 Y15.2565
G01 X61.6761 Y15.4471
G01 X61.7058 Y15.6352
G01 X61.7647 Y15.8164
G01 X61.8512 Y15.9862
G01 X61.9631 Y16.1403
G01 X62.0979 Y16.2750
G01 X62.2520 Y16.3870
G01 X62.4218 Y16.4735
G01 X62.6029 Y16.5324
G01 X62.7912 Y16.5622
G01 X64.3024 Y16.5622
G01 X64.4907 Y16.5324
G01 X64.6719 Y16.4735
G01 X64.8415 Y16.3870
G01 X64.9958 Y16.2750
G01 X65.1304 Y16.1403
G01 X65.2425 Y15.9862
G01 X65.3289 Y15.8164
G01 X65.3879 Y15.6352
G01 X65.4177 Y15.4471
G01 X65.4177 Y15.2565
G01 X65.3879 Y15.0684
G01 X65.3289 Y14.8872
G01 X65.2425 Y14.7174
G01 X65.1304 Y14.5633
G01 X64.9958 Y14.4285
G01 X64.8415 Y14.3166
G01 X64.6719 Y14.2301
G01 X64.4907 Y14.1712
G01 X64.3024 Y14.1414
G01 X62.7912 Y14.1414
G01 X62.6029 Y14.1712
G01 X62.4218 Y14.2301
G01 X62.2520 Y14.3166
G01 X62.0979 Y14.4285
G01 X61.9631 Y14.5633
G00 Z3.0000
G00 X86.9796 Y10.7313
G01 Z-0.2000 F254
G01 X87.1386 Y10.8468 F609
G01 X87.3136 Y10.9360
G01 X87.5006 Y10.9967
G01 X87.6946 Y11.0275
G01 X89.2882 Y11.0275
G01 X89.4822 Y10.9967
G01 X89.6692 Y10.9360
G01 X89.8443 Y10.8468
G01 X90.0033 Y10.7313
G01 X90.1422 Y10.5923
G01 X90.2576 Y10.4333
G01 X90.3469 Y10.2582
G01 X90.4077 Y10.0713
G01 X90.4383 Y9.8772
G01 X90.4383 Y9.6807
G01 X90.4077 Y9.4866
G01 X90.3469 Y9.2997
G01 X90.2576 Y9.1246
G01 X90.1422 Y8.9656
G01 X90.0033 Y8.8267
G01 X89.8443 Y8.7111
G01 X89.6692 Y8.6219
G01 X89.4822 Y8.5612
G01 X89.2882 Y8.5305
G01 X87.6946 Y8.5305
G01 X87.5006 Y8.5612
G01 X87.3136 Y8.6219
G01 X87.1386 Y8.7111
G01 X86.9796 Y8.8267
G01 X86.8406 Y8.9656
G01 X86.7251 Y9.1246
G01 X86.6359 Y9.2997
G01 X86.5752 Y9.4866
G01 X86.5444 Y9.6807
G01 X86.5444 Y9.8772
G01 X86.5752 Y10.0713
G01 X86.6359 Y10.2582
G01 X86.7251 Y10.4333
G01 X86.8406 Y10.5923
G01 X86.9796 Y10.7313
(----- drill -----)
G00 Z2.0000
G82 X15.7491 Y7.7318 Z-1.6000 R2.0000 P0.100000 F609
G82 X29.0161 Y17.9971
G82 X33.1394 Y18.0182
G82 X40.0736 Y15.7565
G82 X40.6536 Y15.3915
G82 X40.7086 Y15.7565
G82 X41.3436 Y15.7565
G82 X41.3436 Y17.9790
G82 X41.9611 Y18.2415
G82 X41.9786 Y17.9790
G82 X42.6136 Y17.9790
G82 X59.6365 Y15.0856
G82 X63.5468 Y17.8918
G82 X63.5468 Y15.3518
G82 X63.5468 Y12.8118
G82 X63.5468 Y10.2718
G82 X76.8139 Y17.9971
G82 X80.9372 Y18.0182
G82 X89.1414 Y17.9790
G82 X89.7588 Y18.2415
G82 X89.7764 Y17.9790
G82 X90.4113 Y17.9790
G82 X89.1414 Y15.7565
G82 X88.5063 Y15.7565
G82 X87.8714 Y15.7565
G82 X88.4513 Y15.3915
G82 X90.4113 Y11.6290
G82 X89.7764 Y11.6290
G82 X89.1414 Y11.6290
G82 X89.1414 Y9.7240
G82 X88.5063 Y9.7240
G82 X88.4914 Y9.7790
G82 X87.8714 Y9.7240
G82 X90.4113 Y5.9140
G82 X89.7764 Y5.9140
G82 X89.7439 Y5.9140
G82 X89.1414 Y5.9140
G82 X80.9372 Y7.8582
G82 X76.8139 Y7.8371
G82 X63.5468 Y7.7318
G82 X59.6365 Y4.9256
G82 X55.8203 Y7.8000
G82 X55.3477 Y7.8000
G82 X52.3278 Y7.8000
G82 X51.8477 Y7.8000
G82 X42.6136 Y5.9140
G82 X41.9786 Y5.9140
G82 X41.9461 Y5.9140
G82 X41.3436 Y5.9140
G82 X41.3436 Y9.7240
G82 X42.6136 Y11.6290
G82 X41.9786 Y11.6290
G82 X41.3436 Y11.6290
G82 X40.6936 Y9.7790
G82 X40.7086 Y9.7240
G82 X40.0736 Y9.7240
G82 X33.1394 Y7.8582
G82 X29.0161 Y7.8371
G82 X15.7491 Y10.2718
G82 X15.7491 Y12.8118
G82 X15.7491 Y15.3518
G82 X15.7491 Y17.8918
G82 X11.8388 Y15.0856
G82 X4.0500 Y7.8000
G82 X4.5300 Y7.8000
G82 X7.5500 Y7.8000
G82 X8.0225 Y7.8000
G82 X11.8388 Y4.9256
(----- frame -----)
G00 Z3.0000
G00 X0.6011 Y0.5977
G01 Z-0.7000 F254
G01 X96.1967 Y0.5977 F261
G01 X96.1967 Y22.1968 F261
G01 X0.6011 Y22.1968 F261
G01 X0.6011 Y0.5977 F261
G01 X48.3989 Y0.5977 F261
G01 X48.3989 Y22.1968 F261
G01 X96.1967 Y22.1968 F261
G01 X96.1967 Y0.5977 F261
G01 Z-1.4000 F254
G01 X75.2978 Y0.5977 F261
G01 Z0.000 F609
G01 X69.2978 Y0.5977 F261
G01 Z-1.4000 F254
G01 X27.5000 Y0.5977 F261
G01 Z0.000 F609
G01 X21.5000 Y0.5977 F261
G01 Z-1.4000 F254
G01 X0.6011 Y0.5977 F261
G01 X0.6011 Y8.3972 F261
G01 Z0.000 F609
G01 X0.6011 Y14.3972 F261
G01 Z-1.4000 F254
G01 X0.6011 Y22.1968 F261
G01 X21.5000 Y22.1968 F261
G01 Z0.000 F609
G01 X27.5000 Y22.1968 F261
G01 Z-1.4000 F254
G01 X69.2978 Y22.1968 F261
G01 Z0.000 F609
G01 X75.2978 Y22.1968 F261
G01 Z-1.4000 F254
G01 X96.1967 Y22.1968 F261
G01 X96.1967 Y14.3972 F261
G01 Z0.000 F609
G01 X96.1967 Y8.3972 F261
G01 Z-1.4000 F254
G01 X96.1967 Y0.5977 F261
G01 X75.2978 Y0.5977 F261
G01 Z0.000 F609
G01 X69.2978 Y0.5977 F261
G01 Z-1.4000 F254
G01 X48.3989 Y0.5977 F261
G01 X48.3989 Y8.3972 F261
G01 Z0.000 F609
G01 X48.3989 Y14.3972 F261
G01 Z-1.4000 F254
G01 X48.3989 Y22.1968 F261
G01 X27.5000 Y22.1968 F261
G01 Z0.000 F609
G01 X21.5000 Y22.1968 F261
G01 Z-1.4000 F254
G01 X0.6011 Y22.1968 F261
G01 X0.6011 Y14.3972 F261
G01 Z0.000 F609
G01 X0.6011 Y8.3972 F261
G01 Z-1.4000 F254
G01 X0.6011 Y0.5977 F261
(----- footer -----)
G00 Z5.0000
M05
M02