(----- header -----)
(.../pcb-gcode-3.6.2.4/pcb-gcode.ulp)
(Copyright 2005 - 2012 by John Johnson)
(See readme.txt for licensing terms.)
(This file generated from the board:)
(.../025_電子示波器/single_單個/SoundCard-OSC.brd)
(Current profile is .../pcb-gcode-3.6.2.4/profiles/mach.pp  )
(This file generated 2015/8/4 3:35)
(Settings from pcb-machine.h)
(spindle on time = 3.0000)
(  Tool Size)
(0.1000  )
(spindle speed = 30000.0000)
(tool change at 0.0000  0.0000  25.4000 )
(feed rate xy = F508   )
(feed rate z  = F254   )
(Z Axis Settings)
(  High     Up        Down     Drill)
(5.0000  	3.0000  	-0.2000 	-2.0000 )
(Settings from pcb-defaults.h)
(isolate min = 0.5000)
(isolate max = 0.5080)
(isolate step = 0.1270)
(Generated top outlines, top drill, )
(Unit of measure: mm)
(Metric Mode)
G21
(Absolute Coordinates)
G90
S30000
G00 Z5.0000
G00 X0.0000  Y0.0000
M03
G04 P3.000000
(----- etch -----)
G00 Z3.0000
G00 X3.0554 Y6.1965
G01 Z-0.2000 F254
G01 X2.9347 Y6.3626 F609
G01 X2.8415 Y6.5454
G01 X2.7781 Y6.7406
G01 X2.7460 Y6.9434
G01 X2.7460 Y8.6566
G01 X2.7781 Y8.8594
G01 X2.8415 Y9.0546
G01 X2.9347 Y9.2374
G01 X3.0554 Y9.4035
G01 X3.2005 Y9.5486
G01 X3.3110 Y9.6289
G01 X3.3110 Y12.1544
G01 X3.3076 Y12.1805
G01 X3.3110 Y12.2284
G01 X3.3110 Y12.2764
G01 X3.3161 Y12.3022
G01 X3.3179 Y12.3285
G01 X3.3305 Y12.3748
G01 X3.3399 Y12.4220
G01 X3.3500 Y12.4463
G01 X3.3569 Y12.4716
G01 X3.3783 Y12.5146
G01 X3.3967 Y12.5590
G01 X3.4113 Y12.5809
G01 X3.4230 Y12.6044
G01 X3.4524 Y12.6424
G01 X3.4791 Y12.6824
G01 X3.4977 Y12.7010
G01 X3.5138 Y12.7218
G01 X3.5500 Y12.7533
G01 X3.5840 Y12.7873
G01 X3.6059 Y12.8019
G01 X10.0916 Y18.4450
G01 X10.1257 Y18.4791
G01 X10.1474 Y18.4936
G01 X10.1672 Y18.5107
G01 X10.2090 Y18.5347
G01 X10.2491 Y18.5614
G01 X10.2732 Y18.5714
G01 X10.2959 Y18.5844
G01 X10.3417 Y18.5997
G01 X10.3862 Y18.6182
G01 X10.4118 Y18.6232
G01 X10.4366 Y18.6316
G01 X10.4845 Y18.6377
G01 X10.5317 Y18.6470
G01 X10.5578 Y18.6470
G01 X10.5838 Y18.6503
G01 X10.6319 Y18.6470
G01 X14.1402 Y18.6456
G01 X14.1654 Y18.6803
G01 X14.3001 Y18.8150
G01 X14.4543 Y18.9270
G01 X14.6240 Y19.0135
G01 X14.8052 Y19.0724
G01 X14.9934 Y19.1022
G01 X16.5047 Y19.1022
G01 X16.6929 Y19.0724
G01 X16.8741 Y19.0135
G01 X17.0438 Y18.9270
G01 X17.1980 Y18.8150
G01 X17.3327 Y18.6803
G01 X17.3584 Y18.6450
G01 X27.8057 Y18.6450
G01 X27.8057 Y18.7527
G01 X27.8355 Y18.9409
G01 X27.8944 Y19.1221
G01 X27.9809 Y19.2919
G01 X28.0929 Y19.4460
G01 X28.2276 Y19.5807
G01 X28.3817 Y19.6927
G01 X28.5515 Y19.7792
G01 X28.7327 Y19.8381
G01 X28.9208 Y19.8679
G01 X29.1114 Y19.8679
G01 X29.2995 Y19.8381
G01 X29.4807 Y19.7792
G01 X29.6505 Y19.6927
G01 X29.8046 Y19.5807
G01 X29.9393 Y19.4460
G01 X30.0513 Y19.2919
G01 X30.1378 Y19.1221
G01 X30.1967 Y18.9409
G01 X30.2265 Y18.7527
G01 X31.9290 Y18.7503
G01 X31.9290 Y18.7739
G01 X31.9588 Y18.9621
G01 X32.0177 Y19.1433
G01 X32.1042 Y19.3130
G01 X32.2162 Y19.4672
G01 X32.3509 Y19.6019
G01 X32.5050 Y19.7139
G01 X32.6748 Y19.8004
G01 X32.8560 Y19.8592
G01 X33.0442 Y19.8890
G01 X33.2347 Y19.8890
G01 X33.4228 Y19.8592
G01 X33.6040 Y19.8004
G01 X33.7738 Y19.7139
G01 X33.9279 Y19.6019
G01 X34.0626 Y19.4672
G01 X34.1746 Y19.3130
G01 X34.2611 Y19.1433
G01 X34.3200 Y18.9621
G01 X34.3498 Y18.7739
G01 X40.1314 Y18.7714
G01 X40.1948 Y18.8958
G01 X40.3103 Y19.0548
G01 X40.4493 Y19.1938
G01 X40.6083 Y19.3093
G01 X40.7834 Y19.3985
G01 X40.9703 Y19.4592
G01 X41.1644 Y19.4900
G01 X42.7579 Y19.4900
G01 X42.9520 Y19.4592
G01 X43.1389 Y19.3985
G01 X43.3140 Y19.3093
G01 X43.4730 Y19.1938
G01 X43.6119 Y19.0548
G01 X43.7274 Y18.8958
G01 X43.8167 Y18.7207
G01 X43.8774 Y18.5338
G01 X43.9081 Y18.3397
G01 X43.9081 Y18.1432
G01 X43.8774 Y17.9491
G01 X43.8167 Y17.7622
G01 X43.7274 Y17.5871
G01 X43.6119 Y17.4281
G01 X43.4730 Y17.2892
G01 X43.3140 Y17.1736
G01 X43.1389 Y17.0844
G01 X42.9520 Y17.0237
G01 X42.7579 Y16.9930
G01 X41.1644 Y16.9930
G01 X40.9703 Y17.0237
G01 X40.7834 Y17.0844
G01 X40.6083 Y17.1736
G01 X40.4825 Y17.2650
G01 X34.3498 Y17.2650
G01 X34.3200 Y17.0744
G01 X34.2611 Y16.8932
G01 X34.1746 Y16.7234
G01 X34.0626 Y16.5693
G01 X33.9279 Y16.4346
G01 X33.7738 Y16.3226
G01 X33.6040 Y16.2361
G01 X33.4228 Y16.1772
G01 X33.2347 Y16.1474
G01 X33.0442 Y16.1474
G01 X32.8560 Y16.1772
G01 X32.6748 Y16.2361
G01 X32.5050 Y16.3226
G01 X32.3509 Y16.4346
G01 X32.2162 Y16.5693
G01 X32.1042 Y16.7234
G01 X32.0177 Y16.8932
G01 X31.9588 Y17.0744
G01 X31.9320 Y17.2439
G01 X30.2265 Y17.2439
G01 X30.1967 Y17.0532
G01 X30.1378 Y16.8720
G01 X30.0513 Y16.7023
G01 X29.9393 Y16.5481
G01 X29.8046 Y16.4134
G01 X29.6505 Y16.3014
G01 X29.4807 Y16.2150
G01 X29.2995 Y16.1561
G01 X29.1114 Y16.1263
G01 X28.9208 Y16.1263
G01 X28.7327 Y16.1561
G01 X28.5515 Y16.2150
G01 X28.3817 Y16.3014
G01 X28.2276 Y16.4134
G01 X28.0929 Y16.5481
G01 X27.9809 Y16.7023
G01 X27.8944 Y16.8720
G01 X27.8355 Y17.0532
G01 X27.8220 Y17.1386
G01 X17.3584 Y17.1386
G01 X17.3327 Y17.1033
G01 X17.1980 Y16.9686
G01 X17.0438 Y16.8566
G01 X16.8741 Y16.7701
G01 X16.6929 Y16.7112
G01 X16.5047 Y16.6814
G01 X14.9934 Y16.6814
G01 X14.8052 Y16.7112
G01 X14.6240 Y16.7701
G01 X14.4543 Y16.8566
G01 X14.3001 Y16.9686
G01 X14.1654 Y17.1033
G01 X14.1393 Y17.1392
G01 X10.8873 Y17.1405
G01 X4.8174 Y11.8592
G01 X4.8174 Y9.6083
G01 X4.8995 Y9.5486
G01 X5.0446 Y9.4035
G01 X5.1653 Y9.2374
G01 X5.2585 Y9.0546
G01 X5.3219 Y8.8594
G01 X5.3540 Y8.6566
G01 X5.3540 Y6.9434
G01 X5.3219 Y6.7406
G01 X5.2585 Y6.5454
G01 X5.1653 Y6.3626
G01 X5.0446 Y6.1965
G01 X4.8995 Y6.0514
G01 X4.7334 Y5.9307
G01 X4.5506 Y5.8375
G01 X4.3554 Y5.7741
G01 X4.1526 Y5.7420
G01 X3.9474 Y5.7420
G01 X3.7446 Y5.7741
G01 X3.5494 Y5.8375
G01 X3.3666 Y5.9307
G01 X3.2005 Y6.0514
G01 X3.0554 Y6.1965
G00 Z3.0000
G00 X6.5554 Y6.1965
G01 Z-0.2000 F254
G01 X6.4347 Y6.3626 F609
G01 X6.3415 Y6.5454
G01 X6.2781 Y6.7406
G01 X6.2460 Y6.9434
G01 X6.2460 Y8.6566
G01 X6.2781 Y8.8594
G01 X6.3415 Y9.0546
G01 X6.4347 Y9.2374
G01 X6.5554 Y9.4035
G01 X6.7005 Y9.5486
G01 X6.8444 Y9.6532
G01 X6.8444 Y11.4800
G01 X6.8408 Y11.5126
G01 X6.8444 Y11.5540
G01 X6.8444 Y11.5956
G01 X6.8508 Y11.6277
G01 X6.8536 Y11.6604
G01 X6.8652 Y11.7003
G01 X6.8733 Y11.7411
G01 X6.8859 Y11.7714
G01 X6.8950 Y11.8029
G01 X6.9142 Y11.8398
G01 X6.9301 Y11.8782
G01 X6.9483 Y11.9054
G01 X6.9634 Y11.9345
G01 X6.9894 Y11.9670
G01 X7.0125 Y12.0015
G01 X7.0357 Y12.0247
G01 X7.0562 Y12.0503
G01 X7.0880 Y12.0771
G01 X7.1174 Y12.1065
G01 X7.1447 Y12.1247
G01 X10.6284 Y15.0523
G01 X10.6284 Y15.8413
G01 X10.6582 Y16.0294
G01 X10.7171 Y16.2106
G01 X10.8036 Y16.3804
G01 X10.9155 Y16.5345
G01 X11.0503 Y16.6692
G01 X11.2044 Y16.7812
G01 X11.3742 Y16.8677
G01 X11.5554 Y16.9266
G01 X11.7435 Y16.9564
G01 X11.9340 Y16.9564
G01 X12.1222 Y16.9266
G01 X12.3034 Y16.8677
G01 X12.4732 Y16.7812
G01 X12.6273 Y16.6692
G01 X12.7620 Y16.5345
G01 X12.8740 Y16.3804
G01 X12.9605 Y16.2106
G01 X13.0194 Y16.0294
G01 X13.0492 Y15.8413
G01 X13.0492 Y14.3299
G01 X13.0194 Y14.1418
G01 X12.9605 Y13.9606
G01 X12.8740 Y13.7908
G01 X12.7620 Y13.6367
G01 X12.6273 Y13.5020
G01 X12.4732 Y13.3900
G01 X12.3034 Y13.3035
G01 X12.1222 Y13.2446
G01 X11.9340 Y13.2148
G01 X11.7435 Y13.2148
G01 X11.5554 Y13.2446
G01 X11.3742 Y13.3035
G01 X11.2044 Y13.3900
G01 X11.0904 Y13.4728
G01 X8.3508 Y11.1705
G01 X8.3508 Y9.5840
G01 X8.3995 Y9.5486
G01 X8.5446 Y9.4035
G01 X8.6653 Y9.2374
G01 X8.7585 Y9.0546
G01 X8.8219 Y8.8594
G01 X8.8540 Y8.6566
G01 X8.8540 Y6.9434
G01 X8.8219 Y6.7406
G01 X8.7585 Y6.5454
G01 X8.6653 Y6.3626
G01 X8.5446 Y6.1965
G01 X8.3995 Y6.0514
G01 X8.2334 Y5.9307
G01 X8.0506 Y5.8375
G01 X7.8554 Y5.7741
G01 X7.6526 Y5.7420
G01 X7.4474 Y5.7420
G01 X7.2446 Y5.7741
G01 X7.0494 Y5.8375
G01 X6.8666 Y5.9307
G01 X6.7005 Y6.0514
G01 X6.5554 Y6.1965
G00 Z3.0000
G00 X10.8036 Y6.2204
G01 Z-0.2000 F254
G01 X10.9155 Y6.3745 F609
G01 X11.0503 Y6.5092
G01 X11.2044 Y6.6212
G01 X11.3742 Y6.7077
G01 X11.5554 Y6.7666
G01 X11.7435 Y6.7964
G01 X11.9340 Y6.7964
G01 X12.1222 Y6.7666
G01 X12.3034 Y6.7077
G01 X12.4732 Y6.6212
G01 X12.6273 Y6.5092
G01 X12.6801 Y6.4564
G01 X13.9372 Y7.3586
G01 X13.9081 Y7.4484
G01 X13.8783 Y7.6365
G01 X13.8783 Y7.8270
G01 X13.9081 Y8.0152
G01 X13.9669 Y8.1964
G01 X14.0534 Y8.3662
G01 X14.1654 Y8.5203
G01 X14.3001 Y8.6550
G01 X14.4543 Y8.7670
G01 X14.6240 Y8.8535
G01 X14.8052 Y8.9124
G01 X14.9934 Y8.9422
G01 X16.5047 Y8.9422
G01 X16.6929 Y8.9124
G01 X16.8741 Y8.8535
G01 X17.0438 Y8.7670
G01 X17.1980 Y8.6550
G01 X17.3327 Y8.5203
G01 X17.4447 Y8.3662
G01 X17.5312 Y8.1964
G01 X17.5901 Y8.0152
G01 X17.6199 Y7.8270
G01 X17.6199 Y7.6365
G01 X17.5901 Y7.4484
G01 X17.5312 Y7.2672
G01 X17.4447 Y7.0974
G01 X17.3327 Y6.9433
G01 X17.1980 Y6.8086
G01 X17.0438 Y6.6966
G01 X16.8741 Y6.6101
G01 X16.6929 Y6.5512
G01 X16.5047 Y6.5214
G01 X15.3543 Y6.5214
G01 X13.0492 Y4.8672
G01 X13.0492 Y4.1699
G01 X13.0194 Y3.9818
G01 X12.9605 Y3.8006
G01 X12.8740 Y3.6308
G01 X12.7620 Y3.4767
G01 X12.6273 Y3.3420
G01 X12.4732 Y3.2300
G01 X12.3034 Y3.1435
G01 X12.1222 Y3.0846
G01 X11.9340 Y3.0548
G01 X11.7435 Y3.0548
G01 X11.5554 Y3.0846
G01 X11.3742 Y3.1435
G01 X11.2044 Y3.2300
G01 X11.0503 Y3.3420
G01 X10.9155 Y3.4767
G01 X10.8036 Y3.6308
G01 X10.7171 Y3.8006
G01 X10.6582 Y3.9818
G01 X10.6284 Y4.1699
G01 X10.6284 Y5.6813
G01 X10.6582 Y5.8694
G01 X10.7171 Y6.0506
G01 X10.8036 Y6.2204
G00 Z3.0000
G00 X14.1654 Y9.4833
G01 Z-0.2000 F254
G01 X14.0534 Y9.6374 F609
G01 X13.9669 Y9.8072
G01 X13.9081 Y9.9884
G01 X13.8783 Y10.1765
G01 X13.8783 Y10.3671
G01 X13.9081 Y10.5552
G01 X13.9669 Y10.7364
G01 X14.0534 Y10.9062
G01 X14.1654 Y11.0603
G01 X14.3001 Y11.1950
G01 X14.4543 Y11.3070
G01 X14.6240 Y11.3935
G01 X14.8052 Y11.4524
G01 X14.9934 Y11.4822
G01 X16.5047 Y11.4822
G01 X16.6929 Y11.4524
G01 X16.8741 Y11.3935
G01 X17.0438 Y11.3070
G01 X17.1980 Y11.1950
G01 X17.3327 Y11.0603
G01 X17.4447 Y10.9062
G01 X17.5312 Y10.7364
G01 X17.5901 Y10.5552
G01 X17.6199 Y10.3671
G01 X17.6199 Y10.1765
G01 X17.5901 Y9.9884
G01 X17.5312 Y9.8072
G01 X17.4447 Y9.6374
G01 X17.3327 Y9.4833
G01 X17.1980 Y9.3485
G01 X17.0438 Y9.2366
G01 X16.8741 Y9.1501
G01 X16.6929 Y9.0912
G01 X16.5047 Y9.0614
G01 X14.9934 Y9.0614
G01 X14.8052 Y9.0912
G01 X14.6240 Y9.1501
G01 X14.4543 Y9.2366
G01 X14.3001 Y9.3485
G01 X14.1654 Y9.4833
G00 Z3.0000
G00 X14.1654 Y12.0233
G01 Z-0.2000 F254
G01 X14.0534 Y12.1774 F609
G01 X13.9669 Y12.3472
G01 X13.9081 Y12.5284
G01 X13.8783 Y12.7165
G01 X13.8783 Y12.9070
G01 X13.9081 Y13.0952
G01 X13.9669 Y13.2764
G01 X14.0534 Y13.4462
G01 X14.1654 Y13.6003
G01 X14.3001 Y13.7350
G01 X14.4543 Y13.8470
G01 X14.6240 Y13.9335
G01 X14.8052 Y13.9924
G01 X14.9934 Y14.0222
G01 X16.5047 Y14.0222
G01 X16.6929 Y13.9924
G01 X16.8741 Y13.9335
G01 X17.0438 Y13.8470
G01 X17.1980 Y13.7350
G01 X17.3327 Y13.6003
G01 X17.3468 Y13.5808
G01 X22.5282 Y13.6321
G01 X22.5603 Y13.6360
G01 X22.6022 Y13.6328
G01 X22.6443 Y13.6332
G01 X22.6760 Y13.6272
G01 X22.7082 Y13.6248
G01 X22.7487 Y13.6135
G01 X22.7901 Y13.6057
G01 X22.8201 Y13.5937
G01 X22.8512 Y13.5850
G01 X22.8887 Y13.5660
G01 X22.9277 Y13.5503
G01 X22.9547 Y13.5326
G01 X22.9836 Y13.5181
G01 X23.0167 Y13.4921
G01 X23.0519 Y13.4691
G01 X23.0749 Y13.4465
G01 X28.2223 Y9.4154
G01 X28.2276 Y9.4207
G01 X28.3817 Y9.5327
G01 X28.5515 Y9.6192
G01 X28.7327 Y9.6781
G01 X28.9208 Y9.7079
G01 X29.1114 Y9.7079
G01 X29.2995 Y9.6781
G01 X29.4807 Y9.6192
G01 X29.6505 Y9.5327
G01 X29.8046 Y9.4207
G01 X29.9393 Y9.2860
G01 X30.0513 Y9.1319
G01 X30.1378 Y8.9621
G01 X30.1967 Y8.7809
G01 X30.2265 Y8.5927
G01 X31.9290 Y8.5903
G01 X31.9290 Y8.6139
G01 X31.9588 Y8.8021
G01 X32.0177 Y8.9833
G01 X32.1042 Y9.1530
G01 X32.2162 Y9.3072
G01 X32.3509 Y9.4419
G01 X32.5050 Y9.5539
G01 X32.6748 Y9.6403
G01 X32.8560 Y9.6992
G01 X33.0442 Y9.7290
G01 X33.2347 Y9.7290
G01 X33.4228 Y9.6992
G01 X33.6040 Y9.6403
G01 X33.7692 Y9.5562
G01 X38.9083 Y14.7082
G01 X38.8873 Y14.7371
G01 X38.7981 Y14.9122
G01 X38.7374 Y15.0991
G01 X38.7066 Y15.2932
G01 X38.7066 Y15.4897
G01 X38.7374 Y15.6838
G01 X38.7981 Y15.8707
G01 X38.8873 Y16.0458
G01 X39.0028 Y16.2048
G01 X39.1418 Y16.3438
G01 X39.3008 Y16.4593
G01 X39.4759 Y16.5485
G01 X39.6628 Y16.6092
G01 X39.8569 Y16.6400
G01 X41.4504 Y16.6400
G01 X41.6445 Y16.6092
G01 X41.8314 Y16.5485
G01 X42.0065 Y16.4593
G01 X42.1655 Y16.3438
G01 X42.3044 Y16.2048
G01 X42.4199 Y16.0458
G01 X42.5092 Y15.8707
G01 X42.5699 Y15.6838
G01 X42.6006 Y15.4897
G01 X42.6006 Y15.2932
G01 X42.5699 Y15.0991
G01 X42.5092 Y14.9122
G01 X42.4199 Y14.7371
G01 X42.3044 Y14.5781
G01 X42.1655 Y14.4392
G01 X42.0065 Y14.3237
G01 X41.8314 Y14.2344
G01 X41.6445 Y14.1737
G01 X41.4504 Y14.1430
G01 X40.4721 Y14.1430
G01 X34.3498 Y8.0052
G01 X34.3498 Y7.1026
G01 X34.3200 Y6.9144
G01 X34.2611 Y6.7332
G01 X34.1746 Y6.5634
G01 X34.0626 Y6.4093
G01 X33.9279 Y6.2746
G01 X33.7738 Y6.1626
G01 X33.6040 Y6.0761
G01 X33.4228 Y6.0172
G01 X33.2347 Y5.9874
G01 X33.0442 Y5.9874
G01 X32.8560 Y6.0172
G01 X32.6748 Y6.0761
G01 X32.5050 Y6.1626
G01 X32.3509 Y6.2746
G01 X32.2162 Y6.4093
G01 X32.1042 Y6.5634
G01 X32.0177 Y6.7332
G01 X31.9588 Y6.9144
G01 X31.9320 Y7.0839
G01 X30.2265 Y7.0839
G01 X30.1967 Y6.8932
G01 X30.1378 Y6.7120
G01 X30.0513 Y6.5423
G01 X29.9393 Y6.3882
G01 X29.8046 Y6.2534
G01 X29.6505 Y6.1414
G01 X29.4807 Y6.0550
G01 X29.2995 Y5.9961
G01 X29.1114 Y5.9663
G01 X28.9208 Y5.9663
G01 X28.7327 Y5.9961
G01 X28.5515 Y6.0550
G01 X28.3817 Y6.1414
G01 X28.2276 Y6.2534
G01 X28.0929 Y6.3882
G01 X27.9809 Y6.5423
G01 X27.8944 Y6.7120
G01 X27.8355 Y6.8932
G01 X27.8057 Y7.0814
G01 X27.8057 Y7.8283
G01 X22.3210 Y12.1236
G01 X17.3700 Y12.0746
G01 X17.3327 Y12.0233
G01 X17.1980 Y11.8886
G01 X17.0438 Y11.7766
G01 X16.8741 Y11.6901
G01 X16.6929 Y11.6312
G01 X16.5047 Y11.6014
G01 X14.9934 Y11.6014
G01 X14.8052 Y11.6312
G01 X14.6240 Y11.6901
G01 X14.4543 Y11.7766
G01 X14.3001 Y11.8886
G01 X14.1654 Y12.0233
G00 Z3.0000
G00 X14.1654 Y14.5633
G01 Z-0.2000 F254
G01 X14.0534 Y14.7174 F609
G01 X13.9669 Y14.8872
G01 X13.9081 Y15.0684
G01 X13.8783 Y15.2565
G01 X13.8783 Y15.4471
G01 X13.9081 Y15.6352
G01 X13.9669 Y15.8164
G01 X14.0534 Y15.9862
G01 X14.1654 Y16.1403
G01 X14.3001 Y16.2750
G01 X14.4543 Y16.3870
G01 X14.6240 Y16.4735
G01 X14.8052 Y16.5324
G01 X14.9934 Y16.5622
G01 X16.5047 Y16.5622
G01 X16.6929 Y16.5324
G01 X16.8741 Y16.4735
G01 X17.0438 Y16.3870
G01 X17.1980 Y16.2750
G01 X17.3327 Y16.1403
G01 X17.4447 Y15.9862
G01 X17.5312 Y15.8164
G01 X17.5901 Y15.6352
G01 X17.6199 Y15.4471
G01 X17.6199 Y15.2565
G01 X17.5901 Y15.0684
G01 X17.5312 Y14.8872
G01 X17.4447 Y14.7174
G01 X17.3327 Y14.5633
G01 X17.1980 Y14.4285
G01 X17.0438 Y14.3166
G01 X16.8741 Y14.2301
G01 X16.6929 Y14.1712
G01 X16.5047 Y14.1414
G01 X14.9934 Y14.1414
G01 X14.8052 Y14.1712
G01 X14.6240 Y14.2301
G01 X14.4543 Y14.3166
G01 X14.3001 Y14.4285
G01 X14.1654 Y14.5633
G00 Z3.0000
G00 X39.1818 Y10.7313
G01 Z-0.2000 F254
G01 X39.3408 Y10.8468 F609
G01 X39.5159 Y10.9360
G01 X39.7028 Y10.9967
G01 X39.8969 Y11.0275
G01 X41.4904 Y11.0275
G01 X41.6845 Y10.9967
G01 X41.8714 Y10.9360
G01 X42.0465 Y10.8468
G01 X42.2055 Y10.7313
G01 X42.3444 Y10.5923
G01 X42.4599 Y10.4333
G01 X42.5492 Y10.2582
G01 X42.6099 Y10.0713
G01 X42.6406 Y9.8772
G01 X42.6406 Y9.6807
G01 X42.6099 Y9.4866
G01 X42.5492 Y9.2997
G01 X42.4599 Y9.1246
G01 X42.3444 Y8.9656
G01 X42.2055 Y8.8267
G01 X42.0465 Y8.7111
G01 X41.8714 Y8.6219
G01 X41.6845 Y8.5612
G01 X41.4904 Y8.5305
G01 X39.8969 Y8.5305
G01 X39.7028 Y8.5612
G01 X39.5159 Y8.6219
G01 X39.3408 Y8.7111
G01 X39.1818 Y8.8267
G01 X39.0428 Y8.9656
G01 X38.9273 Y9.1246
G01 X38.8381 Y9.2997
G01 X38.7774 Y9.4866
G01 X38.7466 Y9.6807
G01 X38.7466 Y9.8772
G01 X38.7774 Y10.0713
G01 X38.8381 Y10.2582
G01 X38.9273 Y10.4333
G01 X39.0428 Y10.5923
G01 X39.1818 Y10.7313
G00 Z3.0000
G00 X3.0554 Y27.7956
G01 Z-0.2000 F254
G01 X2.9347 Y27.9617 F609
G01 X2.8415 Y28.1445
G01 X2.7781 Y28.3397
G01 X2.7460 Y28.5425
G01 X2.7460 Y30.2557
G01 X2.7781 Y30.4585
G01 X2.8415 Y30.6537
G01 X2.9347 Y30.8365
G01 X3.0554 Y31.0026
G01 X3.2005 Y31.1477
G01 X3.3110 Y31.2280
G01 X3.3110 Y33.7535
G01 X3.3076 Y33.7796
G01 X3.3110 Y33.8276
G01 X3.3110 Y33.8755
G01 X3.3161 Y33.9013
G01 X3.3179 Y33.9276
G01 X3.3305 Y33.9740
G01 X3.3399 Y34.0211
G01 X3.3500 Y34.0455
G01 X3.3569 Y34.0707
G01 X3.3783 Y34.1137
G01 X3.3967 Y34.1581
G01 X3.4113 Y34.1800
G01 X3.4230 Y34.2035
G01 X3.4524 Y34.2415
G01 X3.4791 Y34.2815
G01 X3.4977 Y34.3002
G01 X3.5138 Y34.3209
G01 X3.5500 Y34.3524
G01 X3.5840 Y34.3864
G01 X3.6059 Y34.4010
G01 X10.0916 Y40.0442
G01 X10.1257 Y40.0782
G01 X10.1474 Y40.0927
G01 X10.1672 Y40.1098
G01 X10.2090 Y40.1338
G01 X10.2491 Y40.1606
G01 X10.2732 Y40.1705
G01 X10.2959 Y40.1835
G01 X10.3417 Y40.1988
G01 X10.3862 Y40.2173
G01 X10.4118 Y40.2223
G01 X10.4366 Y40.2308
G01 X10.4845 Y40.2368
G01 X10.5317 Y40.2462
G01 X10.5578 Y40.2462
G01 X10.5838 Y40.2494
G01 X10.6319 Y40.2462
G01 X14.1402 Y40.2447
G01 X14.1654 Y40.2794
G01 X14.3001 Y40.4141
G01 X14.4543 Y40.5262
G01 X14.6240 Y40.6127
G01 X14.8052 Y40.6715
G01 X14.9934 Y40.7013
G01 X16.5047 Y40.7013
G01 X16.6929 Y40.6715
G01 X16.8741 Y40.6127
G01 X17.0438 Y40.5262
G01 X17.1980 Y40.4141
G01 X17.3327 Y40.2794
G01 X17.3584 Y40.2441
G01 X27.8057 Y40.2441
G01 X27.8057 Y40.3518
G01 X27.8355 Y40.5400
G01 X27.8944 Y40.7212
G01 X27.9809 Y40.8910
G01 X28.0929 Y41.0451
G01 X28.2276 Y41.1799
G01 X28.3817 Y41.2918
G01 X28.5515 Y41.3783
G01 X28.7327 Y41.4372
G01 X28.9208 Y41.4671
G01 X29.1114 Y41.4671
G01 X29.2995 Y41.4372
G01 X29.4807 Y41.3783
G01 X29.6505 Y41.2918
G01 X29.8046 Y41.1799
G01 X29.9393 Y41.0451
G01 X30.0513 Y40.8910
G01 X30.1378 Y40.7212
G01 X30.1967 Y40.5400
G01 X30.2265 Y40.3518
G01 X31.9290 Y40.3494
G01 X31.9290 Y40.3730
G01 X31.9588 Y40.5613
G01 X32.0177 Y40.7424
G01 X32.1042 Y40.9121
G01 X32.2162 Y41.0663
G01 X32.3509 Y41.2010
G01 X32.5050 Y41.3130
G01 X32.6748 Y41.3995
G01 X32.8560 Y41.4583
G01 X33.0442 Y41.4881
G01 X33.2347 Y41.4881
G01 X33.4228 Y41.4583
G01 X33.6040 Y41.3995
G01 X33.7738 Y41.3130
G01 X33.9279 Y41.2010
G01 X34.0626 Y41.0663
G01 X34.1746 Y40.9121
G01 X34.2611 Y40.7424
G01 X34.3200 Y40.5613
G01 X34.3498 Y40.3730
G01 X40.1314 Y40.3705
G01 X40.1948 Y40.4950
G01 X40.3103 Y40.6539
G01 X40.4493 Y40.7929
G01 X40.6083 Y40.9085
G01 X40.7834 Y40.9976
G01 X40.9703 Y41.0583
G01 X41.1644 Y41.0891
G01 X42.7579 Y41.0891
G01 X42.9520 Y41.0583
G01 X43.1389 Y40.9976
G01 X43.3140 Y40.9085
G01 X43.4730 Y40.7929
G01 X43.6119 Y40.6539
G01 X43.7274 Y40.4950
G01 X43.8167 Y40.3199
G01 X43.8774 Y40.1329
G01 X43.9081 Y39.9389
G01 X43.9081 Y39.7424
G01 X43.8774 Y39.5482
G01 X43.8167 Y39.3614
G01 X43.7274 Y39.1863
G01 X43.6119 Y39.0272
G01 X43.4730 Y38.8884
G01 X43.3140 Y38.7728
G01 X43.1389 Y38.6835
G01 X42.9520 Y38.6228
G01 X42.7579 Y38.5921
G01 X41.1644 Y38.5921
G01 X40.9703 Y38.6228
G01 X40.7834 Y38.6835
G01 X40.6083 Y38.7728
G01 X40.4825 Y38.8641
G01 X34.3498 Y38.8641
G01 X34.3200 Y38.6735
G01 X34.2611 Y38.4924
G01 X34.1746 Y38.3225
G01 X34.0626 Y38.1684
G01 X33.9279 Y38.0337
G01 X33.7738 Y37.9218
G01 X33.6040 Y37.8353
G01 X33.4228 Y37.7763
G01 X33.2347 Y37.7465
G01 X33.0442 Y37.7465
G01 X32.8560 Y37.7763
G01 X32.6748 Y37.8353
G01 X32.5050 Y37.9218
G01 X32.3509 Y38.0337
G01 X32.2162 Y38.1684
G01 X32.1042 Y38.3225
G01 X32.0177 Y38.4924
G01 X31.9588 Y38.6735
G01 X31.9320 Y38.8430
G01 X30.2265 Y38.8430
G01 X30.1967 Y38.6523
G01 X30.1378 Y38.4711
G01 X30.0513 Y38.3015
G01 X29.9393 Y38.1472
G01 X29.8046 Y38.0125
G01 X29.6505 Y37.9005
G01 X29.4807 Y37.8141
G01 X29.2995 Y37.7552
G01 X29.1114 Y37.7254
G01 X28.9208 Y37.7254
G01 X28.7327 Y37.7552
G01 X28.5515 Y37.8141
G01 X28.3817 Y37.9005
G01 X28.2276 Y38.0125
G01 X28.0929 Y38.1472
G01 X27.9809 Y38.3015
G01 X27.8944 Y38.4711
G01 X27.8355 Y38.6523
G01 X27.8220 Y38.7377
G01 X17.3584 Y38.7377
G01 X17.3327 Y38.7024
G01 X17.1980 Y38.5677
G01 X17.0438 Y38.4557
G01 X16.8741 Y38.3692
G01 X16.6929 Y38.3103
G01 X16.5047 Y38.2805
G01 X14.9934 Y38.2805
G01 X14.8052 Y38.3103
G01 X14.6240 Y38.3692
G01 X14.4543 Y38.4557
G01 X14.3001 Y38.5677
G01 X14.1654 Y38.7024
G01 X14.1393 Y38.7383
G01 X10.8873 Y38.7396
G01 X4.8174 Y33.4583
G01 X4.8174 Y31.2074
G01 X4.8995 Y31.1477
G01 X5.0446 Y31.0026
G01 X5.1653 Y30.8365
G01 X5.2585 Y30.6537
G01 X5.3219 Y30.4585
G01 X5.3540 Y30.2557
G01 X5.3540 Y28.5425
G01 X5.3219 Y28.3397
G01 X5.2585 Y28.1445
G01 X5.1653 Y27.9617
G01 X5.0446 Y27.7956
G01 X4.8995 Y27.6505
G01 X4.7334 Y27.5298
G01 X4.5506 Y27.4367
G01 X4.3554 Y27.3732
G01 X4.1526 Y27.3411
G01 X3.9474 Y27.3411
G01 X3.7446 Y27.3732
G01 X3.5494 Y27.4367
G01 X3.3666 Y27.5298
G01 X3.2005 Y27.6505
G01 X3.0554 Y27.7956
G00 Z3.0000
G00 X6.5554 Y27.7956
G01 Z-0.2000 F254
G01 X6.4347 Y27.9617 F609
G01 X6.3415 Y28.1445
G01 X6.2781 Y28.3397
G01 X6.2460 Y28.5425
G01 X6.2460 Y30.2557
G01 X6.2781 Y30.4585
G01 X6.3415 Y30.6537
G01 X6.4347 Y30.8365
G01 X6.5554 Y31.0026
G01 X6.7005 Y31.1477
G01 X6.8444 Y31.2523
G01 X6.8444 Y33.0791
G01 X6.8408 Y33.1118
G01 X6.8444 Y33.1531
G01 X6.8444 Y33.1947
G01 X6.8508 Y33.2268
G01 X6.8536 Y33.2595
G01 X6.8652 Y33.2995
G01 X6.8733 Y33.3402
G01 X6.8859 Y33.3705
G01 X6.8950 Y33.4020
G01 X6.9142 Y33.4389
G01 X6.9301 Y33.4774
G01 X6.9483 Y33.5045
G01 X6.9634 Y33.5336
G01 X6.9894 Y33.5662
G01 X7.0125 Y33.6007
G01 X7.0357 Y33.6238
G01 X7.0562 Y33.6495
G01 X7.0880 Y33.6762
G01 X7.1174 Y33.7056
G01 X7.1447 Y33.7238
G01 X10.6284 Y36.6514
G01 X10.6284 Y37.4404
G01 X10.6582 Y37.6285
G01 X10.7171 Y37.8097
G01 X10.8036 Y37.9796
G01 X10.9155 Y38.1337
G01 X11.0503 Y38.2683
G01 X11.2044 Y38.3803
G01 X11.3742 Y38.4668
G01 X11.5554 Y38.5258
G01 X11.7435 Y38.5555
G01 X11.9340 Y38.5555
G01 X12.1222 Y38.5258
G01 X12.3034 Y38.4668
G01 X12.4732 Y38.3803
G01 X12.6273 Y38.2683
G01 X12.7620 Y38.1337
G01 X12.8740 Y37.9796
G01 X12.9605 Y37.8097
G01 X13.0194 Y37.6285
G01 X13.0492 Y37.4404
G01 X13.0492 Y35.9290
G01 X13.0194 Y35.7409
G01 X12.9605 Y35.5597
G01 X12.8740 Y35.3899
G01 X12.7620 Y35.2358
G01 X12.6273 Y35.1011
G01 X12.4732 Y34.9891
G01 X12.3034 Y34.9026
G01 X12.1222 Y34.8438
G01 X11.9340 Y34.8139
G01 X11.7435 Y34.8139
G01 X11.5554 Y34.8438
G01 X11.3742 Y34.9026
G01 X11.2044 Y34.9891
G01 X11.0904 Y35.0720
G01 X8.3508 Y32.7696
G01 X8.3508 Y31.1831
G01 X8.3995 Y31.1477
G01 X8.5446 Y31.0026
G01 X8.6653 Y30.8365
G01 X8.7585 Y30.6537
G01 X8.8219 Y30.4585
G01 X8.8540 Y30.2557
G01 X8.8540 Y28.5425
G01 X8.8219 Y28.3397
G01 X8.7585 Y28.1445
G01 X8.6653 Y27.9617
G01 X8.5446 Y27.7956
G01 X8.3995 Y27.6505
G01 X8.2334 Y27.5298
G01 X8.0506 Y27.4367
G01 X7.8554 Y27.3732
G01 X7.6526 Y27.3411
G01 X7.4474 Y27.3411
G01 X7.2446 Y27.3732
G01 X7.0494 Y27.4367
G01 X6.8666 Y27.5298
G01 X6.7005 Y27.6505
G01 X6.5554 Y27.7956
G00 Z3.0000
G00 X10.8036 Y27.8195
G01 Z-0.2000 F254
G01 X10.9155 Y27.9736 F609
G01 X11.0503 Y28.1083
G01 X11.2044 Y28.2203
G01 X11.3742 Y28.3068
G01 X11.5554 Y28.3657
G01 X11.7435 Y28.3956
G01 X11.9340 Y28.3956
G01 X12.1222 Y28.3657
G01 X12.3034 Y28.3068
G01 X12.4732 Y28.2203
G01 X12.6273 Y28.1083
G01 X12.6801 Y28.0555
G01 X13.9372 Y28.9577
G01 X13.9081 Y29.0475
G01 X13.8783 Y29.2356
G01 X13.8783 Y29.4261
G01 X13.9081 Y29.6143
G01 X13.9669 Y29.7955
G01 X14.0534 Y29.9653
G01 X14.1654 Y30.1195
G01 X14.3001 Y30.2541
G01 X14.4543 Y30.3661
G01 X14.6240 Y30.4526
G01 X14.8052 Y30.5115
G01 X14.9934 Y30.5413
G01 X16.5047 Y30.5413
G01 X16.6929 Y30.5115
G01 X16.8741 Y30.4526
G01 X17.0438 Y30.3661
G01 X17.1980 Y30.2541
G01 X17.3327 Y30.1195
G01 X17.4447 Y29.9653
G01 X17.5312 Y29.7955
G01 X17.5901 Y29.6143
G01 X17.6199 Y29.4261
G01 X17.6199 Y29.2356
G01 X17.5901 Y29.0475
G01 X17.5312 Y28.8663
G01 X17.4447 Y28.6965
G01 X17.3327 Y28.5424
G01 X17.1980 Y28.4078
G01 X17.0438 Y28.2957
G01 X16.8741 Y28.2092
G01 X16.6929 Y28.1503
G01 X16.5047 Y28.1205
G01 X15.3543 Y28.1205
G01 X13.0492 Y26.4663
G01 X13.0492 Y25.7691
G01 X13.0194 Y25.5809
G01 X12.9605 Y25.3997
G01 X12.8740 Y25.2299
G01 X12.7620 Y25.0758
G01 X12.6273 Y24.9411
G01 X12.4732 Y24.8291
G01 X12.3034 Y24.7426
G01 X12.1222 Y24.6837
G01 X11.9340 Y24.6539
G01 X11.7435 Y24.6539
G01 X11.5554 Y24.6837
G01 X11.3742 Y24.7426
G01 X11.2044 Y24.8291
G01 X11.0503 Y24.9411
G01 X10.9155 Y25.0758
G01 X10.8036 Y25.2299
G01 X10.7171 Y25.3997
G01 X10.6582 Y25.5809
G01 X10.6284 Y25.7691
G01 X10.6284 Y27.2804
G01 X10.6582 Y27.4685
G01 X10.7171 Y27.6497
G01 X10.8036 Y27.8195
G00 Z3.0000
G00 X14.1654 Y31.0824
G01 Z-0.2000 F254
G01 X14.0534 Y31.2365 F609
G01 X13.9669 Y31.4063
G01 X13.9081 Y31.5876
G01 X13.8783 Y31.7756
G01 X13.8783 Y31.9662
G01 X13.9081 Y32.1543
G01 X13.9669 Y32.3355
G01 X14.0534 Y32.5053
G01 X14.1654 Y32.6594
G01 X14.3001 Y32.7942
G01 X14.4543 Y32.9061
G01 X14.6240 Y32.9926
G01 X14.8052 Y33.0515
G01 X14.9934 Y33.0814
G01 X16.5047 Y33.0814
G01 X16.6929 Y33.0515
G01 X16.8741 Y32.9926
G01 X17.0438 Y32.9061
G01 X17.1980 Y32.7942
G01 X17.3327 Y32.6594
G01 X17.4447 Y32.5053
G01 X17.5312 Y32.3355
G01 X17.5901 Y32.1543
G01 X17.6199 Y31.9662
G01 X17.6199 Y31.7756
G01 X17.5901 Y31.5876
G01 X17.5312 Y31.4063
G01 X17.4447 Y31.2365
G01 X17.3327 Y31.0824
G01 X17.1980 Y30.9476
G01 X17.0438 Y30.8357
G01 X16.8741 Y30.7492
G01 X16.6929 Y30.6903
G01 X16.5047 Y30.6606
G01 X14.9934 Y30.6606
G01 X14.8052 Y30.6903
G01 X14.6240 Y30.7492
G01 X14.4543 Y30.8357
G01 X14.3001 Y30.9476
G01 X14.1654 Y31.0824
G00 Z3.0000
G00 X14.1654 Y33.6225
G01 Z-0.2000 F254
G01 X14.0534 Y33.7766 F609
G01 X13.9669 Y33.9463
G01 X13.9081 Y34.1275
G01 X13.8783 Y34.3156
G01 X13.8783 Y34.5061
G01 X13.9081 Y34.6944
G01 X13.9669 Y34.8755
G01 X14.0534 Y35.0453
G01 X14.1654 Y35.1994
G01 X14.3001 Y35.3341
G01 X14.4543 Y35.4461
G01 X14.6240 Y35.5326
G01 X14.8052 Y35.5915
G01 X14.9934 Y35.6213
G01 X16.5047 Y35.6213
G01 X16.6929 Y35.5915
G01 X16.8741 Y35.5326
G01 X17.0438 Y35.4461
G01 X17.1980 Y35.3341
G01 X17.3327 Y35.1994
G01 X17.3468 Y35.1799
G01 X22.5282 Y35.2312
G01 X22.5603 Y35.2351
G01 X22.6022 Y35.2319
G01 X22.6443 Y35.2323
G01 X22.6760 Y35.2263
G01 X22.7082 Y35.2240
G01 X22.7487 Y35.2126
G01 X22.7901 Y35.2049
G01 X22.8201 Y35.1928
G01 X22.8512 Y35.1842
G01 X22.8887 Y35.1651
G01 X22.9277 Y35.1495
G01 X22.9547 Y35.1317
G01 X22.9836 Y35.1172
G01 X23.0167 Y35.0913
G01 X23.0519 Y35.0682
G01 X23.0749 Y35.0456
G01 X28.2223 Y31.0145
G01 X28.2276 Y31.0198
G01 X28.3817 Y31.1319
G01 X28.5515 Y31.2183
G01 X28.7327 Y31.2772
G01 X28.9208 Y31.3070
G01 X29.1114 Y31.3070
G01 X29.2995 Y31.2772
G01 X29.4807 Y31.2183
G01 X29.6505 Y31.1319
G01 X29.8046 Y31.0198
G01 X29.9393 Y30.8851
G01 X30.0513 Y30.7310
G01 X30.1378 Y30.5612
G01 X30.1967 Y30.3800
G01 X30.2265 Y30.1918
G01 X31.9290 Y30.1894
G01 X31.9290 Y30.2130
G01 X31.9588 Y30.4012
G01 X32.0177 Y30.5824
G01 X32.1042 Y30.7522
G01 X32.2162 Y30.9063
G01 X32.3509 Y31.0410
G01 X32.5050 Y31.1531
G01 X32.6748 Y31.2394
G01 X32.8560 Y31.2983
G01 X33.0442 Y31.3281
G01 X33.2347 Y31.3281
G01 X33.4228 Y31.2983
G01 X33.6040 Y31.2394
G01 X33.7692 Y31.1553
G01 X38.9083 Y36.3073
G01 X38.8873 Y36.3362
G01 X38.7981 Y36.5114
G01 X38.7374 Y36.6983
G01 X38.7066 Y36.8924
G01 X38.7066 Y37.0888
G01 X38.7374 Y37.2829
G01 X38.7981 Y37.4698
G01 X38.8873 Y37.6449
G01 X39.0028 Y37.8040
G01 X39.1418 Y37.9429
G01 X39.3008 Y38.0584
G01 X39.4759 Y38.1476
G01 X39.6628 Y38.2083
G01 X39.8569 Y38.2391
G01 X41.4504 Y38.2391
G01 X41.6445 Y38.2083
G01 X41.8314 Y38.1476
G01 X42.0065 Y38.0584
G01 X42.1655 Y37.9429
G01 X42.3044 Y37.8040
G01 X42.4199 Y37.6449
G01 X42.5092 Y37.4698
G01 X42.5699 Y37.2829
G01 X42.6006 Y37.0888
G01 X42.6006 Y36.8924
G01 X42.5699 Y36.6983
G01 X42.5092 Y36.5114
G01 X42.4199 Y36.3362
G01 X42.3044 Y36.1773
G01 X42.1655 Y36.0383
G01 X42.0065 Y35.9228
G01 X41.8314 Y35.8336
G01 X41.6445 Y35.7728
G01 X41.4504 Y35.7421
G01 X40.4721 Y35.7421
G01 X34.3498 Y29.6043
G01 X34.3498 Y28.7017
G01 X34.3200 Y28.5135
G01 X34.2611 Y28.3323
G01 X34.1746 Y28.1625
G01 X34.0626 Y28.0084
G01 X33.9279 Y27.8737
G01 X33.7738 Y27.7617
G01 X33.6040 Y27.6752
G01 X33.4228 Y27.6163
G01 X33.2347 Y27.5865
G01 X33.0442 Y27.5865
G01 X32.8560 Y27.6163
G01 X32.6748 Y27.6752
G01 X32.5050 Y27.7617
G01 X32.3509 Y27.8737
G01 X32.2162 Y28.0084
G01 X32.1042 Y28.1625
G01 X32.0177 Y28.3323
G01 X31.9588 Y28.5135
G01 X31.9320 Y28.6830
G01 X30.2265 Y28.6830
G01 X30.1967 Y28.4923
G01 X30.1378 Y28.3111
G01 X30.0513 Y28.1414
G01 X29.9393 Y27.9873
G01 X29.8046 Y27.8525
G01 X29.6505 Y27.7405
G01 X29.4807 Y27.6541
G01 X29.2995 Y27.5953
G01 X29.1114 Y27.5654
G01 X28.9208 Y27.5654
G01 X28.7327 Y27.5953
G01 X28.5515 Y27.6541
G01 X28.3817 Y27.7405
G01 X28.2276 Y27.8525
G01 X28.0929 Y27.9873
G01 X27.9809 Y28.1414
G01 X27.8944 Y28.3111
G01 X27.8355 Y28.4923
G01 X27.8057 Y28.6805
G01 X27.8057 Y29.4274
G01 X22.3210 Y33.7227
G01 X17.3700 Y33.6737
G01 X17.3327 Y33.6225
G01 X17.1980 Y33.4877
G01 X17.0438 Y33.3757
G01 X16.8741 Y33.2892
G01 X16.6929 Y33.2304
G01 X16.5047 Y33.2005
G01 X14.9934 Y33.2005
G01 X14.8052 Y33.2304
G01 X14.6240 Y33.2892
G01 X14.4543 Y33.3757
G01 X14.3001 Y33.4877
G01 X14.1654 Y33.6225
G00 Z3.0000
G00 X14.1654 Y36.1624
G01 Z-0.2000 F254
G01 X14.0534 Y36.3165 F609
G01 X13.9669 Y36.4864
G01 X13.9081 Y36.6675
G01 X13.8783 Y36.8556
G01 X13.8783 Y37.0463
G01 X13.9081 Y37.2343
G01 X13.9669 Y37.4155
G01 X14.0534 Y37.5853
G01 X14.1654 Y37.7394
G01 X14.3001 Y37.8742
G01 X14.4543 Y37.9861
G01 X14.6240 Y38.0726
G01 X14.8052 Y38.1315
G01 X14.9934 Y38.1613
G01 X16.5047 Y38.1613
G01 X16.6929 Y38.1315
G01 X16.8741 Y38.0726
G01 X17.0438 Y37.9861
G01 X17.1980 Y37.8742
G01 X17.3327 Y37.7394
G01 X17.4447 Y37.5853
G01 X17.5312 Y37.4155
G01 X17.5901 Y37.2343
G01 X17.6199 Y37.0463
G01 X17.6199 Y36.8556
G01 X17.5901 Y36.6675
G01 X17.5312 Y36.4864
G01 X17.4447 Y36.3165
G01 X17.3327 Y36.1624
G01 X17.1980 Y36.0276
G01 X17.0438 Y35.9157
G01 X16.8741 Y35.8293
G01 X16.6929 Y35.7704
G01 X16.5047 Y35.7405
G01 X14.9934 Y35.7405
G01 X14.8052 Y35.7704
G01 X14.6240 Y35.8293
G01 X14.4543 Y35.9157
G01 X14.3001 Y36.0276
G01 X14.1654 Y36.1624
G00 Z3.0000
G00 X39.1818 Y32.3304
G01 Z-0.2000 F254
G01 X39.3408 Y32.4459 F609
G01 X39.5159 Y32.5352
G01 X39.7028 Y32.5958
G01 X39.8969 Y32.6266
G01 X41.4904 Y32.6266
G01 X41.6845 Y32.5958
G01 X41.8714 Y32.5352
G01 X42.0465 Y32.4459
G01 X42.2055 Y32.3304
G01 X42.3444 Y32.1914
G01 X42.4599 Y32.0324
G01 X42.5492 Y31.8573
G01 X42.6099 Y31.6704
G01 X42.6406 Y31.4763
G01 X42.6406 Y31.2798
G01 X42.6099 Y31.0857
G01 X42.5492 Y30.8988
G01 X42.4599 Y30.7237
G01 X42.3444 Y30.5647
G01 X42.2055 Y30.4258
G01 X42.0465 Y30.3102
G01 X41.8714 Y30.2210
G01 X41.6845 Y30.1603
G01 X41.4904 Y30.1296
G01 X39.8969 Y30.1296
G01 X39.7028 Y30.1603
G01 X39.5159 Y30.2210
G01 X39.3408 Y30.3102
G01 X39.1818 Y30.4258
G01 X39.0428 Y30.5647
G01 X38.9273 Y30.7237
G01 X38.8381 Y30.8988
G01 X38.7774 Y31.0857
G01 X38.7466 Y31.2798
G01 X38.7466 Y31.4763
G01 X38.7774 Y31.6704
G01 X38.8381 Y31.8573
G01 X38.9273 Y32.0324
G01 X39.0428 Y32.1914
G01 X39.1818 Y32.3304
G00 Z3.0000
G00 X3.0554 Y49.3948
G01 Z-0.2000 F254
G01 X2.9347 Y49.5609 F609
G01 X2.8415 Y49.7437
G01 X2.7781 Y49.9389
G01 X2.7460 Y50.1417
G01 X2.7460 Y51.8549
G01 X2.7781 Y52.0577
G01 X2.8415 Y52.2529
G01 X2.9347 Y52.4357
G01 X3.0554 Y52.6018
G01 X3.2005 Y52.7469
G01 X3.3110 Y52.8272
G01 X3.3110 Y55.3527
G01 X3.3076 Y55.3788
G01 X3.3110 Y55.4267
G01 X3.3110 Y55.4747
G01 X3.3161 Y55.5005
G01 X3.3179 Y55.5268
G01 X3.3305 Y55.5731
G01 X3.3399 Y55.6203
G01 X3.3500 Y55.6446
G01 X3.3569 Y55.6699
G01 X3.3783 Y55.7129
G01 X3.3967 Y55.7573
G01 X3.4113 Y55.7792
G01 X3.4230 Y55.8027
G01 X3.4524 Y55.8407
G01 X3.4791 Y55.8807
G01 X3.4977 Y55.8993
G01 X3.5138 Y55.9201
G01 X3.5500 Y55.9516
G01 X3.5840 Y55.9856
G01 X3.6059 Y56.0002
G01 X10.0916 Y61.6433
G01 X10.1257 Y61.6774
G01 X10.1474 Y61.6919
G01 X10.1672 Y61.7090
G01 X10.2090 Y61.7330
G01 X10.2491 Y61.7597
G01 X10.2732 Y61.7697
G01 X10.2959 Y61.7827
G01 X10.3417 Y61.7980
G01 X10.3862 Y61.8165
G01 X10.4118 Y61.8215
G01 X10.4366 Y61.8299
G01 X10.4845 Y61.8360
G01 X10.5317 Y61.8453
G01 X10.5578 Y61.8453
G01 X10.5838 Y61.8486
G01 X10.6319 Y61.8453
G01 X14.1402 Y61.8439
G01 X14.1654 Y61.8786
G01 X14.3001 Y62.0133
G01 X14.4543 Y62.1253
G01 X14.6240 Y62.2118
G01 X14.8052 Y62.2707
G01 X14.9934 Y62.3005
G01 X16.5047 Y62.3005
G01 X16.6929 Y62.2707
G01 X16.8741 Y62.2118
G01 X17.0438 Y62.1253
G01 X17.1980 Y62.0133
G01 X17.3327 Y61.8786
G01 X17.3584 Y61.8433
G01 X27.8057 Y61.8433
G01 X27.8057 Y61.9510
G01 X27.8355 Y62.1392
G01 X27.8944 Y62.3204
G01 X27.9809 Y62.4902
G01 X28.0929 Y62.6443
G01 X28.2276 Y62.7790
G01 X28.3817 Y62.8910
G01 X28.5515 Y62.9775
G01 X28.7327 Y63.0364
G01 X28.9208 Y63.0662
G01 X29.1114 Y63.0662
G01 X29.2995 Y63.0364
G01 X29.4807 Y62.9775
G01 X29.6505 Y62.8910
G01 X29.8046 Y62.7790
G01 X29.9393 Y62.6443
G01 X30.0513 Y62.4902
G01 X30.1378 Y62.3204
G01 X30.1967 Y62.1392
G01 X30.2265 Y61.9510
G01 X31.9290 Y61.9486
G01 X31.9290 Y61.9722
G01 X31.9588 Y62.1604
G01 X32.0177 Y62.3416
G01 X32.1042 Y62.5113
G01 X32.2162 Y62.6655
G01 X32.3509 Y62.8002
G01 X32.5050 Y62.9122
G01 X32.6748 Y62.9987
G01 X32.8560 Y63.0575
G01 X33.0442 Y63.0873
G01 X33.2347 Y63.0873
G01 X33.4228 Y63.0575
G01 X33.6040 Y62.9987
G01 X33.7738 Y62.9122
G01 X33.9279 Y62.8002
G01 X34.0626 Y62.6655
G01 X34.1746 Y62.5113
G01 X34.2611 Y62.3416
G01 X34.3200 Y62.1604
G01 X34.3498 Y61.9722
G01 X40.1314 Y61.9697
G01 X40.1948 Y62.0941
G01 X40.3103 Y62.2531
G01 X40.4493 Y62.3921
G01 X40.6083 Y62.5076
G01 X40.7834 Y62.5968
G01 X40.9703 Y62.6575
G01 X41.1644 Y62.6883
G01 X42.7579 Y62.6883
G01 X42.9520 Y62.6575
G01 X43.1389 Y62.5968
G01 X43.3140 Y62.5076
G01 X43.4730 Y62.3921
G01 X43.6119 Y62.2531
G01 X43.7274 Y62.0941
G01 X43.8167 Y61.9190
G01 X43.8774 Y61.7321
G01 X43.9081 Y61.5380
G01 X43.9081 Y61.3415
G01 X43.8774 Y61.1474
G01 X43.8167 Y60.9605
G01 X43.7274 Y60.7854
G01 X43.6119 Y60.6264
G01 X43.4730 Y60.4875
G01 X43.3140 Y60.3719
G01 X43.1389 Y60.2827
G01 X42.9520 Y60.2220
G01 X42.7579 Y60.1913
G01 X41.1644 Y60.1913
G01 X40.9703 Y60.2220
G01 X40.7834 Y60.2827
G01 X40.6083 Y60.3719
G01 X40.4825 Y60.4633
G01 X34.3498 Y60.4633
G01 X34.3200 Y60.2727
G01 X34.2611 Y60.0915
G01 X34.1746 Y59.9217
G01 X34.0626 Y59.7676
G01 X33.9279 Y59.6329
G01 X33.7738 Y59.5209
G01 X33.6040 Y59.4344
G01 X33.4228 Y59.3755
G01 X33.2347 Y59.3457
G01 X33.0442 Y59.3457
G01 X32.8560 Y59.3755
G01 X32.6748 Y59.4344
G01 X32.5050 Y59.5209
G01 X32.3509 Y59.6329
G01 X32.2162 Y59.7676
G01 X32.1042 Y59.9217
G01 X32.0177 Y60.0915
G01 X31.9588 Y60.2727
G01 X31.9320 Y60.4422
G01 X30.2265 Y60.4422
G01 X30.1967 Y60.2515
G01 X30.1378 Y60.0703
G01 X30.0513 Y59.9006
G01 X29.9393 Y59.7464
G01 X29.8046 Y59.6117
G01 X29.6505 Y59.4997
G01 X29.4807 Y59.4133
G01 X29.2995 Y59.3544
G01 X29.1114 Y59.3246
G01 X28.9208 Y59.3246
G01 X28.7327 Y59.3544
G01 X28.5515 Y59.4133
G01 X28.3817 Y59.4997
G01 X28.2276 Y59.6117
G01 X28.0929 Y59.7464
G01 X27.9809 Y59.9006
G01 X27.8944 Y60.0703
G01 X27.8355 Y60.2515
G01 X27.8220 Y60.3369
G01 X17.3584 Y60.3369
G01 X17.3327 Y60.3016
G01 X17.1980 Y60.1669
G01 X17.0438 Y60.0549
G01 X16.8741 Y59.9684
G01 X16.6929 Y59.9095
G01 X16.5047 Y59.8797
G01 X14.9934 Y59.8797
G01 X14.8052 Y59.9095
G01 X14.6240 Y59.9684
G01 X14.4543 Y60.0549
G01 X14.3001 Y60.1669
G01 X14.1654 Y60.3016
G01 X14.1393 Y60.3375
G01 X10.8873 Y60.3388
G01 X4.8174 Y55.0575
G01 X4.8174 Y52.8066
G01 X4.8995 Y52.7469
G01 X5.0446 Y52.6018
G01 X5.1653 Y52.4357
G01 X5.2585 Y52.2529
G01 X5.3219 Y52.0577
G01 X5.3540 Y51.8549
G01 X5.3540 Y50.1417
G01 X5.3219 Y49.9389
G01 X5.2585 Y49.7437
G01 X5.1653 Y49.5609
G01 X5.0446 Y49.3948
G01 X4.8995 Y49.2497
G01 X4.7334 Y49.1290
G01 X4.5506 Y49.0358
G01 X4.3554 Y48.9724
G01 X4.1526 Y48.9403
G01 X3.9474 Y48.9403
G01 X3.7446 Y48.9724
G01 X3.5494 Y49.0358
G01 X3.3666 Y49.1290
G01 X3.2005 Y49.2497
G01 X3.0554 Y49.3948
G00 Z3.0000
G00 X6.5554 Y49.3948
G01 Z-0.2000 F254
G01 X6.4347 Y49.5609 F609
G01 X6.3415 Y49.7437
G01 X6.2781 Y49.9389
G01 X6.2460 Y50.1417
G01 X6.2460 Y51.8549
G01 X6.2781 Y52.0577
G01 X6.3415 Y52.2529
G01 X6.4347 Y52.4357
G01 X6.5554 Y52.6018
G01 X6.7005 Y52.7469
G01 X6.8444 Y52.8515
G01 X6.8444 Y54.6783
G01 X6.8408 Y54.7109
G01 X6.8444 Y54.7523
G01 X6.8444 Y54.7939
G01 X6.8508 Y54.8260
G01 X6.8536 Y54.8587
G01 X6.8652 Y54.8986
G01 X6.8733 Y54.9394
G01 X6.8859 Y54.9697
G01 X6.8950 Y55.0012
G01 X6.9142 Y55.0381
G01 X6.9301 Y55.0765
G01 X6.9483 Y55.1037
G01 X6.9634 Y55.1328
G01 X6.9894 Y55.1653
G01 X7.0125 Y55.1998
G01 X7.0357 Y55.2230
G01 X7.0562 Y55.2486
G01 X7.0880 Y55.2754
G01 X7.1174 Y55.3048
G01 X7.1447 Y55.3230
G01 X10.6284 Y58.2506
G01 X10.6284 Y59.0396
G01 X10.6582 Y59.2277
G01 X10.7171 Y59.4089
G01 X10.8036 Y59.5787
G01 X10.9155 Y59.7328
G01 X11.0503 Y59.8675
G01 X11.2044 Y59.9795
G01 X11.3742 Y60.0660
G01 X11.5554 Y60.1249
G01 X11.7435 Y60.1547
G01 X11.9340 Y60.1547
G01 X12.1222 Y60.1249
G01 X12.3034 Y60.0660
G01 X12.4732 Y59.9795
G01 X12.6273 Y59.8675
G01 X12.7620 Y59.7328
G01 X12.8740 Y59.5787
G01 X12.9605 Y59.4089
G01 X13.0194 Y59.2277
G01 X13.0492 Y59.0396
G01 X13.0492 Y57.5282
G01 X13.0194 Y57.3401
G01 X12.9605 Y57.1589
G01 X12.8740 Y56.9891
G01 X12.7620 Y56.8350
G01 X12.6273 Y56.7003
G01 X12.4732 Y56.5883
G01 X12.3034 Y56.5018
G01 X12.1222 Y56.4429
G01 X11.9340 Y56.4131
G01 X11.7435 Y56.4131
G01 X11.5554 Y56.4429
G01 X11.3742 Y56.5018
G01 X11.2044 Y56.5883
G01 X11.0904 Y56.6711
G01 X8.3508 Y54.3688
G01 X8.3508 Y52.7823
G01 X8.3995 Y52.7469
G01 X8.5446 Y52.6018
G01 X8.6653 Y52.4357
G01 X8.7585 Y52.2529
G01 X8.8219 Y52.0577
G01 X8.8540 Y51.8549
G01 X8.8540 Y50.1417
G01 X8.8219 Y49.9389
G01 X8.7585 Y49.7437
G01 X8.6653 Y49.5609
G01 X8.5446 Y49.3948
G01 X8.3995 Y49.2497
G01 X8.2334 Y49.1290
G01 X8.0506 Y49.0358
G01 X7.8554 Y48.9724
G01 X7.6526 Y48.9403
G01 X7.4474 Y48.9403
G01 X7.2446 Y48.9724
G01 X7.0494 Y49.0358
G01 X6.8666 Y49.1290
G01 X6.7005 Y49.2497
G01 X6.5554 Y49.3948
G00 Z3.0000
G00 X10.8036 Y49.4187
G01 Z-0.2000 F254
G01 X10.9155 Y49.5728 F609
G01 X11.0503 Y49.7075
G01 X11.2044 Y49.8195
G01 X11.3742 Y49.9060
G01 X11.5554 Y49.9649
G01 X11.7435 Y49.9947
G01 X11.9340 Y49.9947
G01 X12.1222 Y49.9649
G01 X12.3034 Y49.9060
G01 X12.4732 Y49.8195
G01 X12.6273 Y49.7075
G01 X12.6801 Y49.6547
G01 X13.9372 Y50.5569
G01 X13.9081 Y50.6467
G01 X13.8783 Y50.8348
G01 X13.8783 Y51.0253
G01 X13.9081 Y51.2135
G01 X13.9669 Y51.3947
G01 X14.0534 Y51.5645
G01 X14.1654 Y51.7186
G01 X14.3001 Y51.8533
G01 X14.4543 Y51.9653
G01 X14.6240 Y52.0518
G01 X14.8052 Y52.1107
G01 X14.9934 Y52.1405
G01 X16.5047 Y52.1405
G01 X16.6929 Y52.1107
G01 X16.8741 Y52.0518
G01 X17.0438 Y51.9653
G01 X17.1980 Y51.8533
G01 X17.3327 Y51.7186
G01 X17.4447 Y51.5645
G01 X17.5312 Y51.3947
G01 X17.5901 Y51.2135
G01 X17.6199 Y51.0253
G01 X17.6199 Y50.8348
G01 X17.5901 Y50.6467
G01 X17.5312 Y50.4655
G01 X17.4447 Y50.2957
G01 X17.3327 Y50.1416
G01 X17.1980 Y50.0069
G01 X17.0438 Y49.8949
G01 X16.8741 Y49.8084
G01 X16.6929 Y49.7495
G01 X16.5047 Y49.7197
G01 X15.3543 Y49.7197
G01 X13.0492 Y48.0655
G01 X13.0492 Y47.3682
G01 X13.0194 Y47.1801
G01 X12.9605 Y46.9989
G01 X12.8740 Y46.8291
G01 X12.7620 Y46.6750
G01 X12.6273 Y46.5403
G01 X12.4732 Y46.4283
G01 X12.3034 Y46.3418
G01 X12.1222 Y46.2829
G01 X11.9340 Y46.2531
G01 X11.7435 Y46.2531
G01 X11.5554 Y46.2829
G01 X11.3742 Y46.3418
G01 X11.2044 Y46.4283
G01 X11.0503 Y46.5403
G01 X10.9155 Y46.6750
G01 X10.8036 Y46.8291
G01 X10.7171 Y46.9989
G01 X10.6582 Y47.1801
G01 X10.6284 Y47.3682
G01 X10.6284 Y48.8796
G01 X10.6582 Y49.0677
G01 X10.7171 Y49.2489
G01 X10.8036 Y49.4187
G00 Z3.0000
G00 X14.1654 Y52.6816
G01 Z-0.2000 F254
G01 X14.0534 Y52.8357 F609
G01 X13.9669 Y53.0055
G01 X13.9081 Y53.1867
G01 X13.8783 Y53.3748
G01 X13.8783 Y53.5654
G01 X13.9081 Y53.7535
G01 X13.9669 Y53.9347
G01 X14.0534 Y54.1045
G01 X14.1654 Y54.2586
G01 X14.3001 Y54.3933
G01 X14.4543 Y54.5053
G01 X14.6240 Y54.5918
G01 X14.8052 Y54.6507
G01 X14.9934 Y54.6805
G01 X16.5047 Y54.6805
G01 X16.6929 Y54.6507
G01 X16.8741 Y54.5918
G01 X17.0438 Y54.5053
G01 X17.1980 Y54.3933
G01 X17.3327 Y54.2586
G01 X17.4447 Y54.1045
G01 X17.5312 Y53.9347
G01 X17.5901 Y53.7535
G01 X17.6199 Y53.5654
G01 X17.6199 Y53.3748
G01 X17.5901 Y53.1867
G01 X17.5312 Y53.0055
G01 X17.4447 Y52.8357
G01 X17.3327 Y52.6816
G01 X17.1980 Y52.5468
G01 X17.0438 Y52.4349
G01 X16.8741 Y52.3484
G01 X16.6929 Y52.2895
G01 X16.5047 Y52.2597
G01 X14.9934 Y52.2597
G01 X14.8052 Y52.2895
G01 X14.6240 Y52.3484
G01 X14.4543 Y52.4349
G01 X14.3001 Y52.5468
G01 X14.1654 Y52.6816
G00 Z3.0000
G00 X14.1654 Y55.2216
G01 Z-0.2000 F254
G01 X14.0534 Y55.3757 F609
G01 X13.9669 Y55.5455
G01 X13.9081 Y55.7267
G01 X13.8783 Y55.9148
G01 X13.8783 Y56.1053
G01 X13.9081 Y56.2935
G01 X13.9669 Y56.4747
G01 X14.0534 Y56.6445
G01 X14.1654 Y56.7986
G01 X14.3001 Y56.9333
G01 X14.4543 Y57.0453
G01 X14.6240 Y57.1318
G01 X14.8052 Y57.1907
G01 X14.9934 Y57.2205
G01 X16.5047 Y57.2205
G01 X16.6929 Y57.1907
G01 X16.8741 Y57.1318
G01 X17.0438 Y57.0453
G01 X17.1980 Y56.9333
G01 X17.3327 Y56.7986
G01 X17.3468 Y56.7791
G01 X22.5282 Y56.8304
G01 X22.5603 Y56.8343
G01 X22.6022 Y56.8311
G01 X22.6443 Y56.8315
G01 X22.6760 Y56.8255
G01 X22.7082 Y56.8231
G01 X22.7487 Y56.8118
G01 X22.7901 Y56.8040
G01 X22.8201 Y56.7920
G01 X22.8512 Y56.7833
G01 X22.8887 Y56.7643
G01 X22.9277 Y56.7486
G01 X22.9547 Y56.7309
G01 X22.9836 Y56.7164
G01 X23.0167 Y56.6904
G01 X23.0519 Y56.6674
G01 X23.0749 Y56.6448
G01 X28.2223 Y52.6137
G01 X28.2276 Y52.6190
G01 X28.3817 Y52.7310
G01 X28.5515 Y52.8175
G01 X28.7327 Y52.8764
G01 X28.9208 Y52.9062
G01 X29.1114 Y52.9062
G01 X29.2995 Y52.8764
G01 X29.4807 Y52.8175
G01 X29.6505 Y52.7310
G01 X29.8046 Y52.6190
G01 X29.9393 Y52.4843
G01 X30.0513 Y52.3302
G01 X30.1378 Y52.1604
G01 X30.1967 Y51.9792
G01 X30.2265 Y51.7910
G01 X31.9290 Y51.7886
G01 X31.9290 Y51.8122
G01 X31.9588 Y52.0004
G01 X32.0177 Y52.1816
G01 X32.1042 Y52.3513
G01 X32.2162 Y52.5055
G01 X32.3509 Y52.6402
G01 X32.5050 Y52.7522
G01 X32.6748 Y52.8386
G01 X32.8560 Y52.8975
G01 X33.0442 Y52.9273
G01 X33.2347 Y52.9273
G01 X33.4228 Y52.8975
G01 X33.6040 Y52.8386
G01 X33.7692 Y52.7545
G01 X38.9083 Y57.9065
G01 X38.8873 Y57.9354
G01 X38.7981 Y58.1105
G01 X38.7374 Y58.2974
G01 X38.7066 Y58.4915
G01 X38.7066 Y58.6880
G01 X38.7374 Y58.8821
G01 X38.7981 Y59.0690
G01 X38.8873 Y59.2441
G01 X39.0028 Y59.4031
G01 X39.1418 Y59.5421
G01 X39.3008 Y59.6576
G01 X39.4759 Y59.7468
G01 X39.6628 Y59.8075
G01 X39.8569 Y59.8383
G01 X41.4504 Y59.8383
G01 X41.6445 Y59.8075
G01 X41.8314 Y59.7468
G01 X42.0065 Y59.6576
G01 X42.1655 Y59.5421
G01 X42.3044 Y59.4031
G01 X42.4199 Y59.2441
G01 X42.5092 Y59.0690
G01 X42.5699 Y58.8821
G01 X42.6006 Y58.6880
G01 X42.6006 Y58.4915
G01 X42.5699 Y58.2974
G01 X42.5092 Y58.1105
G01 X42.4199 Y57.9354
G01 X42.3044 Y57.7764
G01 X42.1655 Y57.6375
G01 X42.0065 Y57.5220
G01 X41.8314 Y57.4327
G01 X41.6445 Y57.3720
G01 X41.4504 Y57.3413
G01 X40.4721 Y57.3413
G01 X34.3498 Y51.2035
G01 X34.3498 Y50.3009
G01 X34.3200 Y50.1127
G01 X34.2611 Y49.9315
G01 X34.1746 Y49.7617
G01 X34.0626 Y49.6076
G01 X33.9279 Y49.4729
G01 X33.7738 Y49.3609
G01 X33.6040 Y49.2744
G01 X33.4228 Y49.2155
G01 X33.2347 Y49.1857
G01 X33.0442 Y49.1857
G01 X32.8560 Y49.2155
G01 X32.6748 Y49.2744
G01 X32.5050 Y49.3609
G01 X32.3509 Y49.4729
G01 X32.2162 Y49.6076
G01 X32.1042 Y49.7617
G01 X32.0177 Y49.9315
G01 X31.9588 Y50.1127
G01 X31.9320 Y50.2822
G01 X30.2265 Y50.2822
G01 X30.1967 Y50.0915
G01 X30.1378 Y49.9103
G01 X30.0513 Y49.7406
G01 X29.9393 Y49.5865
G01 X29.8046 Y49.4517
G01 X29.6505 Y49.3397
G01 X29.4807 Y49.2533
G01 X29.2995 Y49.1944
G01 X29.1114 Y49.1646
G01 X28.9208 Y49.1646
G01 X28.7327 Y49.1944
G01 X28.5515 Y49.2533
G01 X28.3817 Y49.3397
G01 X28.2276 Y49.4517
G01 X28.0929 Y49.5865
G01 X27.9809 Y49.7406
G01 X27.8944 Y49.9103
G01 X27.8355 Y50.0915
G01 X27.8057 Y50.2797
G01 X27.8057 Y51.0266
G01 X22.3210 Y55.3219
G01 X17.3700 Y55.2729
G01 X17.3327 Y55.2216
G01 X17.1980 Y55.0869
G01 X17.0438 Y54.9749
G01 X16.8741 Y54.8884
G01 X16.6929 Y54.8295
G01 X16.5047 Y54.7997
G01 X14.9934 Y54.7997
G01 X14.8052 Y54.8295
G01 X14.6240 Y54.8884
G01 X14.4543 Y54.9749
G01 X14.3001 Y55.0869
G01 X14.1654 Y55.2216
G00 Z3.0000
G00 X14.1654 Y57.7616
G01 Z-0.2000 F254
G01 X14.0534 Y57.9157 F609
G01 X13.9669 Y58.0855
G01 X13.9081 Y58.2667
G01 X13.8783 Y58.4548
G01 X13.8783 Y58.6454
G01 X13.9081 Y58.8335
G01 X13.9669 Y59.0147
G01 X14.0534 Y59.1845
G01 X14.1654 Y59.3386
G01 X14.3001 Y59.4733
G01 X14.4543 Y59.5853
G01 X14.6240 Y59.6718
G01 X14.8052 Y59.7307
G01 X14.9934 Y59.7605
G01 X16.5047 Y59.7605
G01 X16.6929 Y59.7307
G01 X16.8741 Y59.6718
G01 X17.0438 Y59.5853
G01 X17.1980 Y59.4733
G01 X17.3327 Y59.3386
G01 X17.4447 Y59.1845
G01 X17.5312 Y59.0147
G01 X17.5901 Y58.8335
G01 X17.6199 Y58.6454
G01 X17.6199 Y58.4548
G01 X17.5901 Y58.2667
G01 X17.5312 Y58.0855
G01 X17.4447 Y57.9157
G01 X17.3327 Y57.7616
G01 X17.1980 Y57.6268
G01 X17.0438 Y57.5149
G01 X16.8741 Y57.4284
G01 X16.6929 Y57.3695
G01 X16.5047 Y57.3397
G01 X14.9934 Y57.3397
G01 X14.8052 Y57.3695
G01 X14.6240 Y57.4284
G01 X14.4543 Y57.5149
G01 X14.3001 Y57.6268
G01 X14.1654 Y57.7616
G00 Z3.0000
G00 X39.1818 Y53.9296
G01 Z-0.2000 F254
G01 X39.3408 Y54.0451 F609
G01 X39.5159 Y54.1343
G01 X39.7028 Y54.1950
G01 X39.8969 Y54.2258
G01 X41.4904 Y54.2258
G01 X41.6845 Y54.1950
G01 X41.8714 Y54.1343
G01 X42.0465 Y54.0451
G01 X42.2055 Y53.9296
G01 X42.3444 Y53.7906
G01 X42.4599 Y53.6316
G01 X42.5492 Y53.4565
G01 X42.6099 Y53.2696
G01 X42.6406 Y53.0755
G01 X42.6406 Y52.8790
G01 X42.6099 Y52.6849
G01 X42.5492 Y52.4980
G01 X42.4599 Y52.3229
G01 X42.3444 Y52.1639
G01 X42.2055 Y52.0250
G01 X42.0465 Y51.9094
G01 X41.8714 Y51.8202
G01 X41.6845 Y51.7595
G01 X41.4904 Y51.7288
G01 X39.8969 Y51.7288
G01 X39.7028 Y51.7595
G01 X39.5159 Y51.8202
G01 X39.3408 Y51.9094
G01 X39.1818 Y52.0250
G01 X39.0428 Y52.1639
G01 X38.9273 Y52.3229
G01 X38.8381 Y52.4980
G01 X38.7774 Y52.6849
G01 X38.7466 Y52.8790
G01 X38.7466 Y53.0755
G01 X38.7774 Y53.2696
G01 X38.8381 Y53.4565
G01 X38.9273 Y53.6316
G01 X39.0428 Y53.7906
G01 X39.1818 Y53.9296
G00 Z3.0000
G00 X3.0554 Y70.9939
G01 Z-0.2000 F254
G01 X2.9347 Y71.1600 F609
G01 X2.8415 Y71.3428
G01 X2.7781 Y71.5380
G01 X2.7460 Y71.7408
G01 X2.7460 Y73.4540
G01 X2.7781 Y73.6568
G01 X2.8415 Y73.8520
G01 X2.9347 Y74.0348
G01 X3.0554 Y74.2009
G01 X3.2005 Y74.3460
G01 X3.3110 Y74.4263
G01 X3.3110 Y76.9518
G01 X3.3076 Y76.9779
G01 X3.3110 Y77.0258
G01 X3.3110 Y77.0738
G01 X3.3161 Y77.0996
G01 X3.3179 Y77.1260
G01 X3.3305 Y77.1722
G01 X3.3399 Y77.2194
G01 X3.3500 Y77.2438
G01 X3.3569 Y77.2690
G01 X3.3783 Y77.3120
G01 X3.3967 Y77.3564
G01 X3.4113 Y77.3783
G01 X3.4230 Y77.4018
G01 X3.4524 Y77.4398
G01 X3.4791 Y77.4798
G01 X3.4977 Y77.4984
G01 X3.5138 Y77.5192
G01 X3.5500 Y77.5507
G01 X3.5840 Y77.5847
G01 X3.6059 Y77.5994
G01 X10.0916 Y83.2424
G01 X10.1257 Y83.2766
G01 X10.1474 Y83.2910
G01 X10.1672 Y83.3081
G01 X10.2090 Y83.3321
G01 X10.2491 Y83.3588
G01 X10.2732 Y83.3688
G01 X10.2959 Y83.3819
G01 X10.3417 Y83.3971
G01 X10.3862 Y83.4156
G01 X10.4118 Y83.4206
G01 X10.4366 Y83.4290
G01 X10.4845 Y83.4351
G01 X10.5317 Y83.4444
G01 X10.5578 Y83.4444
G01 X10.5838 Y83.4477
G01 X10.6319 Y83.4444
G01 X14.1402 Y83.4430
G01 X14.1654 Y83.4778
G01 X14.3001 Y83.6124
G01 X14.4543 Y83.7244
G01 X14.6240 Y83.8109
G01 X14.8052 Y83.8698
G01 X14.9934 Y83.8996
G01 X16.5047 Y83.8996
G01 X16.6929 Y83.8698
G01 X16.8741 Y83.8109
G01 X17.0438 Y83.7244
G01 X17.1980 Y83.6124
G01 X17.3327 Y83.4778
G01 X17.3584 Y83.4424
G01 X27.8057 Y83.4424
G01 X27.8057 Y83.5502
G01 X27.8355 Y83.7383
G01 X27.8944 Y83.9196
G01 X27.9809 Y84.0893
G01 X28.0929 Y84.2434
G01 X28.2276 Y84.3782
G01 X28.3817 Y84.4901
G01 X28.5515 Y84.5767
G01 X28.7327 Y84.6355
G01 X28.9208 Y84.6653
G01 X29.1114 Y84.6653
G01 X29.2995 Y84.6355
G01 X29.4807 Y84.5767
G01 X29.6505 Y84.4901
G01 X29.8046 Y84.3782
G01 X29.9393 Y84.2434
G01 X30.0513 Y84.0893
G01 X30.1378 Y83.9196
G01 X30.1967 Y83.7383
G01 X30.2265 Y83.5502
G01 X31.9290 Y83.5477
G01 X31.9290 Y83.5713
G01 X31.9588 Y83.7595
G01 X32.0177 Y83.9407
G01 X32.1042 Y84.1105
G01 X32.2162 Y84.2646
G01 X32.3509 Y84.3993
G01 X32.5050 Y84.5113
G01 X32.6748 Y84.5978
G01 X32.8560 Y84.6566
G01 X33.0442 Y84.6864
G01 X33.2347 Y84.6864
G01 X33.4228 Y84.6566
G01 X33.6040 Y84.5978
G01 X33.7738 Y84.5113
G01 X33.9279 Y84.3993
G01 X34.0626 Y84.2646
G01 X34.1746 Y84.1105
G01 X34.2611 Y83.9407
G01 X34.3200 Y83.7595
G01 X34.3498 Y83.5713
G01 X40.1314 Y83.5688
G01 X40.1948 Y83.6933
G01 X40.3103 Y83.8522
G01 X40.4493 Y83.9912
G01 X40.6083 Y84.1068
G01 X40.7834 Y84.1959
G01 X40.9703 Y84.2566
G01 X41.1644 Y84.2874
G01 X42.7579 Y84.2874
G01 X42.9520 Y84.2566
G01 X43.1389 Y84.1959
G01 X43.3140 Y84.1068
G01 X43.4730 Y83.9912
G01 X43.6119 Y83.8522
G01 X43.7274 Y83.6933
G01 X43.8167 Y83.5181
G01 X43.8774 Y83.3312
G01 X43.9081 Y83.1371
G01 X43.9081 Y82.9407
G01 X43.8774 Y82.7465
G01 X43.8167 Y82.5597
G01 X43.7274 Y82.3845
G01 X43.6119 Y82.2255
G01 X43.4730 Y82.0866
G01 X43.3140 Y81.9710
G01 X43.1389 Y81.8819
G01 X42.9520 Y81.8212
G01 X42.7579 Y81.7904
G01 X41.1644 Y81.7904
G01 X40.9703 Y81.8212
G01 X40.7834 Y81.8819
G01 X40.6083 Y81.9710
G01 X40.4825 Y82.0624
G01 X34.3498 Y82.0624
G01 X34.3200 Y81.8718
G01 X34.2611 Y81.6907
G01 X34.1746 Y81.5208
G01 X34.0626 Y81.3667
G01 X33.9279 Y81.2321
G01 X33.7738 Y81.1200
G01 X33.6040 Y81.0335
G01 X33.4228 Y80.9746
G01 X33.2347 Y80.9449
G01 X33.0442 Y80.9449
G01 X32.8560 Y80.9746
G01 X32.6748 Y81.0335
G01 X32.5050 Y81.1200
G01 X32.3509 Y81.2321
G01 X32.2162 Y81.3667
G01 X32.1042 Y81.5208
G01 X32.0177 Y81.6907
G01 X31.9588 Y81.8718
G01 X31.9320 Y82.0413
G01 X30.2265 Y82.0413
G01 X30.1967 Y81.8507
G01 X30.1378 Y81.6694
G01 X30.0513 Y81.4998
G01 X29.9393 Y81.3456
G01 X29.8046 Y81.2108
G01 X29.6505 Y81.0988
G01 X29.4807 Y81.0125
G01 X29.2995 Y80.9535
G01 X29.1114 Y80.9237
G01 X28.9208 Y80.9237
G01 X28.7327 Y80.9535
G01 X28.5515 Y81.0125
G01 X28.3817 Y81.0988
G01 X28.2276 Y81.2108
G01 X28.0929 Y81.3456
G01 X27.9809 Y81.4998
G01 X27.8944 Y81.6694
G01 X27.8355 Y81.8507
G01 X27.8220 Y81.9360
G01 X17.3584 Y81.9360
G01 X17.3327 Y81.9008
G01 X17.1980 Y81.7660
G01 X17.0438 Y81.6540
G01 X16.8741 Y81.5675
G01 X16.6929 Y81.5087
G01 X16.5047 Y81.4788
G01 X14.9934 Y81.4788
G01 X14.8052 Y81.5087
G01 X14.6240 Y81.5675
G01 X14.4543 Y81.6540
G01 X14.3001 Y81.7660
G01 X14.1654 Y81.9008
G01 X14.1393 Y81.9367
G01 X10.8873 Y81.9380
G01 X4.8174 Y76.6566
G01 X4.8174 Y74.4057
G01 X4.8995 Y74.3460
G01 X5.0446 Y74.2009
G01 X5.1653 Y74.0348
G01 X5.2585 Y73.8520
G01 X5.3219 Y73.6568
G01 X5.3540 Y73.4540
G01 X5.3540 Y71.7408
G01 X5.3219 Y71.5380
G01 X5.2585 Y71.3428
G01 X5.1653 Y71.1600
G01 X5.0446 Y70.9939
G01 X4.8995 Y70.8488
G01 X4.7334 Y70.7281
G01 X4.5506 Y70.6350
G01 X4.3554 Y70.5716
G01 X4.1526 Y70.5395
G01 X3.9474 Y70.5395
G01 X3.7446 Y70.5716
G01 X3.5494 Y70.6350
G01 X3.3666 Y70.7281
G01 X3.2005 Y70.8488
G01 X3.0554 Y70.9939
G00 Z3.0000
G00 X6.5554 Y70.9939
G01 Z-0.2000 F254
G01 X6.4347 Y71.1600 F609
G01 X6.3415 Y71.3428
G01 X6.2781 Y71.5380
G01 X6.2460 Y71.7408
G01 X6.2460 Y73.4540
G01 X6.2781 Y73.6568
G01 X6.3415 Y73.8520
G01 X6.4347 Y74.0348
G01 X6.5554 Y74.2009
G01 X6.7005 Y74.3460
G01 X6.8444 Y74.4506
G01 X6.8444 Y76.2775
G01 X6.8408 Y76.3101
G01 X6.8444 Y76.3514
G01 X6.8444 Y76.3931
G01 X6.8508 Y76.4252
G01 X6.8536 Y76.4578
G01 X6.8652 Y76.4977
G01 X6.8733 Y76.5386
G01 X6.8859 Y76.5688
G01 X6.8950 Y76.6003
G01 X6.9142 Y76.6372
G01 X6.9301 Y76.6756
G01 X6.9483 Y76.7028
G01 X6.9634 Y76.7319
G01 X6.9894 Y76.7644
G01 X7.0125 Y76.7989
G01 X7.0357 Y76.8221
G01 X7.0562 Y76.8477
G01 X7.0880 Y76.8745
G01 X7.1174 Y76.9039
G01 X7.1447 Y76.9222
G01 X10.6284 Y79.8498
G01 X10.6284 Y80.6388
G01 X10.6582 Y80.8268
G01 X10.7171 Y81.0080
G01 X10.8036 Y81.1779
G01 X10.9155 Y81.3320
G01 X11.0503 Y81.4667
G01 X11.2044 Y81.5786
G01 X11.3742 Y81.6651
G01 X11.5554 Y81.7241
G01 X11.7435 Y81.7538
G01 X11.9340 Y81.7538
G01 X12.1222 Y81.7241
G01 X12.3034 Y81.6651
G01 X12.4732 Y81.5786
G01 X12.6273 Y81.4667
G01 X12.7620 Y81.3320
G01 X12.8740 Y81.1779
G01 X12.9605 Y81.0080
G01 X13.0194 Y80.8268
G01 X13.0492 Y80.6388
G01 X13.0492 Y79.1273
G01 X13.0194 Y78.9393
G01 X12.9605 Y78.7580
G01 X12.8740 Y78.5883
G01 X12.7620 Y78.4342
G01 X12.6273 Y78.2994
G01 X12.4732 Y78.1874
G01 X12.3034 Y78.1009
G01 X12.1222 Y78.0421
G01 X11.9340 Y78.0122
G01 X11.7435 Y78.0122
G01 X11.5554 Y78.0421
G01 X11.3742 Y78.1009
G01 X11.2044 Y78.1874
G01 X11.0904 Y78.2703
G01 X8.3508 Y75.9680
G01 X8.3508 Y74.3815
G01 X8.3995 Y74.3460
G01 X8.5446 Y74.2009
G01 X8.6653 Y74.0348
G01 X8.7585 Y73.8520
G01 X8.8219 Y73.6568
G01 X8.8540 Y73.4540
G01 X8.8540 Y71.7408
G01 X8.8219 Y71.5380
G01 X8.7585 Y71.3428
G01 X8.6653 Y71.1600
G01 X8.5446 Y70.9939
G01 X8.3995 Y70.8488
G01 X8.2334 Y70.7281
G01 X8.0506 Y70.6350
G01 X7.8554 Y70.5716
G01 X7.6526 Y70.5395
G01 X7.4474 Y70.5395
G01 X7.2446 Y70.5716
G01 X7.0494 Y70.6350
G01 X6.8666 Y70.7281
G01 X6.7005 Y70.8488
G01 X6.5554 Y70.9939
G00 Z3.0000
G00 X10.8036 Y71.0178
G01 Z-0.2000 F254
G01 X10.9155 Y71.1719 F609
G01 X11.0503 Y71.3066
G01 X11.2044 Y71.4186
G01 X11.3742 Y71.5052
G01 X11.5554 Y71.5640
G01 X11.7435 Y71.5939
G01 X11.9340 Y71.5939
G01 X12.1222 Y71.5640
G01 X12.3034 Y71.5052
G01 X12.4732 Y71.4186
G01 X12.6273 Y71.3066
G01 X12.6801 Y71.2538
G01 X13.9372 Y72.1560
G01 X13.9081 Y72.2459
G01 X13.8783 Y72.4339
G01 X13.8783 Y72.6244
G01 X13.9081 Y72.8126
G01 X13.9669 Y72.9938
G01 X14.0534 Y73.1636
G01 X14.1654 Y73.3178
G01 X14.3001 Y73.4524
G01 X14.4543 Y73.5644
G01 X14.6240 Y73.6509
G01 X14.8052 Y73.7099
G01 X14.9934 Y73.7396
G01 X16.5047 Y73.7396
G01 X16.6929 Y73.7099
G01 X16.8741 Y73.6509
G01 X17.0438 Y73.5644
G01 X17.1980 Y73.4524
G01 X17.3327 Y73.3178
G01 X17.4447 Y73.1636
G01 X17.5312 Y72.9938
G01 X17.5901 Y72.8126
G01 X17.6199 Y72.6244
G01 X17.6199 Y72.4339
G01 X17.5901 Y72.2459
G01 X17.5312 Y72.0647
G01 X17.4447 Y71.8948
G01 X17.3327 Y71.7407
G01 X17.1980 Y71.6060
G01 X17.0438 Y71.4941
G01 X16.8741 Y71.4076
G01 X16.6929 Y71.3486
G01 X16.5047 Y71.3188
G01 X15.3543 Y71.3188
G01 X13.0492 Y69.6646
G01 X13.0492 Y68.9673
G01 X13.0194 Y68.7792
G01 X12.9605 Y68.5981
G01 X12.8740 Y68.4282
G01 X12.7620 Y68.2741
G01 X12.6273 Y68.1394
G01 X12.4732 Y68.0275
G01 X12.3034 Y67.9410
G01 X12.1222 Y67.8820
G01 X11.9340 Y67.8522
G01 X11.7435 Y67.8522
G01 X11.5554 Y67.8820
G01 X11.3742 Y67.9410
G01 X11.2044 Y68.0275
G01 X11.0503 Y68.1394
G01 X10.9155 Y68.2741
G01 X10.8036 Y68.4282
G01 X10.7171 Y68.5981
G01 X10.6582 Y68.7792
G01 X10.6284 Y68.9673
G01 X10.6284 Y70.4787
G01 X10.6582 Y70.6668
G01 X10.7171 Y70.8481
G01 X10.8036 Y71.0178
G00 Z3.0000
G00 X14.1654 Y74.2807
G01 Z-0.2000 F254
G01 X14.0534 Y74.4348 F609
G01 X13.9669 Y74.6046
G01 X13.9081 Y74.7858
G01 X13.8783 Y74.9740
G01 X13.8783 Y75.1645
G01 X13.9081 Y75.3526
G01 X13.9669 Y75.5339
G01 X14.0534 Y75.7036
G01 X14.1654 Y75.8577
G01 X14.3001 Y75.9924
G01 X14.4543 Y76.1044
G01 X14.6240 Y76.1910
G01 X14.8052 Y76.2498
G01 X14.9934 Y76.2797
G01 X16.5047 Y76.2797
G01 X16.6929 Y76.2498
G01 X16.8741 Y76.1910
G01 X17.0438 Y76.1044
G01 X17.1980 Y75.9924
G01 X17.3327 Y75.8577
G01 X17.4447 Y75.7036
G01 X17.5312 Y75.5339
G01 X17.5901 Y75.3526
G01 X17.6199 Y75.1645
G01 X17.6199 Y74.9740
G01 X17.5901 Y74.7858
G01 X17.5312 Y74.6046
G01 X17.4447 Y74.4348
G01 X17.3327 Y74.2807
G01 X17.1980 Y74.1459
G01 X17.0438 Y74.0340
G01 X16.8741 Y73.9475
G01 X16.6929 Y73.8886
G01 X16.5047 Y73.8589
G01 X14.9934 Y73.8589
G01 X14.8052 Y73.8886
G01 X14.6240 Y73.9475
G01 X14.4543 Y74.0340
G01 X14.3001 Y74.1459
G01 X14.1654 Y74.2807
G00 Z3.0000
G00 X14.1654 Y76.8208
G01 Z-0.2000 F254
G01 X14.0534 Y76.9749 F609
G01 X13.9669 Y77.1446
G01 X13.9081 Y77.3259
G01 X13.8783 Y77.5139
G01 X13.8783 Y77.7044
G01 X13.9081 Y77.8927
G01 X13.9669 Y78.0738
G01 X14.0534 Y78.2437
G01 X14.1654 Y78.3978
G01 X14.3001 Y78.5324
G01 X14.4543 Y78.6444
G01 X14.6240 Y78.7309
G01 X14.8052 Y78.7899
G01 X14.9934 Y78.8196
G01 X16.5047 Y78.8196
G01 X16.6929 Y78.7899
G01 X16.8741 Y78.7309
G01 X17.0438 Y78.6444
G01 X17.1980 Y78.5324
G01 X17.3327 Y78.3978
G01 X17.3468 Y78.3782
G01 X22.5282 Y78.4295
G01 X22.5603 Y78.4334
G01 X22.6022 Y78.4303
G01 X22.6443 Y78.4306
G01 X22.6760 Y78.4246
G01 X22.7082 Y78.4222
G01 X22.7487 Y78.4109
G01 X22.7901 Y78.4031
G01 X22.8201 Y78.3911
G01 X22.8512 Y78.3825
G01 X22.8887 Y78.3635
G01 X22.9277 Y78.3477
G01 X22.9547 Y78.3300
G01 X22.9836 Y78.3156
G01 X23.0167 Y78.2895
G01 X23.0519 Y78.2665
G01 X23.0749 Y78.2439
G01 X28.2223 Y74.2129
G01 X28.2276 Y74.2181
G01 X28.3817 Y74.3302
G01 X28.5515 Y74.4167
G01 X28.7327 Y74.4755
G01 X28.9208 Y74.5053
G01 X29.1114 Y74.5053
G01 X29.2995 Y74.4755
G01 X29.4807 Y74.4167
G01 X29.6505 Y74.3302
G01 X29.8046 Y74.2181
G01 X29.9393 Y74.0834
G01 X30.0513 Y73.9293
G01 X30.1378 Y73.7595
G01 X30.1967 Y73.5784
G01 X30.2265 Y73.3902
G01 X31.9290 Y73.3877
G01 X31.9290 Y73.4113
G01 X31.9588 Y73.5995
G01 X32.0177 Y73.7807
G01 X32.1042 Y73.9505
G01 X32.2162 Y74.1046
G01 X32.3509 Y74.2394
G01 X32.5050 Y74.3513
G01 X32.6748 Y74.4377
G01 X32.8560 Y74.4967
G01 X33.0442 Y74.5264
G01 X33.2347 Y74.5264
G01 X33.4228 Y74.4967
G01 X33.6040 Y74.4377
G01 X33.7692 Y74.3537
G01 X38.9083 Y79.5057
G01 X38.8873 Y79.5345
G01 X38.7981 Y79.7096
G01 X38.7374 Y79.8965
G01 X38.7066 Y80.0906
G01 X38.7066 Y80.2871
G01 X38.7374 Y80.4813
G01 X38.7981 Y80.6681
G01 X38.8873 Y80.8432
G01 X39.0028 Y81.0023
G01 X39.1418 Y81.1412
G01 X39.3008 Y81.2567
G01 X39.4759 Y81.3460
G01 X39.6628 Y81.4066
G01 X39.8569 Y81.4374
G01 X41.4504 Y81.4374
G01 X41.6445 Y81.4066
G01 X41.8314 Y81.3460
G01 X42.0065 Y81.2567
G01 X42.1655 Y81.1412
G01 X42.3044 Y81.0023
G01 X42.4199 Y80.8432
G01 X42.5092 Y80.6681
G01 X42.5699 Y80.4813
G01 X42.6006 Y80.2871
G01 X42.6006 Y80.0906
G01 X42.5699 Y79.8965
G01 X42.5092 Y79.7096
G01 X42.4199 Y79.5345
G01 X42.3044 Y79.3756
G01 X42.1655 Y79.2366
G01 X42.0065 Y79.1212
G01 X41.8314 Y79.0318
G01 X41.6445 Y78.9711
G01 X41.4504 Y78.9404
G01 X40.4721 Y78.9404
G01 X34.3498 Y72.8026
G01 X34.3498 Y71.9000
G01 X34.3200 Y71.7118
G01 X34.2611 Y71.5306
G01 X34.1746 Y71.3608
G01 X34.0626 Y71.2067
G01 X33.9279 Y71.0721
G01 X33.7738 Y70.9600
G01 X33.6040 Y70.8735
G01 X33.4228 Y70.8147
G01 X33.2347 Y70.7848
G01 X33.0442 Y70.7848
G01 X32.8560 Y70.8147
G01 X32.6748 Y70.8735
G01 X32.5050 Y70.9600
G01 X32.3509 Y71.0721
G01 X32.2162 Y71.2067
G01 X32.1042 Y71.3608
G01 X32.0177 Y71.5306
G01 X31.9588 Y71.7118
G01 X31.9320 Y71.8813
G01 X30.2265 Y71.8813
G01 X30.1967 Y71.6907
G01 X30.1378 Y71.5095
G01 X30.0513 Y71.3397
G01 X29.9393 Y71.1856
G01 X29.8046 Y71.0508
G01 X29.6505 Y70.9389
G01 X29.4807 Y70.8525
G01 X29.2995 Y70.7935
G01 X29.1114 Y70.7638
G01 X28.9208 Y70.7638
G01 X28.7327 Y70.7935
G01 X28.5515 Y70.8525
G01 X28.3817 Y70.9389
G01 X28.2276 Y71.0508
G01 X28.0929 Y71.1856
G01 X27.9809 Y71.3397
G01 X27.8944 Y71.5095
G01 X27.8355 Y71.6907
G01 X27.8057 Y71.8788
G01 X27.8057 Y72.6257
G01 X22.3210 Y76.9210
G01 X17.3700 Y76.8721
G01 X17.3327 Y76.8208
G01 X17.1980 Y76.6860
G01 X17.0438 Y76.5740
G01 X16.8741 Y76.4875
G01 X16.6929 Y76.4287
G01 X16.5047 Y76.3988
G01 X14.9934 Y76.3988
G01 X14.8052 Y76.4287
G01 X14.6240 Y76.4875
G01 X14.4543 Y76.5740
G01 X14.3001 Y76.6860
G01 X14.1654 Y76.8208
G00 Z3.0000
G00 X14.1654 Y79.3607
G01 Z-0.2000 F254
G01 X14.0534 Y79.5148 F609
G01 X13.9669 Y79.6847
G01 X13.9081 Y79.8658
G01 X13.8783 Y80.0540
G01 X13.8783 Y80.2446
G01 X13.9081 Y80.4326
G01 X13.9669 Y80.6138
G01 X14.0534 Y80.7836
G01 X14.1654 Y80.9377
G01 X14.3001 Y81.0725
G01 X14.4543 Y81.1844
G01 X14.6240 Y81.2709
G01 X14.8052 Y81.3298
G01 X14.9934 Y81.3597
G01 X16.5047 Y81.3597
G01 X16.6929 Y81.3298
G01 X16.8741 Y81.2709
G01 X17.0438 Y81.1844
G01 X17.1980 Y81.0725
G01 X17.3327 Y80.9377
G01 X17.4447 Y80.7836
G01 X17.5312 Y80.6138
G01 X17.5901 Y80.4326
G01 X17.6199 Y80.2446
G01 X17.6199 Y80.0540
G01 X17.5901 Y79.8658
G01 X17.5312 Y79.6847
G01 X17.4447 Y79.5148
G01 X17.3327 Y79.3607
G01 X17.1980 Y79.2259
G01 X17.0438 Y79.1140
G01 X16.8741 Y79.0275
G01 X16.6929 Y78.9686
G01 X16.5047 Y78.9389
G01 X14.9934 Y78.9389
G01 X14.8052 Y78.9686
G01 X14.6240 Y79.0275
G01 X14.4543 Y79.1140
G01 X14.3001 Y79.2259
G01 X14.1654 Y79.3607
G00 Z3.0000
G00 X39.1818 Y75.5288
G01 Z-0.2000 F254
G01 X39.3408 Y75.6442 F609
G01 X39.5159 Y75.7335
G01 X39.7028 Y75.7942
G01 X39.8969 Y75.8250
G01 X41.4904 Y75.8250
G01 X41.6845 Y75.7942
G01 X41.8714 Y75.7335
G01 X42.0465 Y75.6442
G01 X42.2055 Y75.5288
G01 X42.3444 Y75.3897
G01 X42.4599 Y75.2308
G01 X42.5492 Y75.0556
G01 X42.6099 Y74.8688
G01 X42.6406 Y74.6746
G01 X42.6406 Y74.4781
G01 X42.6099 Y74.2840
G01 X42.5492 Y74.0971
G01 X42.4599 Y73.9220
G01 X42.3444 Y73.7630
G01 X42.2055 Y73.6242
G01 X42.0465 Y73.5085
G01 X41.8714 Y73.4193
G01 X41.6845 Y73.3586
G01 X41.4904 Y73.3280
G01 X39.8969 Y73.3280
G01 X39.7028 Y73.3586
G01 X39.5159 Y73.4193
G01 X39.3408 Y73.5085
G01 X39.1818 Y73.6242
G01 X39.0428 Y73.7630
G01 X38.9273 Y73.9220
G01 X38.8381 Y74.0971
G01 X38.7774 Y74.2840
G01 X38.7466 Y74.4781
G01 X38.7466 Y74.6746
G01 X38.7774 Y74.8688
G01 X38.8381 Y75.0556
G01 X38.9273 Y75.2308
G01 X39.0428 Y75.3897
G01 X39.1818 Y75.5288
G00 Z3.0000
G00 X3.0554 Y92.5931
G01 Z-0.2000 F254
G01 X2.9347 Y92.7592 F609
G01 X2.8415 Y92.9420
G01 X2.7781 Y93.1372
G01 X2.7460 Y93.3400
G01 X2.7460 Y95.0532
G01 X2.7781 Y95.2560
G01 X2.8415 Y95.4512
G01 X2.9347 Y95.6340
G01 X3.0554 Y95.8001
G01 X3.2005 Y95.9452
G01 X3.3110 Y96.0255
G01 X3.3110 Y98.5510
G01 X3.3076 Y98.5771
G01 X3.3110 Y98.6250
G01 X3.3110 Y98.6730
G01 X3.3161 Y98.6988
G01 X3.3179 Y98.7251
G01 X3.3305 Y98.7714
G01 X3.3399 Y98.8186
G01 X3.3500 Y98.8429
G01 X3.3569 Y98.8682
G01 X3.3783 Y98.9112
G01 X3.3967 Y98.9556
G01 X3.4113 Y98.9775
G01 X3.4230 Y99.0010
G01 X3.4524 Y99.0390
G01 X3.4791 Y99.0790
G01 X3.4977 Y99.0976
G01 X3.5138 Y99.1184
G01 X3.5500 Y99.1499
G01 X3.5840 Y99.1839
G01 X3.6059 Y99.1985
G01 X10.0916 Y104.8416
G01 X10.1257 Y104.8757
G01 X10.1474 Y104.8902
G01 X10.1672 Y104.9073
G01 X10.2090 Y104.9313
G01 X10.2491 Y104.9580
G01 X10.2732 Y104.9680
G01 X10.2959 Y104.9810
G01 X10.3417 Y104.9963
G01 X10.3862 Y105.0148
G01 X10.4118 Y105.0198
G01 X10.4366 Y105.0282
G01 X10.4845 Y105.0343
G01 X10.5317 Y105.0436
G01 X10.5578 Y105.0436
G01 X10.5838 Y105.0469
G01 X10.6319 Y105.0436
G01 X14.1402 Y105.0422
G01 X14.1654 Y105.0769
G01 X14.3001 Y105.2116
G01 X14.4543 Y105.3236
G01 X14.6240 Y105.4101
G01 X14.8052 Y105.4690
G01 X14.9934 Y105.4988
G01 X16.5047 Y105.4988
G01 X16.6929 Y105.4690
G01 X16.8741 Y105.4101
G01 X17.0438 Y105.3236
G01 X17.1980 Y105.2116
G01 X17.3327 Y105.0769
G01 X17.3584 Y105.0416
G01 X27.8057 Y105.0416
G01 X27.8057 Y105.1493
G01 X27.8355 Y105.3375
G01 X27.8944 Y105.5187
G01 X27.9809 Y105.6885
G01 X28.0929 Y105.8426
G01 X28.2276 Y105.9773
G01 X28.3817 Y106.0893
G01 X28.5515 Y106.1758
G01 X28.7327 Y106.2347
G01 X28.9208 Y106.2645
G01 X29.1114 Y106.2645
G01 X29.2995 Y106.2347
G01 X29.4807 Y106.1758
G01 X29.6505 Y106.0893
G01 X29.8046 Y105.9773
G01 X29.9393 Y105.8426
G01 X30.0513 Y105.6885
G01 X30.1378 Y105.5187
G01 X30.1967 Y105.3375
G01 X30.2265 Y105.1493
G01 X31.9290 Y105.1469
G01 X31.9290 Y105.1705
G01 X31.9588 Y105.3587
G01 X32.0177 Y105.5399
G01 X32.1042 Y105.7096
G01 X32.2162 Y105.8638
G01 X32.3509 Y105.9985
G01 X32.5050 Y106.1105
G01 X32.6748 Y106.1970
G01 X32.8560 Y106.2558
G01 X33.0442 Y106.2856
G01 X33.2347 Y106.2856
G01 X33.4228 Y106.2558
G01 X33.6040 Y106.1970
G01 X33.7738 Y106.1105
G01 X33.9279 Y105.9985
G01 X34.0626 Y105.8638
G01 X34.1746 Y105.7096
G01 X34.2611 Y105.5399
G01 X34.3200 Y105.3587
G01 X34.3498 Y105.1705
G01 X40.1314 Y105.1680
G01 X40.1948 Y105.2924
G01 X40.3103 Y105.4514
G01 X40.4493 Y105.5904
G01 X40.6083 Y105.7059
G01 X40.7834 Y105.7951
G01 X40.9703 Y105.8558
G01 X41.1644 Y105.8866
G01 X42.7579 Y105.8866
G01 X42.9520 Y105.8558
G01 X43.1389 Y105.7951
G01 X43.3140 Y105.7059
G01 X43.4730 Y105.5904
G01 X43.6119 Y105.4514
G01 X43.7274 Y105.2924
G01 X43.8167 Y105.1173
G01 X43.8774 Y104.9304
G01 X43.9081 Y104.7363
G01 X43.9081 Y104.5398
G01 X43.8774 Y104.3457
G01 X43.8167 Y104.1588
G01 X43.7274 Y103.9837
G01 X43.6119 Y103.8247
G01 X43.4730 Y103.6858
G01 X43.3140 Y103.5702
G01 X43.1389 Y103.4810
G01 X42.9520 Y103.4203
G01 X42.7579 Y103.3896
G01 X41.1644 Y103.3896
G01 X40.9703 Y103.4203
G01 X40.7834 Y103.4810
G01 X40.6083 Y103.5702
G01 X40.4825 Y103.6616
G01 X34.3498 Y103.6616
G01 X34.3200 Y103.4710
G01 X34.2611 Y103.2898
G01 X34.1746 Y103.1200
G01 X34.0626 Y102.9659
G01 X33.9279 Y102.8312
G01 X33.7738 Y102.7192
G01 X33.6040 Y102.6327
G01 X33.4228 Y102.5738
G01 X33.2347 Y102.5440
G01 X33.0442 Y102.5440
G01 X32.8560 Y102.5738
G01 X32.6748 Y102.6327
G01 X32.5050 Y102.7192
G01 X32.3509 Y102.8312
G01 X32.2162 Y102.9659
G01 X32.1042 Y103.1200
G01 X32.0177 Y103.2898
G01 X31.9588 Y103.4710
G01 X31.9320 Y103.6405
G01 X30.2265 Y103.6405
G01 X30.1967 Y103.4498
G01 X30.1378 Y103.2686
G01 X30.0513 Y103.0989
G01 X29.9393 Y102.9447
G01 X29.8046 Y102.8100
G01 X29.6505 Y102.6980
G01 X29.4807 Y102.6116
G01 X29.2995 Y102.5527
G01 X29.1114 Y102.5229
G01 X28.9208 Y102.5229
G01 X28.7327 Y102.5527
G01 X28.5515 Y102.6116
G01 X28.3817 Y102.6980
G01 X28.2276 Y102.8100
G01 X28.0929 Y102.9447
G01 X27.9809 Y103.0989
G01 X27.8944 Y103.2686
G01 X27.8355 Y103.4498
G01 X27.8220 Y103.5352
G01 X17.3584 Y103.5352
G01 X17.3327 Y103.4999
G01 X17.1980 Y103.3652
G01 X17.0438 Y103.2532
G01 X16.8741 Y103.1667
G01 X16.6929 Y103.1078
G01 X16.5047 Y103.0780
G01 X14.9934 Y103.0780
G01 X14.8052 Y103.1078
G01 X14.6240 Y103.1667
G01 X14.4543 Y103.2532
G01 X14.3001 Y103.3652
G01 X14.1654 Y103.4999
G01 X14.1393 Y103.5358
G01 X10.8873 Y103.5371
G01 X4.8174 Y98.2558
G01 X4.8174 Y96.0049
G01 X4.8995 Y95.9452
G01 X5.0446 Y95.8001
G01 X5.1653 Y95.6340
G01 X5.2585 Y95.4512
G01 X5.3219 Y95.2560
G01 X5.3540 Y95.0532
G01 X5.3540 Y93.3400
G01 X5.3219 Y93.1372
G01 X5.2585 Y92.9420
G01 X5.1653 Y92.7592
G01 X5.0446 Y92.5931
G01 X4.8995 Y92.4480
G01 X4.7334 Y92.3273
G01 X4.5506 Y92.2341
G01 X4.3554 Y92.1707
G01 X4.1526 Y92.1386
G01 X3.9474 Y92.1386
G01 X3.7446 Y92.1707
G01 X3.5494 Y92.2341
G01 X3.3666 Y92.3273
G01 X3.2005 Y92.4480
G01 X3.0554 Y92.5931
G00 Z3.0000
G00 X6.5554 Y92.5931
G01 Z-0.2000 F254
G01 X6.4347 Y92.7592 F609
G01 X6.3415 Y92.9420
G01 X6.2781 Y93.1372
G01 X6.2460 Y93.3400
G01 X6.2460 Y95.0532
G01 X6.2781 Y95.2560
G01 X6.3415 Y95.4512
G01 X6.4347 Y95.6340
G01 X6.5554 Y95.8001
G01 X6.7005 Y95.9452
G01 X6.8444 Y96.0498
G01 X6.8444 Y97.8766
G01 X6.8408 Y97.9092
G01 X6.8444 Y97.9506
G01 X6.8444 Y97.9922
G01 X6.8508 Y98.0243
G01 X6.8536 Y98.0570
G01 X6.8652 Y98.0969
G01 X6.8733 Y98.1377
G01 X6.8859 Y98.1680
G01 X6.8950 Y98.1995
G01 X6.9142 Y98.2364
G01 X6.9301 Y98.2748
G01 X6.9483 Y98.3020
G01 X6.9634 Y98.3311
G01 X6.9894 Y98.3636
G01 X7.0125 Y98.3981
G01 X7.0357 Y98.4213
G01 X7.0562 Y98.4469
G01 X7.0880 Y98.4737
G01 X7.1174 Y98.5031
G01 X7.1447 Y98.5213
G01 X10.6284 Y101.4489
G01 X10.6284 Y102.2379
G01 X10.6582 Y102.4260
G01 X10.7171 Y102.6072
G01 X10.8036 Y102.7770
G01 X10.9155 Y102.9311
G01 X11.0503 Y103.0658
G01 X11.2044 Y103.1778
G01 X11.3742 Y103.2643
G01 X11.5554 Y103.3232
G01 X11.7435 Y103.3530
G01 X11.9340 Y103.3530
G01 X12.1222 Y103.3232
G01 X12.3034 Y103.2643
G01 X12.4732 Y103.1778
G01 X12.6273 Y103.0658
G01 X12.7620 Y102.9311
G01 X12.8740 Y102.7770
G01 X12.9605 Y102.6072
G01 X13.0194 Y102.4260
G01 X13.0492 Y102.2379
G01 X13.0492 Y100.7265
G01 X13.0194 Y100.5384
G01 X12.9605 Y100.3572
G01 X12.8740 Y100.1874
G01 X12.7620 Y100.0333
G01 X12.6273 Y99.8986
G01 X12.4732 Y99.7866
G01 X12.3034 Y99.7001
G01 X12.1222 Y99.6412
G01 X11.9340 Y99.6114
G01 X11.7435 Y99.6114
G01 X11.5554 Y99.6412
G01 X11.3742 Y99.7001
G01 X11.2044 Y99.7866
G01 X11.0904 Y99.8694
G01 X8.3508 Y97.5671
G01 X8.3508 Y95.9806
G01 X8.3995 Y95.9452
G01 X8.5446 Y95.8001
G01 X8.6653 Y95.6340
G01 X8.7585 Y95.4512
G01 X8.8219 Y95.2560
G01 X8.8540 Y95.0532
G01 X8.8540 Y93.3400
G01 X8.8219 Y93.1372
G01 X8.7585 Y92.9420
G01 X8.6653 Y92.7592
G01 X8.5446 Y92.5931
G01 X8.3995 Y92.4480
G01 X8.2334 Y92.3273
G01 X8.0506 Y92.2341
G01 X7.8554 Y92.1707
G01 X7.6526 Y92.1386
G01 X7.4474 Y92.1386
G01 X7.2446 Y92.1707
G01 X7.0494 Y92.2341
G01 X6.8666 Y92.3273
G01 X6.7005 Y92.4480
G01 X6.5554 Y92.5931
G00 Z3.0000
G00 X10.8036 Y92.6170
G01 Z-0.2000 F254
G01 X10.9155 Y92.7711 F609
G01 X11.0503 Y92.9058
G01 X11.2044 Y93.0178
G01 X11.3742 Y93.1043
G01 X11.5554 Y93.1632
G01 X11.7435 Y93.1930
G01 X11.9340 Y93.1930
G01 X12.1222 Y93.1632
G01 X12.3034 Y93.1043
G01 X12.4732 Y93.0178
G01 X12.6273 Y92.9058
G01 X12.6801 Y92.8530
G01 X13.9372 Y93.7552
G01 X13.9081 Y93.8450
G01 X13.8783 Y94.0331
G01 X13.8783 Y94.2236
G01 X13.9081 Y94.4118
G01 X13.9669 Y94.5930
G01 X14.0534 Y94.7628
G01 X14.1654 Y94.9169
G01 X14.3001 Y95.0516
G01 X14.4543 Y95.1636
G01 X14.6240 Y95.2501
G01 X14.8052 Y95.3090
G01 X14.9934 Y95.3388
G01 X16.5047 Y95.3388
G01 X16.6929 Y95.3090
G01 X16.8741 Y95.2501
G01 X17.0438 Y95.1636
G01 X17.1980 Y95.0516
G01 X17.3327 Y94.9169
G01 X17.4447 Y94.7628
G01 X17.5312 Y94.5930
G01 X17.5901 Y94.4118
G01 X17.6199 Y94.2236
G01 X17.6199 Y94.0331
G01 X17.5901 Y93.8450
G01 X17.5312 Y93.6638
G01 X17.4447 Y93.4940
G01 X17.3327 Y93.3399
G01 X17.1980 Y93.2052
G01 X17.0438 Y93.0932
G01 X16.8741 Y93.0067
G01 X16.6929 Y92.9478
G01 X16.5047 Y92.9180
G01 X15.3543 Y92.9180
G01 X13.0492 Y91.2638
G01 X13.0492 Y90.5665
G01 X13.0194 Y90.3784
G01 X12.9605 Y90.1972
G01 X12.8740 Y90.0274
G01 X12.7620 Y89.8733
G01 X12.6273 Y89.7386
G01 X12.4732 Y89.6266
G01 X12.3034 Y89.5401
G01 X12.1222 Y89.4812
G01 X11.9340 Y89.4514
G01 X11.7435 Y89.4514
G01 X11.5554 Y89.4812
G01 X11.3742 Y89.5401
G01 X11.2044 Y89.6266
G01 X11.0503 Y89.7386
G01 X10.9155 Y89.8733
G01 X10.8036 Y90.0274
G01 X10.7171 Y90.1972
G01 X10.6582 Y90.3784
G01 X10.6284 Y90.5665
G01 X10.6284 Y92.0779
G01 X10.6582 Y92.2660
G01 X10.7171 Y92.4472
G01 X10.8036 Y92.6170
G00 Z3.0000
G00 X14.1654 Y95.8799
G01 Z-0.2000 F254
G01 X14.0534 Y96.0340 F609
G01 X13.9669 Y96.2038
G01 X13.9081 Y96.3850
G01 X13.8783 Y96.5731
G01 X13.8783 Y96.7637
G01 X13.9081 Y96.9518
G01 X13.9669 Y97.1330
G01 X14.0534 Y97.3028
G01 X14.1654 Y97.4569
G01 X14.3001 Y97.5916
G01 X14.4543 Y97.7036
G01 X14.6240 Y97.7901
G01 X14.8052 Y97.8490
G01 X14.9934 Y97.8788
G01 X16.5047 Y97.8788
G01 X16.6929 Y97.8490
G01 X16.8741 Y97.7901
G01 X17.0438 Y97.7036
G01 X17.1980 Y97.5916
G01 X17.3327 Y97.4569
G01 X17.4447 Y97.3028
G01 X17.5312 Y97.1330
G01 X17.5901 Y96.9518
G01 X17.6199 Y96.7637
G01 X17.6199 Y96.5731
G01 X17.5901 Y96.3850
G01 X17.5312 Y96.2038
G01 X17.4447 Y96.0340
G01 X17.3327 Y95.8799
G01 X17.1980 Y95.7451
G01 X17.0438 Y95.6332
G01 X16.8741 Y95.5467
G01 X16.6929 Y95.4878
G01 X16.5047 Y95.4580
G01 X14.9934 Y95.4580
G01 X14.8052 Y95.4878
G01 X14.6240 Y95.5467
G01 X14.4543 Y95.6332
G01 X14.3001 Y95.7451
G01 X14.1654 Y95.8799
G00 Z3.0000
G00 X14.1654 Y98.4199
G01 Z-0.2000 F254
G01 X14.0534 Y98.5740 F609
G01 X13.9669 Y98.7438
G01 X13.9081 Y98.9250
G01 X13.8783 Y99.1131
G01 X13.8783 Y99.3036
G01 X13.9081 Y99.4918
G01 X13.9669 Y99.6730
G01 X14.0534 Y99.8428
G01 X14.1654 Y99.9969
G01 X14.3001 Y100.1316
G01 X14.4543 Y100.2436
G01 X14.6240 Y100.3301
G01 X14.8052 Y100.3890
G01 X14.9934 Y100.4188
G01 X16.5047 Y100.4188
G01 X16.6929 Y100.3890
G01 X16.8741 Y100.3301
G01 X17.0438 Y100.2436
G01 X17.1980 Y100.1316
G01 X17.3327 Y99.9969
G01 X17.3468 Y99.9774
G01 X22.5282 Y100.0287
G01 X22.5603 Y100.0326
G01 X22.6022 Y100.0294
G01 X22.6443 Y100.0298
G01 X22.6760 Y100.0238
G01 X22.7082 Y100.0214
G01 X22.7487 Y100.0101
G01 X22.7901 Y100.0023
G01 X22.8201 Y99.9903
G01 X22.8512 Y99.9816
G01 X22.8887 Y99.9626
G01 X22.9277 Y99.9469
G01 X22.9547 Y99.9292
G01 X22.9836 Y99.9147
G01 X23.0167 Y99.8887
G01 X23.0519 Y99.8657
G01 X23.0749 Y99.8431
G01 X28.2223 Y95.8120
G01 X28.2276 Y95.8173
G01 X28.3817 Y95.9293
G01 X28.5515 Y96.0158
G01 X28.7327 Y96.0747
G01 X28.9208 Y96.1045
G01 X29.1114 Y96.1045
G01 X29.2995 Y96.0747
G01 X29.4807 Y96.0158
G01 X29.6505 Y95.9293
G01 X29.8046 Y95.8173
G01 X29.9393 Y95.6826
G01 X30.0513 Y95.5285
G01 X30.1378 Y95.3587
G01 X30.1967 Y95.1775
G01 X30.2265 Y94.9893
G01 X31.9290 Y94.9869
G01 X31.9290 Y95.0105
G01 X31.9588 Y95.1987
G01 X32.0177 Y95.3799
G01 X32.1042 Y95.5496
G01 X32.2162 Y95.7038
G01 X32.3509 Y95.8385
G01 X32.5050 Y95.9505
G01 X32.6748 Y96.0369
G01 X32.8560 Y96.0958
G01 X33.0442 Y96.1256
G01 X33.2347 Y96.1256
G01 X33.4228 Y96.0958
G01 X33.6040 Y96.0369
G01 X33.7692 Y95.9528
G01 X38.9083 Y101.1048
G01 X38.8873 Y101.1337
G01 X38.7981 Y101.3088
G01 X38.7374 Y101.4957
G01 X38.7066 Y101.6898
G01 X38.7066 Y101.8863
G01 X38.7374 Y102.0804
G01 X38.7981 Y102.2673
G01 X38.8873 Y102.4424
G01 X39.0028 Y102.6014
G01 X39.1418 Y102.7404
G01 X39.3008 Y102.8559
G01 X39.4759 Y102.9451
G01 X39.6628 Y103.0058
G01 X39.8569 Y103.0366
G01 X41.4504 Y103.0366
G01 X41.6445 Y103.0058
G01 X41.8314 Y102.9451
G01 X42.0065 Y102.8559
G01 X42.1655 Y102.7404
G01 X42.3044 Y102.6014
G01 X42.4199 Y102.4424
G01 X42.5092 Y102.2673
G01 X42.5699 Y102.0804
G01 X42.6006 Y101.8863
G01 X42.6006 Y101.6898
G01 X42.5699 Y101.4957
G01 X42.5092 Y101.3088
G01 X42.4199 Y101.1337
G01 X42.3044 Y100.9747
G01 X42.1655 Y100.8358
G01 X42.0065 Y100.7203
G01 X41.8314 Y100.6310
G01 X41.6445 Y100.5703
G01 X41.4504 Y100.5396
G01 X40.4721 Y100.5396
G01 X34.3498 Y94.4018
G01 X34.3498 Y93.4992
G01 X34.3200 Y93.3110
G01 X34.2611 Y93.1298
G01 X34.1746 Y92.9600
G01 X34.0626 Y92.8059
G01 X33.9279 Y92.6712
G01 X33.7738 Y92.5592
G01 X33.6040 Y92.4727
G01 X33.4228 Y92.4138
G01 X33.2347 Y92.3840
G01 X33.0442 Y92.3840
G01 X32.8560 Y92.4138
G01 X32.6748 Y92.4727
G01 X32.5050 Y92.5592
G01 X32.3509 Y92.6712
G01 X32.2162 Y92.8059
G01 X32.1042 Y92.9600
G01 X32.0177 Y93.1298
G01 X31.9588 Y93.3110
G01 X31.9320 Y93.4805
G01 X30.2265 Y93.4805
G01 X30.1967 Y93.2898
G01 X30.1378 Y93.1086
G01 X30.0513 Y92.9389
G01 X29.9393 Y92.7848
G01 X29.8046 Y92.6500
G01 X29.6505 Y92.5380
G01 X29.4807 Y92.4516
G01 X29.2995 Y92.3927
G01 X29.1114 Y92.3629
G01 X28.9208 Y92.3629
G01 X28.7327 Y92.3927
G01 X28.5515 Y92.4516
G01 X28.3817 Y92.5380
G01 X28.2276 Y92.6500
G01 X28.0929 Y92.7848
G01 X27.9809 Y92.9389
G01 X27.8944 Y93.1086
G01 X27.8355 Y93.2898
G01 X27.8057 Y93.4780
G01 X27.8057 Y94.2249
G01 X22.3210 Y98.5202
G01 X17.3700 Y98.4712
G01 X17.3327 Y98.4199
G01 X17.1980 Y98.2852
G01 X17.0438 Y98.1732
G01 X16.8741 Y98.0867
G01 X16.6929 Y98.0278
G01 X16.5047 Y97.9980
G01 X14.9934 Y97.9980
G01 X14.8052 Y98.0278
G01 X14.6240 Y98.0867
G01 X14.4543 Y98.1732
G01 X14.3001 Y98.2852
G01 X14.1654 Y98.4199
G00 Z3.0000
G00 X14.1654 Y100.9599
G01 Z-0.2000 F254
G01 X14.0534 Y101.1140 F609
G01 X13.9669 Y101.2838
G01 X13.9081 Y101.4650
G01 X13.8783 Y101.6531
G01 X13.8783 Y101.8437
G01 X13.9081 Y102.0318
G01 X13.9669 Y102.2130
G01 X14.0534 Y102.3828
G01 X14.1654 Y102.5369
G01 X14.3001 Y102.6716
G01 X14.4543 Y102.7836
G01 X14.6240 Y102.8701
G01 X14.8052 Y102.9290
G01 X14.9934 Y102.9588
G01 X16.5047 Y102.9588
G01 X16.6929 Y102.9290
G01 X16.8741 Y102.8701
G01 X17.0438 Y102.7836
G01 X17.1980 Y102.6716
G01 X17.3327 Y102.5369
G01 X17.4447 Y102.3828
G01 X17.5312 Y102.2130
G01 X17.5901 Y102.0318
G01 X17.6199 Y101.8437
G01 X17.6199 Y101.6531
G01 X17.5901 Y101.4650
G01 X17.5312 Y101.2838
G01 X17.4447 Y101.1140
G01 X17.3327 Y100.9599
G01 X17.1980 Y100.8251
G01 X17.0438 Y100.7132
G01 X16.8741 Y100.6267
G01 X16.6929 Y100.5678
G01 X16.5047 Y100.5380
G01 X14.9934 Y100.5380
G01 X14.8052 Y100.5678
G01 X14.6240 Y100.6267
G01 X14.4543 Y100.7132
G01 X14.3001 Y100.8251
G01 X14.1654 Y100.9599
G00 Z3.0000
G00 X39.1818 Y97.1279
G01 Z-0.2000 F254
G01 X39.3408 Y97.2434 F609
G01 X39.5159 Y97.3326
G01 X39.7028 Y97.3933
G01 X39.8969 Y97.4241
G01 X41.4904 Y97.4241
G01 X41.6845 Y97.3933
G01 X41.8714 Y97.3326
G01 X42.0465 Y97.2434
G01 X42.2055 Y97.1279
G01 X42.3444 Y96.9889
G01 X42.4599 Y96.8299
G01 X42.5492 Y96.6548
G01 X42.6099 Y96.4679
G01 X42.6406 Y96.2738
G01 X42.6406 Y96.0773
G01 X42.6099 Y95.8832
G01 X42.5492 Y95.6963
G01 X42.4599 Y95.5212
G01 X42.3444 Y95.3622
G01 X42.2055 Y95.2233
G01 X42.0465 Y95.1077
G01 X41.8714 Y95.0185
G01 X41.6845 Y94.9578
G01 X41.4904 Y94.9271
G01 X39.8969 Y94.9271
G01 X39.7028 Y94.9578
G01 X39.5159 Y95.0185
G01 X39.3408 Y95.1077
G01 X39.1818 Y95.2233
G01 X39.0428 Y95.3622
G01 X38.9273 Y95.5212
G01 X38.8381 Y95.6963
G01 X38.7774 Y95.8832
G01 X38.7466 Y96.0773
G01 X38.7466 Y96.2738
G01 X38.7774 Y96.4679
G01 X38.8381 Y96.6548
G01 X38.9273 Y96.8299
G01 X39.0428 Y96.9889
G01 X39.1818 Y97.1279
G00 Z3.0000
G00 X50.8531 Y6.1965
G01 Z-0.2000 F254
G01 X50.7325 Y6.3626 F609
G01 X50.6393 Y6.5454
G01 X50.5759 Y6.7406
G01 X50.5438 Y6.9434
G01 X50.5438 Y8.6566
G01 X50.5759 Y8.8594
G01 X50.6393 Y9.0546
G01 X50.7325 Y9.2374
G01 X50.8531 Y9.4035
G01 X50.9982 Y9.5486
G01 X51.1088 Y9.6289
G01 X51.1088 Y12.1544
G01 X51.1054 Y12.1805
G01 X51.1088 Y12.2284
G01 X51.1088 Y12.2764
G01 X51.1138 Y12.3022
G01 X51.1157 Y12.3285
G01 X51.1283 Y12.3748
G01 X51.1377 Y12.4220
G01 X51.1478 Y12.4463
G01 X51.1547 Y12.4716
G01 X51.1761 Y12.5146
G01 X51.1945 Y12.5590
G01 X51.2090 Y12.5809
G01 X51.2208 Y12.6044
G01 X51.2501 Y12.6424
G01 X51.2769 Y12.6824
G01 X51.2955 Y12.7010
G01 X51.3115 Y12.7218
G01 X51.3477 Y12.7533
G01 X51.3818 Y12.7873
G01 X51.4036 Y12.8019
G01 X57.8894 Y18.4450
G01 X57.9235 Y18.4791
G01 X57.9451 Y18.4936
G01 X57.9650 Y18.5107
G01 X58.0067 Y18.5347
G01 X58.0468 Y18.5614
G01 X58.0709 Y18.5714
G01 X58.0936 Y18.5844
G01 X58.1394 Y18.5997
G01 X58.1840 Y18.6182
G01 X58.2096 Y18.6232
G01 X58.2343 Y18.6316
G01 X58.2823 Y18.6377
G01 X58.3295 Y18.6470
G01 X58.3556 Y18.6470
G01 X58.3816 Y18.6503
G01 X58.4297 Y18.6470
G01 X61.9380 Y18.6456
G01 X61.9631 Y18.6803
G01 X62.0979 Y18.8150
G01 X62.2520 Y18.9270
G01 X62.4218 Y19.0135
G01 X62.6029 Y19.0724
G01 X62.7912 Y19.1022
G01 X64.3024 Y19.1022
G01 X64.4907 Y19.0724
G01 X64.6719 Y19.0135
G01 X64.8415 Y18.9270
G01 X64.9958 Y18.8150
G01 X65.1304 Y18.6803
G01 X65.1561 Y18.6450
G01 X75.6035 Y18.6450
G01 X75.6035 Y18.7527
G01 X75.6333 Y18.9409
G01 X75.6921 Y19.1221
G01 X75.7786 Y19.2919
G01 X75.8906 Y19.4460
G01 X76.0254 Y19.5807
G01 X76.1795 Y19.6927
G01 X76.3492 Y19.7792
G01 X76.5305 Y19.8381
G01 X76.7185 Y19.8679
G01 X76.9091 Y19.8679
G01 X77.0973 Y19.8381
G01 X77.2784 Y19.7792
G01 X77.4483 Y19.6927
G01 X77.6024 Y19.5807
G01 X77.7370 Y19.4460
G01 X77.8491 Y19.2919
G01 X77.9356 Y19.1221
G01 X77.9945 Y18.9409
G01 X78.0242 Y18.7527
G01 X79.7267 Y18.7503
G01 X79.7267 Y18.7739
G01 X79.7566 Y18.9621
G01 X79.8154 Y19.1433
G01 X79.9019 Y19.3130
G01 X80.0139 Y19.4672
G01 X80.1487 Y19.6019
G01 X80.3028 Y19.7139
G01 X80.4725 Y19.8004
G01 X80.6538 Y19.8592
G01 X80.8419 Y19.8890
G01 X81.0324 Y19.8890
G01 X81.2206 Y19.8592
G01 X81.4017 Y19.8004
G01 X81.5716 Y19.7139
G01 X81.7257 Y19.6019
G01 X81.8604 Y19.4672
G01 X81.9724 Y19.3130
G01 X82.0589 Y19.1433
G01 X82.1178 Y18.9621
G01 X82.1475 Y18.7739
G01 X87.9291 Y18.7714
G01 X87.9925 Y18.8958
G01 X88.1080 Y19.0548
G01 X88.2471 Y19.1938
G01 X88.4060 Y19.3093
G01 X88.5812 Y19.3985
G01 X88.7681 Y19.4592
G01 X88.9622 Y19.4900
G01 X90.5556 Y19.4900
G01 X90.7498 Y19.4592
G01 X90.9367 Y19.3985
G01 X91.1118 Y19.3093
G01 X91.2707 Y19.1938
G01 X91.4096 Y19.0548
G01 X91.5251 Y18.8958
G01 X91.6145 Y18.7207
G01 X91.6752 Y18.5338
G01 X91.7058 Y18.3397
G01 X91.7058 Y18.1432
G01 X91.6752 Y17.9491
G01 X91.6145 Y17.7622
G01 X91.5251 Y17.5871
G01 X91.4096 Y17.4281
G01 X91.2707 Y17.2892
G01 X91.1118 Y17.1736
G01 X90.9367 Y17.0844
G01 X90.7498 Y17.0237
G01 X90.5556 Y16.9930
G01 X88.9622 Y16.9930
G01 X88.7681 Y17.0237
G01 X88.5812 Y17.0844
G01 X88.4060 Y17.1736
G01 X88.2802 Y17.2650
G01 X82.1475 Y17.2650
G01 X82.1178 Y17.0744
G01 X82.0589 Y16.8932
G01 X81.9724 Y16.7234
G01 X81.8604 Y16.5693
G01 X81.7257 Y16.4346
G01 X81.5716 Y16.3226
G01 X81.4017 Y16.2361
G01 X81.2206 Y16.1772
G01 X81.0324 Y16.1474
G01 X80.8419 Y16.1474
G01 X80.6538 Y16.1772
G01 X80.4725 Y16.2361
G01 X80.3028 Y16.3226
G01 X80.1487 Y16.4346
G01 X80.0139 Y16.5693
G01 X79.9019 Y16.7234
G01 X79.8154 Y16.8932
G01 X79.7566 Y17.0744
G01 X79.7297 Y17.2439
G01 X78.0242 Y17.2439
G01 X77.9945 Y17.0532
G01 X77.9356 Y16.8720
G01 X77.8491 Y16.7023
G01 X77.7370 Y16.5481
G01 X77.6024 Y16.4134
G01 X77.4483 Y16.3014
G01 X77.2784 Y16.2150
G01 X77.0973 Y16.1561
G01 X76.9091 Y16.1263
G01 X76.7185 Y16.1263
G01 X76.5305 Y16.1561
G01 X76.3492 Y16.2150
G01 X76.1795 Y16.3014
G01 X76.0254 Y16.4134
G01 X75.8906 Y16.5481
G01 X75.7786 Y16.7023
G01 X75.6921 Y16.8720
G01 X75.6333 Y17.0532
G01 X75.6197 Y17.1386
G01 X65.1561 Y17.1386
G01 X65.1304 Y17.1033
G01 X64.9958 Y16.9686
G01 X64.8415 Y16.8566
G01 X64.6719 Y16.7701
G01 X64.4907 Y16.7112
G01 X64.3024 Y16.6814
G01 X62.7912 Y16.6814
G01 X62.6029 Y16.7112
G01 X62.4218 Y16.7701
G01 X62.2520 Y16.8566
G01 X62.0979 Y16.9686
G01 X61.9631 Y17.1033
G01 X61.9370 Y17.1392
G01 X58.6851 Y17.1405
G01 X52.6151 Y11.8592
G01 X52.6151 Y9.6083
G01 X52.6972 Y9.5486
G01 X52.8424 Y9.4035
G01 X52.9631 Y9.2374
G01 X53.0562 Y9.0546
G01 X53.1197 Y8.8594
G01 X53.1517 Y8.6566
G01 X53.1517 Y6.9434
G01 X53.1197 Y6.7406
G01 X53.0562 Y6.5454
G01 X52.9631 Y6.3626
G01 X52.8424 Y6.1965
G01 X52.6972 Y6.0514
G01 X52.5311 Y5.9307
G01 X52.3484 Y5.8375
G01 X52.1532 Y5.7741
G01 X51.9504 Y5.7420
G01 X51.7452 Y5.7420
G01 X51.5423 Y5.7741
G01 X51.3471 Y5.8375
G01 X51.1643 Y5.9307
G01 X50.9982 Y6.0514
G01 X50.8531 Y6.1965
G00 Z3.0000
G00 X54.3531 Y6.1965
G01 Z-0.2000 F254
G01 X54.2325 Y6.3626 F609
G01 X54.1393 Y6.5454
G01 X54.0759 Y6.7406
G01 X54.0438 Y6.9434
G01 X54.0438 Y8.6566
G01 X54.0759 Y8.8594
G01 X54.1393 Y9.0546
G01 X54.2325 Y9.2374
G01 X54.3531 Y9.4035
G01 X54.4982 Y9.5486
G01 X54.6422 Y9.6532
G01 X54.6422 Y11.4800
G01 X54.6386 Y11.5126
G01 X54.6422 Y11.5540
G01 X54.6422 Y11.5956
G01 X54.6486 Y11.6277
G01 X54.6514 Y11.6604
G01 X54.6630 Y11.7003
G01 X54.6711 Y11.7411
G01 X54.6837 Y11.7714
G01 X54.6928 Y11.8029
G01 X54.7120 Y11.8398
G01 X54.7279 Y11.8782
G01 X54.7460 Y11.9054
G01 X54.7612 Y11.9345
G01 X54.7871 Y11.9670
G01 X54.8103 Y12.0015
G01 X54.8334 Y12.0247
G01 X54.8539 Y12.0503
G01 X54.8858 Y12.0771
G01 X54.9151 Y12.1065
G01 X54.9425 Y12.1247
G01 X58.4261 Y15.0523
G01 X58.4261 Y15.8413
G01 X58.4560 Y16.0294
G01 X58.5149 Y16.2106
G01 X58.6013 Y16.3804
G01 X58.7133 Y16.5345
G01 X58.8481 Y16.6692
G01 X59.0022 Y16.7812
G01 X59.1720 Y16.8677
G01 X59.3531 Y16.9266
G01 X59.5412 Y16.9564
G01 X59.7317 Y16.9564
G01 X59.9200 Y16.9266
G01 X60.1012 Y16.8677
G01 X60.2709 Y16.7812
G01 X60.4250 Y16.6692
G01 X60.5598 Y16.5345
G01 X60.6718 Y16.3804
G01 X60.7583 Y16.2106
G01 X60.8171 Y16.0294
G01 X60.8469 Y15.8413
G01 X60.8469 Y14.3299
G01 X60.8171 Y14.1418
G01 X60.7583 Y13.9606
G01 X60.6718 Y13.7908
G01 X60.5598 Y13.6367
G01 X60.4250 Y13.5020
G01 X60.2709 Y13.3900
G01 X60.1012 Y13.3035
G01 X59.9200 Y13.2446
G01 X59.7317 Y13.2148
G01 X59.5412 Y13.2148
G01 X59.3531 Y13.2446
G01 X59.1720 Y13.3035
G01 X59.0022 Y13.3900
G01 X58.8882 Y13.4728
G01 X56.1486 Y11.1705
G01 X56.1486 Y9.5840
G01 X56.1972 Y9.5486
G01 X56.3424 Y9.4035
G01 X56.4631 Y9.2374
G01 X56.5562 Y9.0546
G01 X56.6197 Y8.8594
G01 X56.6517 Y8.6566
G01 X56.6517 Y6.9434
G01 X56.6197 Y6.7406
G01 X56.5562 Y6.5454
G01 X56.4631 Y6.3626
G01 X56.3424 Y6.1965
G01 X56.1972 Y6.0514
G01 X56.0311 Y5.9307
G01 X55.8483 Y5.8375
G01 X55.6532 Y5.7741
G01 X55.4504 Y5.7420
G01 X55.2452 Y5.7420
G01 X55.0423 Y5.7741
G01 X54.8471 Y5.8375
G01 X54.6643 Y5.9307
G01 X54.4982 Y6.0514
G01 X54.3531 Y6.1965
G00 Z3.0000
G00 X58.6013 Y6.2204
G01 Z-0.2000 F254
G01 X58.7133 Y6.3745 F609
G01 X58.8481 Y6.5092
G01 X59.0022 Y6.6212
G01 X59.1720 Y6.7077
G01 X59.3531 Y6.7666
G01 X59.5412 Y6.7964
G01 X59.7317 Y6.7964
G01 X59.9200 Y6.7666
G01 X60.1012 Y6.7077
G01 X60.2709 Y6.6212
G01 X60.4250 Y6.5092
G01 X60.4779 Y6.4564
G01 X61.7349 Y7.3586
G01 X61.7058 Y7.4484
G01 X61.6761 Y7.6365
G01 X61.6761 Y7.8270
G01 X61.7058 Y8.0152
G01 X61.7647 Y8.1964
G01 X61.8512 Y8.3662
G01 X61.9631 Y8.5203
G01 X62.0979 Y8.6550
G01 X62.2520 Y8.7670
G01 X62.4218 Y8.8535
G01 X62.6029 Y8.9124
G01 X62.7912 Y8.9422
G01 X64.3024 Y8.9422
G01 X64.4907 Y8.9124
G01 X64.6719 Y8.8535
G01 X64.8415 Y8.7670
G01 X64.9958 Y8.6550
G01 X65.1304 Y8.5203
G01 X65.2425 Y8.3662
G01 X65.3289 Y8.1964
G01 X65.3879 Y8.0152
G01 X65.4177 Y7.8270
G01 X65.4177 Y7.6365
G01 X65.3879 Y7.4484
G01 X65.3289 Y7.2672
G01 X65.2425 Y7.0974
G01 X65.1304 Y6.9433
G01 X64.9958 Y6.8086
G01 X64.8415 Y6.6966
G01 X64.6719 Y6.6101
G01 X64.4907 Y6.5512
G01 X64.3024 Y6.5214
G01 X63.1521 Y6.5214
G01 X60.8469 Y4.8672
G01 X60.8469 Y4.1699
G01 X60.8171 Y3.9818
G01 X60.7583 Y3.8006
G01 X60.6718 Y3.6308
G01 X60.5598 Y3.4767
G01 X60.4250 Y3.3420
G01 X60.2709 Y3.2300
G01 X60.1012 Y3.1435
G01 X59.9200 Y3.0846
G01 X59.7317 Y3.0548
G01 X59.5412 Y3.0548
G01 X59.3531 Y3.0846
G01 X59.1720 Y3.1435
G01 X59.0022 Y3.2300
G01 X58.8481 Y3.3420
G01 X58.7133 Y3.4767
G01 X58.6013 Y3.6308
G01 X58.5149 Y3.8006
G01 X58.4560 Y3.9818
G01 X58.4261 Y4.1699
G01 X58.4261 Y5.6813
G01 X58.4560 Y5.8694
G01 X58.5149 Y6.0506
G01 X58.6013 Y6.2204
G00 Z3.0000
G00 X61.9631 Y9.4833
G01 Z-0.2000 F254
G01 X61.8512 Y9.6374 F609
G01 X61.7647 Y9.8072
G01 X61.7058 Y9.9884
G01 X61.6761 Y10.1765
G01 X61.6761 Y10.3671
G01 X61.7058 Y10.5552
G01 X61.7647 Y10.7364
G01 X61.8512 Y10.9062
G01 X61.9631 Y11.0603
G01 X62.0979 Y11.1950
G01 X62.2520 Y11.3070
G01 X62.4218 Y11.3935
G01 X62.6029 Y11.4524
G01 X62.7912 Y11.4822
G01 X64.3024 Y11.4822
G01 X64.4907 Y11.4524
G01 X64.6719 Y11.3935
G01 X64.8415 Y11.3070
G01 X64.9958 Y11.1950
G01 X65.1304 Y11.0603
G01 X65.2425 Y10.9062
G01 X65.3289 Y10.7364
G01 X65.3879 Y10.5552
G01 X65.4177 Y10.3671
G01 X65.4177 Y10.1765
G01 X65.3879 Y9.9884
G01 X65.3289 Y9.8072
G01 X65.2425 Y9.6374
G01 X65.1304 Y9.4833
G01 X64.9958 Y9.3485
G01 X64.8415 Y9.2366
G01 X64.6719 Y9.1501
G01 X64.4907 Y9.0912
G01 X64.3024 Y9.0614
G01 X62.7912 Y9.0614
G01 X62.6029 Y9.0912
G01 X62.4218 Y9.1501
G01 X62.2520 Y9.2366
G01 X62.0979 Y9.3485
G01 X61.9631 Y9.4833
G00 Z3.0000
G00 X61.9631 Y12.0233
G01 Z-0.2000 F254
G01 X61.8512 Y12.1774 F609
G01 X61.7647 Y12.3472
G01 X61.7058 Y12.5284
G01 X61.6761 Y12.7165
G01 X61.6761 Y12.9070
G01 X61.7058 Y13.0952
G01 X61.7647 Y13.2764
G01 X61.8512 Y13.4462
G01 X61.9631 Y13.6003
G01 X62.0979 Y13.7350
G01 X62.2520 Y13.8470
G01 X62.4218 Y13.9335
G01 X62.6029 Y13.9924
G01 X62.7912 Y14.0222
G01 X64.3024 Y14.0222
G01 X64.4907 Y13.9924
G01 X64.6719 Y13.9335
G01 X64.8415 Y13.8470
G01 X64.9958 Y13.7350
G01 X65.1304 Y13.6003
G01 X65.1446 Y13.5808
G01 X70.3260 Y13.6321
G01 X70.3581 Y13.6360
G01 X70.4000 Y13.6328
G01 X70.4420 Y13.6332
G01 X70.4737 Y13.6272
G01 X70.5059 Y13.6248
G01 X70.5464 Y13.6135
G01 X70.5879 Y13.6057
G01 X70.6179 Y13.5937
G01 X70.6489 Y13.5850
G01 X70.6865 Y13.5660
G01 X70.7254 Y13.5503
G01 X70.7524 Y13.5326
G01 X70.7814 Y13.5181
G01 X70.8144 Y13.4921
G01 X70.8496 Y13.4691
G01 X70.8726 Y13.4465
G01 X76.0200 Y9.4154
G01 X76.0254 Y9.4207
G01 X76.1795 Y9.5327
G01 X76.3492 Y9.6192
G01 X76.5305 Y9.6781
G01 X76.7185 Y9.7079
G01 X76.9091 Y9.7079
G01 X77.0973 Y9.6781
G01 X77.2784 Y9.6192
G01 X77.4483 Y9.5327
G01 X77.6024 Y9.4207
G01 X77.7370 Y9.2860
G01 X77.8491 Y9.1319
G01 X77.9356 Y8.9621
G01 X77.9945 Y8.7809
G01 X78.0242 Y8.5927
G01 X79.7267 Y8.5903
G01 X79.7267 Y8.6139
G01 X79.7566 Y8.8021
G01 X79.8154 Y8.9833
G01 X79.9019 Y9.1530
G01 X80.0139 Y9.3072
G01 X80.1487 Y9.4419
G01 X80.3028 Y9.5539
G01 X80.4725 Y9.6403
G01 X80.6538 Y9.6992
G01 X80.8419 Y9.7290
G01 X81.0324 Y9.7290
G01 X81.2206 Y9.6992
G01 X81.4017 Y9.6403
G01 X81.5669 Y9.5562
G01 X86.7061 Y14.7082
G01 X86.6851 Y14.7371
G01 X86.5958 Y14.9122
G01 X86.5352 Y15.0991
G01 X86.5044 Y15.2932
G01 X86.5044 Y15.4897
G01 X86.5352 Y15.6838
G01 X86.5958 Y15.8707
G01 X86.6851 Y16.0458
G01 X86.8006 Y16.2048
G01 X86.9395 Y16.3438
G01 X87.0986 Y16.4593
G01 X87.2737 Y16.5485
G01 X87.4605 Y16.6092
G01 X87.6547 Y16.6400
G01 X89.2482 Y16.6400
G01 X89.4423 Y16.6092
G01 X89.6292 Y16.5485
G01 X89.8042 Y16.4593
G01 X89.9633 Y16.3438
G01 X90.1021 Y16.2048
G01 X90.2176 Y16.0458
G01 X90.3070 Y15.8707
G01 X90.3676 Y15.6838
G01 X90.3983 Y15.4897
G01 X90.3983 Y15.2932
G01 X90.3676 Y15.0991
G01 X90.3070 Y14.9122
G01 X90.2176 Y14.7371
G01 X90.1021 Y14.5781
G01 X89.9633 Y14.4392
G01 X89.8042 Y14.3237
G01 X89.6292 Y14.2344
G01 X89.4423 Y14.1737
G01 X89.2482 Y14.1430
G01 X88.2698 Y14.1430
G01 X82.1475 Y8.0052
G01 X82.1475 Y7.1026
G01 X82.1178 Y6.9144
G01 X82.0589 Y6.7332
G01 X81.9724 Y6.5634
G01 X81.8604 Y6.4093
G01 X81.7257 Y6.2746
G01 X81.5716 Y6.1626
G01 X81.4017 Y6.0761
G01 X81.2206 Y6.0172
G01 X81.0324 Y5.9874
G01 X80.8419 Y5.9874
G01 X80.6538 Y6.0172
G01 X80.4725 Y6.0761
G01 X80.3028 Y6.1626
G01 X80.1487 Y6.2746
G01 X80.0139 Y6.4093
G01 X79.9019 Y6.5634
G01 X79.8154 Y6.7332
G01 X79.7566 Y6.9144
G01 X79.7297 Y7.0839
G01 X78.0242 Y7.0839
G01 X77.9945 Y6.8932
G01 X77.9356 Y6.7120
G01 X77.8491 Y6.5423
G01 X77.7370 Y6.3882
G01 X77.6024 Y6.2534
G01 X77.4483 Y6.1414
G01 X77.2784 Y6.0550
G01 X77.0973 Y5.9961
G01 X76.9091 Y5.9663
G01 X76.7185 Y5.9663
G01 X76.5305 Y5.9961
G01 X76.3492 Y6.0550
G01 X76.1795 Y6.1414
G01 X76.0254 Y6.2534
G01 X75.8906 Y6.3882
G01 X75.7786 Y6.5423
G01 X75.6921 Y6.7120
G01 X75.6333 Y6.8932
G01 X75.6035 Y7.0814
G01 X75.6035 Y7.8283
G01 X70.1188 Y12.1236
G01 X65.1677 Y12.0746
G01 X65.1304 Y12.0233
G01 X64.9958 Y11.8886
G01 X64.8415 Y11.7766
G01 X64.6719 Y11.6901
G01 X64.4907 Y11.6312
G01 X64.3024 Y11.6014
G01 X62.7912 Y11.6014
G01 X62.6029 Y11.6312
G01 X62.4218 Y11.6901
G01 X62.2520 Y11.7766
G01 X62.0979 Y11.8886
G01 X61.9631 Y12.0233
G00 Z3.0000
G00 X61.9631 Y14.5633
G01 Z-0.2000 F254
G01 X61.8512 Y14.7174 F609
G01 X61.7647 Y14.8872
G01 X61.7058 Y15.0684
G01 X61.6761 Y15.2565
G01 X61.6761 Y15.4471
G01 X61.7058 Y15.6352
G01 X61.7647 Y15.8164
G01 X61.8512 Y15.9862
G01 X61.9631 Y16.1403
G01 X62.0979 Y16.2750
G01 X62.2520 Y16.3870
G01 X62.4218 Y16.4735
G01 X62.6029 Y16.5324
G01 X62.7912 Y16.5622
G01 X64.3024 Y16.5622
G01 X64.4907 Y16.5324
G01 X64.6719 Y16.4735
G01 X64.8415 Y16.3870
G01 X64.9958 Y16.2750
G01 X65.1304 Y16.1403
G01 X65.2425 Y15.9862
G01 X65.3289 Y15.8164
G01 X65.3879 Y15.6352
G01 X65.4177 Y15.4471
G01 X65.4177 Y15.2565
G01 X65.3879 Y15.0684
G01 X65.3289 Y14.8872
G01 X65.2425 Y14.7174
G01 X65.1304 Y14.5633
G01 X64.9958 Y14.4285
G01 X64.8415 Y14.3166
G01 X64.6719 Y14.2301
G01 X64.4907 Y14.1712
G01 X64.3024 Y14.1414
G01 X62.7912 Y14.1414
G01 X62.6029 Y14.1712
G01 X62.4218 Y14.2301
G01 X62.2520 Y14.3166
G01 X62.0979 Y14.4285
G01 X61.9631 Y14.5633
G00 Z3.0000
G00 X86.9796 Y10.7313
G01 Z-0.2000 F254
G01 X87.1386 Y10.8468 F609
G01 X87.3136 Y10.9360
G01 X87.5006 Y10.9967
G01 X87.6946 Y11.0275
G01 X89.2882 Y11.0275
G01 X89.4822 Y10.9967
G01 X89.6692 Y10.9360
G01 X89.8443 Y10.8468
G01 X90.0033 Y10.7313
G01 X90.1422 Y10.5923
G01 X90.2576 Y10.4333
G01 X90.3469 Y10.2582
G01 X90.4077 Y10.0713
G01 X90.4383 Y9.8772
G01 X90.4383 Y9.6807
G01 X90.4077 Y9.4866
G01 X90.3469 Y9.2997
G01 X90.2576 Y9.1246
G01 X90.1422 Y8.9656
G01 X90.0033 Y8.8267
G01 X89.8443 Y8.7111
G01 X89.6692 Y8.6219
G01 X89.4822 Y8.5612
G01 X89.2882 Y8.5305
G01 X87.6946 Y8.5305
G01 X87.5006 Y8.5612
G01 X87.3136 Y8.6219
G01 X87.1386 Y8.7111
G01 X86.9796 Y8.8267
G01 X86.8406 Y8.9656
G01 X86.7251 Y9.1246
G01 X86.6359 Y9.2997
G01 X86.5752 Y9.4866
G01 X86.5444 Y9.6807
G01 X86.5444 Y9.8772
G01 X86.5752 Y10.0713
G01 X86.6359 Y10.2582
G01 X86.7251 Y10.4333
G01 X86.8406 Y10.5923
G01 X86.9796 Y10.7313
G00 Z3.0000
G00 X50.8531 Y27.7956
G01 Z-0.2000 F254
G01 X50.7325 Y27.9617 F609
G01 X50.6393 Y28.1445
G01 X50.5759 Y28.3397
G01 X50.5438 Y28.5425
G01 X50.5438 Y30.2557
G01 X50.5759 Y30.4585
G01 X50.6393 Y30.6537
G01 X50.7325 Y30.8365
G01 X50.8531 Y31.0026
G01 X50.9982 Y31.1477
G01 X51.1088 Y31.2280
G01 X51.1088 Y33.7535
G01 X51.1054 Y33.7796
G01 X51.1088 Y33.8276
G01 X51.1088 Y33.8755
G01 X51.1138 Y33.9013
G01 X51.1157 Y33.9276
G01 X51.1283 Y33.9740
G01 X51.1377 Y34.0211
G01 X51.1478 Y34.0455
G01 X51.1547 Y34.0707
G01 X51.1761 Y34.1137
G01 X51.1945 Y34.1581
G01 X51.2090 Y34.1800
G01 X51.2208 Y34.2035
G01 X51.2501 Y34.2415
G01 X51.2769 Y34.2815
G01 X51.2955 Y34.3002
G01 X51.3115 Y34.3209
G01 X51.3477 Y34.3524
G01 X51.3818 Y34.3864
G01 X51.4036 Y34.4010
G01 X57.8894 Y40.0442
G01 X57.9235 Y40.0782
G01 X57.9451 Y40.0927
G01 X57.9650 Y40.1098
G01 X58.0067 Y40.1338
G01 X58.0468 Y40.1606
G01 X58.0709 Y40.1705
G01 X58.0936 Y40.1835
G01 X58.1394 Y40.1988
G01 X58.1840 Y40.2173
G01 X58.2096 Y40.2223
G01 X58.2343 Y40.2308
G01 X58.2823 Y40.2368
G01 X58.3295 Y40.2462
G01 X58.3556 Y40.2462
G01 X58.3816 Y40.2494
G01 X58.4297 Y40.2462
G01 X61.9380 Y40.2447
G01 X61.9631 Y40.2794
G01 X62.0979 Y40.4141
G01 X62.2520 Y40.5262
G01 X62.4218 Y40.6127
G01 X62.6029 Y40.6715
G01 X62.7912 Y40.7013
G01 X64.3024 Y40.7013
G01 X64.4907 Y40.6715
G01 X64.6719 Y40.6127
G01 X64.8415 Y40.5262
G01 X64.9958 Y40.4141
G01 X65.1304 Y40.2794
G01 X65.1561 Y40.2441
G01 X75.6035 Y40.2441
G01 X75.6035 Y40.3518
G01 X75.6333 Y40.5400
G01 X75.6921 Y40.7212
G01 X75.7786 Y40.8910
G01 X75.8906 Y41.0451
G01 X76.0254 Y41.1799
G01 X76.1795 Y41.2918
G01 X76.3492 Y41.3783
G01 X76.5305 Y41.4372
G01 X76.7185 Y41.4671
G01 X76.9091 Y41.4671
G01 X77.0973 Y41.4372
G01 X77.2784 Y41.3783
G01 X77.4483 Y41.2918
G01 X77.6024 Y41.1799
G01 X77.7370 Y41.0451
G01 X77.8491 Y40.8910
G01 X77.9356 Y40.7212
G01 X77.9945 Y40.5400
G01 X78.0242 Y40.3518
G01 X79.7267 Y40.3494
G01 X79.7267 Y40.3730
G01 X79.7566 Y40.5613
G01 X79.8154 Y40.7424
G01 X79.9019 Y40.9121
G01 X80.0139 Y41.0663
G01 X80.1487 Y41.2010
G01 X80.3028 Y41.3130
G01 X80.4725 Y41.3995
G01 X80.6538 Y41.4583
G01 X80.8419 Y41.4881
G01 X81.0324 Y41.4881
G01 X81.2206 Y41.4583
G01 X81.4017 Y41.3995
G01 X81.5716 Y41.3130
G01 X81.7257 Y41.2010
G01 X81.8604 Y41.0663
G01 X81.9724 Y40.9121
G01 X82.0589 Y40.7424
G01 X82.1178 Y40.5613
G01 X82.1475 Y40.3730
G01 X87.9291 Y40.3705
G01 X87.9925 Y40.4950
G01 X88.1080 Y40.6539
G01 X88.2471 Y40.7929
G01 X88.4060 Y40.9085
G01 X88.5812 Y40.9976
G01 X88.7681 Y41.0583
G01 X88.9622 Y41.0891
G01 X90.5556 Y41.0891
G01 X90.7498 Y41.0583
G01 X90.9367 Y40.9976
G01 X91.1118 Y40.9085
G01 X91.2707 Y40.7929
G01 X91.4096 Y40.6539
G01 X91.5251 Y40.4950
G01 X91.6145 Y40.3199
G01 X91.6752 Y40.1329
G01 X91.7058 Y39.9389
G01 X91.7058 Y39.7424
G01 X91.6752 Y39.5482
G01 X91.6145 Y39.3614
G01 X91.5251 Y39.1863
G01 X91.4096 Y39.0272
G01 X91.2707 Y38.8884
G01 X91.1118 Y38.7728
G01 X90.9367 Y38.6835
G01 X90.7498 Y38.6228
G01 X90.5556 Y38.5921
G01 X88.9622 Y38.5921
G01 X88.7681 Y38.6228
G01 X88.5812 Y38.6835
G01 X88.4060 Y38.7728
G01 X88.2802 Y38.8641
G01 X82.1475 Y38.8641
G01 X82.1178 Y38.6735
G01 X82.0589 Y38.4924
G01 X81.9724 Y38.3225
G01 X81.8604 Y38.1684
G01 X81.7257 Y38.0337
G01 X81.5716 Y37.9218
G01 X81.4017 Y37.8353
G01 X81.2206 Y37.7763
G01 X81.0324 Y37.7465
G01 X80.8419 Y37.7465
G01 X80.6538 Y37.7763
G01 X80.4725 Y37.8353
G01 X80.3028 Y37.9218
G01 X80.1487 Y38.0337
G01 X80.0139 Y38.1684
G01 X79.9019 Y38.3225
G01 X79.8154 Y38.4924
G01 X79.7566 Y38.6735
G01 X79.7297 Y38.8430
G01 X78.0242 Y38.8430
G01 X77.9945 Y38.6523
G01 X77.9356 Y38.4711
G01 X77.8491 Y38.3015
G01 X77.7370 Y38.1472
G01 X77.6024 Y38.0125
G01 X77.4483 Y37.9005
G01 X77.2784 Y37.8141
G01 X77.0973 Y37.7552
G01 X76.9091 Y37.7254
G01 X76.7185 Y37.7254
G01 X76.5305 Y37.7552
G01 X76.3492 Y37.8141
G01 X76.1795 Y37.9005
G01 X76.0254 Y38.0125
G01 X75.8906 Y38.1472
G01 X75.7786 Y38.3015
G01 X75.6921 Y38.4711
G01 X75.6333 Y38.6523
G01 X75.6197 Y38.7377
G01 X65.1561 Y38.7377
G01 X65.1304 Y38.7024
G01 X64.9958 Y38.5677
G01 X64.8415 Y38.4557
G01 X64.6719 Y38.3692
G01 X64.4907 Y38.3103
G01 X64.3024 Y38.2805
G01 X62.7912 Y38.2805
G01 X62.6029 Y38.3103
G01 X62.4218 Y38.3692
G01 X62.2520 Y38.4557
G01 X62.0979 Y38.5677
G01 X61.9631 Y38.7024
G01 X61.9370 Y38.7383
G01 X58.6851 Y38.7396
G01 X52.6151 Y33.4583
G01 X52.6151 Y31.2074
G01 X52.6972 Y31.1477
G01 X52.8424 Y31.0026
G01 X52.9631 Y30.8365
G01 X53.0562 Y30.6537
G01 X53.1197 Y30.4585
G01 X53.1517 Y30.2557
G01 X53.1517 Y28.5425
G01 X53.1197 Y28.3397
G01 X53.0562 Y28.1445
G01 X52.9631 Y27.9617
G01 X52.8424 Y27.7956
G01 X52.6972 Y27.6505
G01 X52.5311 Y27.5298
G01 X52.3484 Y27.4367
G01 X52.1532 Y27.3732
G01 X51.9504 Y27.3411
G01 X51.7452 Y27.3411
G01 X51.5423 Y27.3732
G01 X51.3471 Y27.4367
G01 X51.1643 Y27.5298
G01 X50.9982 Y27.6505
G01 X50.8531 Y27.7956
G00 Z3.0000
G00 X54.3531 Y27.7956
G01 Z-0.2000 F254
G01 X54.2325 Y27.9617 F609
G01 X54.1393 Y28.1445
G01 X54.0759 Y28.3397
G01 X54.0438 Y28.5425
G01 X54.0438 Y30.2557
G01 X54.0759 Y30.4585
G01 X54.1393 Y30.6537
G01 X54.2325 Y30.8365
G01 X54.3531 Y31.0026
G01 X54.4982 Y31.1477
G01 X54.6422 Y31.2523
G01 X54.6422 Y33.0791
G01 X54.6386 Y33.1118
G01 X54.6422 Y33.1531
G01 X54.6422 Y33.1947
G01 X54.6486 Y33.2268
G01 X54.6514 Y33.2595
G01 X54.6630 Y33.2995
G01 X54.6711 Y33.3402
G01 X54.6837 Y33.3705
G01 X54.6928 Y33.4020
G01 X54.7120 Y33.4389
G01 X54.7279 Y33.4774
G01 X54.7460 Y33.5045
G01 X54.7612 Y33.5336
G01 X54.7871 Y33.5662
G01 X54.8103 Y33.6007
G01 X54.8334 Y33.6238
G01 X54.8539 Y33.6495
G01 X54.8858 Y33.6762
G01 X54.9151 Y33.7056
G01 X54.9425 Y33.7238
G01 X58.4261 Y36.6514
G01 X58.4261 Y37.4404
G01 X58.4560 Y37.6285
G01 X58.5149 Y37.8097
G01 X58.6013 Y37.9796
G01 X58.7133 Y38.1337
G01 X58.8481 Y38.2683
G01 X59.0022 Y38.3803
G01 X59.1720 Y38.4668
G01 X59.3531 Y38.5258
G01 X59.5412 Y38.5555
G01 X59.7317 Y38.5555
G01 X59.9200 Y38.5258
G01 X60.1012 Y38.4668
G01 X60.2709 Y38.3803
G01 X60.4250 Y38.2683
G01 X60.5598 Y38.1337
G01 X60.6718 Y37.9796
G01 X60.7583 Y37.8097
G01 X60.8171 Y37.6285
G01 X60.8469 Y37.4404
G01 X60.8469 Y35.9290
G01 X60.8171 Y35.7409
G01 X60.7583 Y35.5597
G01 X60.6718 Y35.3899
G01 X60.5598 Y35.2358
G01 X60.4250 Y35.1011
G01 X60.2709 Y34.9891
G01 X60.1012 Y34.9026
G01 X59.9200 Y34.8438
G01 X59.7317 Y34.8139
G01 X59.5412 Y34.8139
G01 X59.3531 Y34.8438
G01 X59.1720 Y34.9026
G01 X59.0022 Y34.9891
G01 X58.8882 Y35.0720
G01 X56.1486 Y32.7696
G01 X56.1486 Y31.1831
G01 X56.1972 Y31.1477
G01 X56.3424 Y31.0026
G01 X56.4631 Y30.8365
G01 X56.5562 Y30.6537
G01 X56.6197 Y30.4585
G01 X56.6517 Y30.2557
G01 X56.6517 Y28.5425
G01 X56.6197 Y28.3397
G01 X56.5562 Y28.1445
G01 X56.4631 Y27.9617
G01 X56.3424 Y27.7956
G01 X56.1972 Y27.6505
G01 X56.0311 Y27.5298
G01 X55.8483 Y27.4367
G01 X55.6532 Y27.3732
G01 X55.4504 Y27.3411
G01 X55.2452 Y27.3411
G01 X55.0423 Y27.3732
G01 X54.8471 Y27.4367
G01 X54.6643 Y27.5298
G01 X54.4982 Y27.6505
G01 X54.3531 Y27.7956
G00 Z3.0000
G00 X58.6013 Y27.8195
G01 Z-0.2000 F254
G01 X58.7133 Y27.9736 F609
G01 X58.8481 Y28.1083
G01 X59.0022 Y28.2203
G01 X59.1720 Y28.3068
G01 X59.3531 Y28.3657
G01 X59.5412 Y28.3956
G01 X59.7317 Y28.3956
G01 X59.9200 Y28.3657
G01 X60.1012 Y28.3068
G01 X60.2709 Y28.2203
G01 X60.4250 Y28.1083
G01 X60.4779 Y28.0555
G01 X61.7349 Y28.9577
G01 X61.7058 Y29.0475
G01 X61.6761 Y29.2356
G01 X61.6761 Y29.4261
G01 X61.7058 Y29.6143
G01 X61.7647 Y29.7955
G01 X61.8512 Y29.9653
G01 X61.9631 Y30.1195
G01 X62.0979 Y30.2541
G01 X62.2520 Y30.3661
G01 X62.4218 Y30.4526
G01 X62.6029 Y30.5115
G01 X62.7912 Y30.5413
G01 X64.3024 Y30.5413
G01 X64.4907 Y30.5115
G01 X64.6719 Y30.4526
G01 X64.8415 Y30.3661
G01 X64.9958 Y30.2541
G01 X65.1304 Y30.1195
G01 X65.2425 Y29.9653
G01 X65.3289 Y29.7955
G01 X65.3879 Y29.6143
G01 X65.4177 Y29.4261
G01 X65.4177 Y29.2356
G01 X65.3879 Y29.0475
G01 X65.3289 Y28.8663
G01 X65.2425 Y28.6965
G01 X65.1304 Y28.5424
G01 X64.9958 Y28.4078
G01 X64.8415 Y28.2957
G01 X64.6719 Y28.2092
G01 X64.4907 Y28.1503
G01 X64.3024 Y28.1205
G01 X63.1521 Y28.1205
G01 X60.8469 Y26.4663
G01 X60.8469 Y25.7691
G01 X60.8171 Y25.5809
G01 X60.7583 Y25.3997
G01 X60.6718 Y25.2299
G01 X60.5598 Y25.0758
G01 X60.4250 Y24.9411
G01 X60.2709 Y24.8291
G01 X60.1012 Y24.7426
G01 X59.9200 Y24.6837
G01 X59.7317 Y24.6539
G01 X59.5412 Y24.6539
G01 X59.3531 Y24.6837
G01 X59.1720 Y24.7426
G01 X59.0022 Y24.8291
G01 X58.8481 Y24.9411
G01 X58.7133 Y25.0758
G01 X58.6013 Y25.2299
G01 X58.5149 Y25.3997
G01 X58.4560 Y25.5809
G01 X58.4261 Y25.7691
G01 X58.4261 Y27.2804
G01 X58.4560 Y27.4685
G01 X58.5149 Y27.6497
G01 X58.6013 Y27.8195
G00 Z3.0000
G00 X61.9631 Y31.0824
G01 Z-0.2000 F254
G01 X61.8512 Y31.2365 F609
G01 X61.7647 Y31.4063
G01 X61.7058 Y31.5876
G01 X61.6761 Y31.7756
G01 X61.6761 Y31.9662
G01 X61.7058 Y32.1543
G01 X61.7647 Y32.3355
G01 X61.8512 Y32.5053
G01 X61.9631 Y32.6594
G01 X62.0979 Y32.7942
G01 X62.2520 Y32.9061
G01 X62.4218 Y32.9926
G01 X62.6029 Y33.0515
G01 X62.7912 Y33.0814
G01 X64.3024 Y33.0814
G01 X64.4907 Y33.0515
G01 X64.6719 Y32.9926
G01 X64.8415 Y32.9061
G01 X64.9958 Y32.7942
G01 X65.1304 Y32.6594
G01 X65.2425 Y32.5053
G01 X65.3289 Y32.3355
G01 X65.3879 Y32.1543
G01 X65.4177 Y31.9662
G01 X65.4177 Y31.7756
G01 X65.3879 Y31.5876
G01 X65.3289 Y31.4063
G01 X65.2425 Y31.2365
G01 X65.1304 Y31.0824
G01 X64.9958 Y30.9476
G01 X64.8415 Y30.8357
G01 X64.6719 Y30.7492
G01 X64.4907 Y30.6903
G01 X64.3024 Y30.6606
G01 X62.7912 Y30.6606
G01 X62.6029 Y30.6903
G01 X62.4218 Y30.7492
G01 X62.2520 Y30.8357
G01 X62.0979 Y30.9476
G01 X61.9631 Y31.0824
G00 Z3.0000
G00 X61.9631 Y33.6225
G01 Z-0.2000 F254
G01 X61.8512 Y33.7766 F609
G01 X61.7647 Y33.9463
G01 X61.7058 Y34.1275
G01 X61.6761 Y34.3156
G01 X61.6761 Y34.5061
G01 X61.7058 Y34.6944
G01 X61.7647 Y34.8755
G01 X61.8512 Y35.0453
G01 X61.9631 Y35.1994
G01 X62.0979 Y35.3341
G01 X62.2520 Y35.4461
G01 X62.4218 Y35.5326
G01 X62.6029 Y35.5915
G01 X62.7912 Y35.6213
G01 X64.3024 Y35.6213
G01 X64.4907 Y35.5915
G01 X64.6719 Y35.5326
G01 X64.8415 Y35.4461
G01 X64.9958 Y35.3341
G01 X65.1304 Y35.1994
G01 X65.1446 Y35.1799
G01 X70.3260 Y35.2312
G01 X70.3581 Y35.2351
G01 X70.4000 Y35.2319
G01 X70.4420 Y35.2323
G01 X70.4737 Y35.2263
G01 X70.5059 Y35.2240
G01 X70.5464 Y35.2126
G01 X70.5879 Y35.2049
G01 X70.6179 Y35.1928
G01 X70.6489 Y35.1842
G01 X70.6865 Y35.1651
G01 X70.7254 Y35.1495
